(Created with grbl post processor 2023/09/04 22:35)
G21
(G-code generated with BlenderCAM and NC library)
G17G90
(Tool: D = 1.5 mm  type END flutes 2)
S12000M03
G00 Z2.0

G0X0Y0Z2
X16.971Y28.357
G1Z-2.5F75
X16.98Y28.352F150
X16.99Y28.349
X17Y28.348
X17.009Y28.349
X17.019Y28.352
X17.028Y28.357
X17.036Y28.363
X17.042Y28.371
X17.047Y28.38
X17.05Y28.39
X17.051Y28.4
X17.05Y28.409
X17.047Y28.419
X17.042Y28.428
X17.036Y28.436
X17.028Y28.442
X17.019Y28.447
X17.009Y28.45
X16.999Y28.451
X16.99Y28.45
X16.98Y28.447
X16.971Y28.442
X16.963Y28.436
X16.957Y28.428
X16.952Y28.419
X16.949Y28.409
X16.948Y28.399
X16.949Y28.39
X16.952Y28.38
X16.957Y28.371
X16.964Y28.363
X16.971Y28.357
X16.591Y27.789Z-2.1
X16.719Y27.721Z-2.1
X16.856Y27.679
X17Y27.665
X17.143Y27.679
X17.281Y27.721
X17.408Y27.789Z-2.1
X17.519Y27.88Z-2.1
X17.61Y27.992
X17.678Y28.119
X17.72Y28.256Z-2.1
X17.734Y28.4
X17.72Y28.543Z-2.099
X17.678Y28.681
X17.61Y28.808Z-2.099
X17.519Y28.919
X17.407Y29.01
X17.28Y29.078
X17.143Y29.12
X16.999Y29.134
X16.856Y29.12
X16.718Y29.078
X16.591Y29.01
X16.48Y28.919
X16.389Y28.807
X16.321Y28.68Z-2.099
X16.279Y28.543
X16.265Y28.399Z-2.1
X16.279Y28.256
X16.321Y28.118Z-2.1
X16.389Y27.991
X16.48Y27.88
X16.591Y27.789Z-2.1
X16.152Y27.27Z-2.1
X16.212Y27.221
X16.457Y27.09
X17.468Y27.067
X17.542Y27.09
X17.787Y27.221
X18.002Y27.397Z-2.1
X18.178Y27.612Z-2.1
X18.309Y27.857
X18.332Y28.868Z-2.099
X18.309Y28.942
X18.178Y29.187Z-2.099
X18.002Y29.402Z-2.099
X17.787Y29.578
X17.542Y29.709
X16.531Y29.732
X16.457Y29.709
X16.212Y29.578
X15.997Y29.402
X15.821Y29.187Z-2.099
X15.69Y28.942Z-2.099
X15.667Y27.931Z-2.1
X15.69Y27.857
X15.821Y27.612
X15.997Y27.397Z-2.1
X16.152Y27.27
X16.971Y28.357Z-4.1F75
X16.98Y28.352F150
X16.99Y28.349
X17Y28.348
X17.009Y28.349
X17.019Y28.352
X17.028Y28.357
X17.036Y28.363
X17.042Y28.371
X17.047Y28.38
X17.05Y28.39
X17.051Y28.4
X17.05Y28.409
X17.047Y28.419
X17.042Y28.428
X17.036Y28.436
X17.028Y28.442
X17.019Y28.447
X17.009Y28.45
X16.999Y28.451
X16.99Y28.45
X16.98Y28.447
X16.971Y28.442
X16.963Y28.436
X16.957Y28.428
X16.952Y28.419
X16.949Y28.409
X16.948Y28.399
X16.949Y28.39
X16.952Y28.38
X16.957Y28.371
X16.964Y28.363
X16.971Y28.357
G0Z2
 
