(Created with grbl post processor 2023/09/04 22:35)
G21
(G-code generated with BlenderCAM and NC library)
G17G90
(Tool: D = 1.5 mm  type END flutes 2)
S12000M03
G00 Z10.0

G0X0Y0Z10
X-0.618Y-0.425
G1Z-2F75
X-0.633Y-0.402F150
X-0.643Y-0.387
X-0.652Y-0.371
X-0.661Y-0.355
X-0.67Y-0.339
X-0.678Y-0.322
X-0.685Y-0.305
X-0.693Y-0.288
X-0.7Y-0.271
X-0.706Y-0.254
X-0.712Y-0.237
X-0.718Y-0.219
X-0.723Y-0.202
X-0.728Y-0.184
X-0.732Y-0.166
X-0.736Y-0.148
X-0.739Y-0.13
X-0.742Y-0.111
X-0.745Y-0.093
X-0.747Y-0.074
X-0.748Y-0.056
X-0.75Y-0.037
X-0.75Y-0.018
X-0.75Y0
X-0.75Y56.804
X-0.75Y56.823
X-0.749Y56.841
X-0.748Y56.859
X-0.746Y56.878
X-0.744Y56.896
X-0.742Y56.914
X-0.739Y56.932
X-0.735Y56.95
X-0.731Y56.968
X-0.727Y56.986
X-0.722Y57.004
X-0.717Y57.022
X-0.711Y57.039
X-0.705Y57.057
X-0.699Y57.074
X-0.692Y57.091
X-0.684Y57.108
X-0.676Y57.124
X-0.668Y57.141
X-0.66Y57.157
X-0.651Y57.173
X-0.641Y57.189
X-0.632Y57.205
X-0.621Y57.22
X-0.611Y57.235
X-0.6Y57.25
X-0.589Y57.265
X-0.577Y57.279
X-0.565Y57.293
X-0.553Y57.307
X-0.54Y57.32
X-0.527Y57.334
X-0.513Y57.347
X-0.5Y57.359
X-0.486Y57.371
X-0.472Y57.383
X-0.458Y57.394
X-0.443Y57.405
X-0.428Y57.416
X-0.413Y57.426
X-0.398Y57.436
X-0.382Y57.445
X-0.367Y57.455
X-0.35Y57.463
X-0.334Y57.472
X-0.318Y57.48
X-0.301Y57.487
X-0.284Y57.494
X-0.267Y57.501
X-0.25Y57.507
X-0.233Y57.513
X-0.216Y57.519
X-0.198Y57.524
X-0.18Y57.528
X-0.163Y57.533
X-0.145Y57.536
X-0.127Y57.54
X-0.109Y57.543
X-0.091Y57.545
X-0.072Y57.547
X-0.054Y57.549
X-0.036Y57.55
X-0.018Y57.55
X0Y57.551
X61.8
X61.821Y57.55
X61.842Y57.549
X61.861Y57.548
X61.88Y57.546
X61.899Y57.544
X61.918Y57.541
X61.936Y57.538
X61.955Y57.534
X61.973Y57.53
X61.992Y57.525
X62.01Y57.52
X62.029Y57.515
X62.046Y57.509
X62.063Y57.503
X62.08Y57.496
X62.097Y57.489
X62.113Y57.482
X62.13Y57.474
X62.146Y57.466
X62.162Y57.457
X62.178Y57.448
X62.193Y57.439
X62.208Y57.429
X62.224Y57.419
X62.238Y57.409
X62.253Y57.398
X62.267Y57.387
X62.281Y57.376
X62.295Y57.364
X62.309Y57.352
X62.322Y57.339
X62.335Y57.326
X62.347Y57.313
X62.36Y57.299
X62.372Y57.285
X62.384Y57.271
X62.395Y57.257
X62.406Y57.242
X62.417Y57.227
X62.427Y57.212
X62.437Y57.197
X62.446Y57.181
X62.456Y57.165
X62.464Y57.149
X62.473Y57.132
X62.481Y57.116
X62.488Y57.099
X62.495Y57.082
X62.502Y57.065
X62.508Y57.048
X62.514Y57.03
X62.52Y57.013
X62.525Y56.995
X62.529Y56.977
X62.533Y56.959
X62.537Y56.941
X62.54Y56.924
X62.543Y56.906
X62.545Y56.888
X62.547Y56.87
X62.549Y56.852
X62.55Y56.834
X62.55Y56.816
X62.551Y52.551
X64.505Y52.55
X64.524Y52.55
X64.543Y52.549
X64.562Y52.548
X64.581Y52.546
X64.6Y52.544
X64.619Y52.541
X64.638Y52.538
X64.657Y52.534
X64.675Y52.53
X64.693Y52.525
X64.71Y52.52
X64.727Y52.515
X64.745Y52.509
X64.762Y52.503
X64.779Y52.497
X64.796Y52.49
X64.812Y52.482
X64.829Y52.475
X64.845Y52.466
X64.861Y52.458
X64.877Y52.449
X64.892Y52.44
X64.908Y52.43
X64.923Y52.42
X64.938Y52.409
X64.952Y52.399
X64.967Y52.388
X64.981Y52.376
X64.995Y52.364
X65.008Y52.352
X65.021Y52.34
X65.035Y52.326
X65.047Y52.313
X65.06Y52.3
X65.072Y52.286
X65.083Y52.272
X65.094Y52.258
X65.105Y52.243
X65.116Y52.229
X65.126Y52.213
X65.136Y52.198
X65.145Y52.183
X65.154Y52.167
X65.163Y52.151
X65.171Y52.135
X65.179Y52.118
X65.187Y52.102
X65.194Y52.085
X65.201Y52.068
X65.207Y52.051
X65.213Y52.034
X65.218Y52.017
X65.223Y51.999
X65.228Y51.982
X65.232Y51.964
X65.236Y51.946
X65.239Y51.928
X65.242Y51.91
X65.245Y51.891
X65.247Y51.873
X65.248Y51.855
X65.25Y51.836
X65.25Y51.818
X65.251Y51.8
Y0
X65.25Y-0.019
X65.25Y-0.038
X65.248Y-0.057
X65.247Y-0.077
X65.244Y-0.096
X65.242Y-0.114
X65.239Y-0.133
X65.235Y-0.151
X65.231Y-0.169
X65.227Y-0.187
X65.222Y-0.205
X65.217Y-0.223
X65.211Y-0.24
X65.205Y-0.258
X65.198Y-0.275
X65.191Y-0.292
X65.184Y-0.309
X65.176Y-0.326
X65.167Y-0.343
X65.159Y-0.359
X65.15Y-0.375
X65.14Y-0.391
X65.13Y-0.407
X65.12Y-0.422
X65.11Y-0.438
X65.099Y-0.452
X65.087Y-0.467
X65.075Y-0.481
X65.063Y-0.495
X65.051Y-0.509
X65.038Y-0.523
X65.025Y-0.536
X65.012Y-0.549
X64.998Y-0.561
X64.984Y-0.573
X64.97Y-0.585
X64.955Y-0.596
X64.94Y-0.607
X64.925Y-0.618
X64.91Y-0.628
X64.894Y-0.638
X64.878Y-0.648
X64.862Y-0.657
X64.845Y-0.666
X64.829Y-0.674
X64.812Y-0.682
X64.795Y-0.69
X64.778Y-0.697
X64.761Y-0.703
X64.744Y-0.71
X64.726Y-0.715
X64.709Y-0.721
X64.691Y-0.726
X64.673Y-0.73
X64.655Y-0.734
X64.637Y-0.738
X64.619Y-0.741
X64.601Y-0.744
X64.583Y-0.746
X64.564Y-0.748
X64.546Y-0.749
X64.528Y-0.75
X64.5Y-0.751
X0
X-0.019Y-0.75
X-0.038Y-0.75
X-0.057Y-0.748
X-0.076Y-0.747
X-0.095Y-0.744
X-0.113Y-0.742
X-0.13Y-0.739
X-0.147Y-0.736
X-0.165Y-0.732
X-0.182Y-0.728
X-0.199Y-0.724
X-0.216Y-0.719
X-0.257Y-0.705
X-0.314Y-0.682
X-0.345Y-0.667
X-0.375Y-0.65
X-0.407Y-0.63
X-0.442Y-0.606
X-0.481Y-0.576
X-0.512Y-0.549
X-0.55Y-0.51
X-0.58Y-0.476
X-0.602Y-0.447
X-0.618Y-0.425
Z-4F75
X-0.633Y-0.402F150
X-0.643Y-0.387
X-0.652Y-0.371
X-0.661Y-0.355
X-0.67Y-0.339
X-0.678Y-0.322
X-0.685Y-0.305
X-0.693Y-0.288
X-0.7Y-0.271
X-0.706Y-0.254
X-0.712Y-0.237
X-0.718Y-0.219
X-0.723Y-0.202
X-0.728Y-0.184
X-0.732Y-0.166
X-0.736Y-0.148
X-0.739Y-0.13
X-0.742Y-0.111
X-0.745Y-0.093
X-0.747Y-0.074
X-0.748Y-0.056
X-0.75Y-0.037
X-0.75Y-0.018
X-0.75Y0
X-0.75Y56.804
X-0.75Y56.823
X-0.749Y56.841
X-0.748Y56.859
X-0.746Y56.878
X-0.744Y56.896
X-0.742Y56.914
X-0.739Y56.932
X-0.735Y56.95
X-0.731Y56.968
X-0.727Y56.986
X-0.722Y57.004
X-0.717Y57.022
X-0.711Y57.039
X-0.705Y57.057
X-0.699Y57.074
X-0.692Y57.091
X-0.684Y57.108
X-0.676Y57.124
X-0.668Y57.141
X-0.66Y57.157
X-0.651Y57.173
X-0.641Y57.189
X-0.632Y57.205
X-0.621Y57.22
X-0.611Y57.235
X-0.6Y57.25
X-0.589Y57.265
X-0.577Y57.279
X-0.565Y57.293
X-0.553Y57.307
X-0.54Y57.32
X-0.527Y57.334
X-0.513Y57.347
X-0.5Y57.359
X-0.486Y57.371
X-0.472Y57.383
X-0.458Y57.394
X-0.443Y57.405
X-0.428Y57.416
X-0.413Y57.426
X-0.398Y57.436
X-0.382Y57.445
X-0.367Y57.455
X-0.35Y57.463
X-0.334Y57.472
X-0.318Y57.48
X-0.301Y57.487
X-0.284Y57.494
X-0.267Y57.501
X-0.25Y57.507
X-0.233Y57.513
X-0.216Y57.519
X-0.198Y57.524
X-0.18Y57.528
X-0.163Y57.533
X-0.145Y57.536
X-0.127Y57.54
X-0.109Y57.543
X-0.091Y57.545
X-0.072Y57.547
X-0.054Y57.549
X-0.036Y57.55
X-0.018Y57.55
X0Y57.551
X61.8
X61.821Y57.55
X61.842Y57.549
X61.861Y57.548
X61.88Y57.546
X61.899Y57.544
X61.918Y57.541
X61.936Y57.538
X61.955Y57.534
X61.973Y57.53
X61.992Y57.525
X62.01Y57.52
X62.029Y57.515
X62.046Y57.509
X62.063Y57.503
X62.08Y57.496
X62.097Y57.489
X62.113Y57.482
X62.13Y57.474
X62.146Y57.466
X62.162Y57.457
X62.178Y57.448
X62.193Y57.439
X62.208Y57.429
X62.224Y57.419
X62.238Y57.409
X62.253Y57.398
X62.267Y57.387
X62.281Y57.376
X62.295Y57.364
X62.309Y57.352
X62.322Y57.339
X62.335Y57.326
X62.347Y57.313
X62.36Y57.299
X62.372Y57.285
X62.384Y57.271
X62.395Y57.257
X62.406Y57.242
X62.417Y57.227
X62.427Y57.212
X62.437Y57.197
X62.446Y57.181
X62.456Y57.165
X62.464Y57.149
X62.473Y57.132
X62.481Y57.116
X62.488Y57.099
X62.495Y57.082
X62.502Y57.065
X62.508Y57.048
X62.514Y57.03
X62.52Y57.013
X62.525Y56.995
X62.529Y56.977
X62.533Y56.959
X62.537Y56.941
X62.54Y56.924
X62.543Y56.906
X62.545Y56.888
X62.547Y56.87
X62.549Y56.852
X62.55Y56.834
X62.55Y56.816
X62.551Y52.551
X64.505Y52.55
X64.524Y52.55
X64.543Y52.549
X64.562Y52.548
X64.581Y52.546
X64.6Y52.544
X64.619Y52.541
X64.638Y52.538
X64.657Y52.534
X64.675Y52.53
X64.693Y52.525
X64.71Y52.52
X64.727Y52.515
X64.745Y52.509
X64.762Y52.503
X64.779Y52.497
X64.796Y52.49
X64.812Y52.482
X64.829Y52.475
X64.845Y52.466
X64.861Y52.458
X64.877Y52.449
X64.892Y52.44
X64.908Y52.43
X64.923Y52.42
X64.938Y52.409
X64.952Y52.399
X64.967Y52.388
X64.981Y52.376
X64.995Y52.364
X65.008Y52.352
X65.021Y52.34
X65.035Y52.326
X65.047Y52.313
X65.06Y52.3
X65.072Y52.286
X65.083Y52.272
X65.094Y52.258
X65.105Y52.243
X65.116Y52.229
X65.126Y52.213
X65.136Y52.198
X65.145Y52.183
X65.154Y52.167
X65.163Y52.151
X65.171Y52.135
X65.179Y52.118
X65.187Y52.102
X65.194Y52.085
X65.201Y52.068
X65.207Y52.051
X65.213Y52.034
X65.218Y52.017
X65.223Y51.999
X65.228Y51.982
X65.232Y51.964
X65.236Y51.946
X65.239Y51.928
X65.242Y51.91
X65.245Y51.891
X65.247Y51.873
X65.248Y51.855
X65.25Y51.836
X65.25Y51.818
X65.251Y51.8
Y0
X65.25Y-0.019
X65.25Y-0.038
X65.248Y-0.057
X65.247Y-0.077
X65.244Y-0.096
X65.242Y-0.114
X65.239Y-0.133
X65.235Y-0.151
X65.231Y-0.169
X65.227Y-0.187
X65.222Y-0.205
X65.217Y-0.223
X65.211Y-0.24
X65.205Y-0.258
X65.198Y-0.275
X65.191Y-0.292
X65.184Y-0.309
X65.176Y-0.326
X65.167Y-0.343
X65.159Y-0.359
X65.15Y-0.375
X65.14Y-0.391
X65.13Y-0.407
X65.12Y-0.422
X65.11Y-0.438
X65.099Y-0.452
X65.087Y-0.467
X65.075Y-0.481
X65.063Y-0.495
X65.051Y-0.509
X65.038Y-0.523
X65.025Y-0.536
X65.012Y-0.549
X64.998Y-0.561
X64.984Y-0.573
X64.97Y-0.585
X64.955Y-0.596
X64.94Y-0.607
X64.925Y-0.618
X64.91Y-0.628
X64.894Y-0.638
X64.878Y-0.648
X64.862Y-0.657
X64.845Y-0.666
X64.829Y-0.674
X64.812Y-0.682
X64.795Y-0.69
X64.778Y-0.697
X64.761Y-0.703
X64.744Y-0.71
X64.726Y-0.715
X64.709Y-0.721
X64.691Y-0.726
X64.673Y-0.73
X64.655Y-0.734
X64.637Y-0.738
X64.619Y-0.741
X64.601Y-0.744
X64.583Y-0.746
X64.564Y-0.748
X64.546Y-0.749
X64.528Y-0.75
X64.5Y-0.751
X0
X-0.019Y-0.75
X-0.038Y-0.75
X-0.057Y-0.748
X-0.076Y-0.747
X-0.095Y-0.744
X-0.113Y-0.742
X-0.13Y-0.739
X-0.147Y-0.736
X-0.165Y-0.732
X-0.182Y-0.728
X-0.199Y-0.724
X-0.216Y-0.719
X-0.257Y-0.705
X-0.314Y-0.682
X-0.345Y-0.667
X-0.375Y-0.65
X-0.407Y-0.63
X-0.442Y-0.606
X-0.481Y-0.576
X-0.512Y-0.549
X-0.55Y-0.51
X-0.58Y-0.476
X-0.602Y-0.447
X-0.618Y-0.425
Z-6F75
X-0.633Y-0.402F150
X-0.643Y-0.387
X-0.652Y-0.371
X-0.661Y-0.355
X-0.67Y-0.339
X-0.678Y-0.322
X-0.685Y-0.305
X-0.693Y-0.288
X-0.7Y-0.271
X-0.706Y-0.254
X-0.712Y-0.237
X-0.718Y-0.219
X-0.723Y-0.202
X-0.728Y-0.184
X-0.732Y-0.166
X-0.736Y-0.148
X-0.739Y-0.13
X-0.742Y-0.111
X-0.745Y-0.093
X-0.747Y-0.074
X-0.748Y-0.056
X-0.75Y-0.037
X-0.75Y-0.018
X-0.75Y0
X-0.75Y56.804
X-0.75Y56.823
X-0.749Y56.841
X-0.748Y56.859
X-0.746Y56.878
X-0.744Y56.896
X-0.742Y56.914
X-0.739Y56.932
X-0.735Y56.95
X-0.731Y56.968
X-0.727Y56.986
X-0.722Y57.004
X-0.717Y57.022
X-0.711Y57.039
X-0.705Y57.057
X-0.699Y57.074
X-0.692Y57.091
X-0.684Y57.108
X-0.676Y57.124
X-0.668Y57.141
X-0.66Y57.157
X-0.651Y57.173
X-0.641Y57.189
X-0.632Y57.205
X-0.621Y57.22
X-0.611Y57.235
X-0.6Y57.25
X-0.589Y57.265
X-0.577Y57.279
X-0.565Y57.293
X-0.553Y57.307
X-0.54Y57.32
X-0.527Y57.334
X-0.513Y57.347
X-0.5Y57.359
X-0.486Y57.371
X-0.472Y57.383
X-0.458Y57.394
X-0.443Y57.405
X-0.428Y57.416
X-0.413Y57.426
X-0.398Y57.436
X-0.382Y57.445
X-0.367Y57.455
X-0.35Y57.463
X-0.334Y57.472
X-0.318Y57.48
X-0.301Y57.487
X-0.284Y57.494
X-0.267Y57.501
X-0.25Y57.507
X-0.233Y57.513
X-0.216Y57.519
X-0.198Y57.524
X-0.18Y57.528
X-0.163Y57.533
X-0.145Y57.536
X-0.127Y57.54
X-0.109Y57.543
X-0.091Y57.545
X-0.072Y57.547
X-0.054Y57.549
X-0.036Y57.55
X-0.018Y57.55
X0Y57.551
X61.8
X61.821Y57.55
X61.842Y57.549
X61.861Y57.548
X61.88Y57.546
X61.899Y57.544
X61.918Y57.541
X61.936Y57.538
X61.955Y57.534
X61.973Y57.53
X61.992Y57.525
X62.01Y57.52
X62.029Y57.515
X62.046Y57.509
X62.063Y57.503
X62.08Y57.496
X62.097Y57.489
X62.113Y57.482
X62.13Y57.474
X62.146Y57.466
X62.162Y57.457
X62.178Y57.448
X62.193Y57.439
X62.208Y57.429
X62.224Y57.419
X62.238Y57.409
X62.253Y57.398
X62.267Y57.387
X62.281Y57.376
X62.295Y57.364
X62.309Y57.352
X62.322Y57.339
X62.335Y57.326
X62.347Y57.313
X62.36Y57.299
X62.372Y57.285
X62.384Y57.271
X62.395Y57.257
X62.406Y57.242
X62.417Y57.227
X62.427Y57.212
X62.437Y57.197
X62.446Y57.181
X62.456Y57.165
X62.464Y57.149
X62.473Y57.132
X62.481Y57.116
X62.488Y57.099
X62.495Y57.082
X62.502Y57.065
X62.508Y57.048
X62.514Y57.03
X62.52Y57.013
X62.525Y56.995
X62.529Y56.977
X62.533Y56.959
X62.537Y56.941
X62.54Y56.924
X62.543Y56.906
X62.545Y56.888
X62.547Y56.87
X62.549Y56.852
X62.55Y56.834
X62.55Y56.816
X62.551Y52.551
X64.505Y52.55
X64.524Y52.55
X64.543Y52.549
X64.562Y52.548
X64.581Y52.546
X64.6Y52.544
X64.619Y52.541
X64.638Y52.538
X64.657Y52.534
X64.675Y52.53
X64.693Y52.525
X64.71Y52.52
X64.727Y52.515
X64.745Y52.509
X64.762Y52.503
X64.779Y52.497
X64.796Y52.49
X64.812Y52.482
X64.829Y52.475
X64.845Y52.466
X64.861Y52.458
X64.877Y52.449
X64.892Y52.44
X64.908Y52.43
X64.923Y52.42
X64.938Y52.409
X64.952Y52.399
X64.967Y52.388
X64.981Y52.376
X64.995Y52.364
X65.008Y52.352
X65.021Y52.34
X65.035Y52.326
X65.047Y52.313
X65.06Y52.3
X65.072Y52.286
X65.083Y52.272
X65.094Y52.258
X65.105Y52.243
X65.116Y52.229
X65.126Y52.213
X65.136Y52.198
X65.145Y52.183
X65.154Y52.167
X65.163Y52.151
X65.171Y52.135
X65.179Y52.118
X65.187Y52.102
X65.194Y52.085
X65.201Y52.068
X65.207Y52.051
X65.213Y52.034
X65.218Y52.017
X65.223Y51.999
X65.228Y51.982
X65.232Y51.964
X65.236Y51.946
X65.239Y51.928
X65.242Y51.91
X65.245Y51.891
X65.247Y51.873
X65.248Y51.855
X65.25Y51.836
X65.25Y51.818
X65.251Y51.8
Y0
X65.25Y-0.019
X65.25Y-0.038
X65.248Y-0.057
X65.247Y-0.077
X65.244Y-0.096
X65.242Y-0.114
X65.239Y-0.133
X65.235Y-0.151
X65.231Y-0.169
X65.227Y-0.187
X65.222Y-0.205
X65.217Y-0.223
X65.211Y-0.24
X65.205Y-0.258
X65.198Y-0.275
X65.191Y-0.292
X65.184Y-0.309
X65.176Y-0.326
X65.167Y-0.343
X65.159Y-0.359
X65.15Y-0.375
X65.14Y-0.391
X65.13Y-0.407
X65.12Y-0.422
X65.11Y-0.438
X65.099Y-0.452
X65.087Y-0.467
X65.075Y-0.481
X65.063Y-0.495
X65.051Y-0.509
X65.038Y-0.523
X65.025Y-0.536
X65.012Y-0.549
X64.998Y-0.561
X64.984Y-0.573
X64.97Y-0.585
X64.955Y-0.596
X64.94Y-0.607
X64.925Y-0.618
X64.91Y-0.628
X64.894Y-0.638
X64.878Y-0.648
X64.862Y-0.657
X64.845Y-0.666
X64.829Y-0.674
X64.812Y-0.682
X64.795Y-0.69
X64.778Y-0.697
X64.761Y-0.703
X64.744Y-0.71
X64.726Y-0.715
X64.709Y-0.721
X64.691Y-0.726
X64.673Y-0.73
X64.655Y-0.734
X64.637Y-0.738
X64.619Y-0.741
X64.601Y-0.744
X64.583Y-0.746
X64.564Y-0.748
X64.546Y-0.749
X64.528Y-0.75
X64.5Y-0.751
X0
X-0.019Y-0.75
X-0.038Y-0.75
X-0.057Y-0.748
X-0.076Y-0.747
X-0.095Y-0.744
X-0.113Y-0.742
X-0.13Y-0.739
X-0.147Y-0.736
X-0.165Y-0.732
X-0.182Y-0.728
X-0.199Y-0.724
X-0.216Y-0.719
X-0.257Y-0.705
X-0.314Y-0.682
X-0.345Y-0.667
X-0.375Y-0.65
X-0.407Y-0.63
X-0.442Y-0.606
X-0.481Y-0.576
X-0.512Y-0.549
X-0.55Y-0.51
X-0.58Y-0.476
X-0.602Y-0.447
X-0.618Y-0.425
Z-6.6F75
X-0.633Y-0.402F150
X-0.643Y-0.387
X-0.652Y-0.371
X-0.661Y-0.355
X-0.67Y-0.339
X-0.678Y-0.322
X-0.685Y-0.305
X-0.693Y-0.288
X-0.7Y-0.271
X-0.706Y-0.254
X-0.712Y-0.237
X-0.718Y-0.219
X-0.723Y-0.202
X-0.728Y-0.184
X-0.732Y-0.166
X-0.736Y-0.148
X-0.739Y-0.13
X-0.742Y-0.111
X-0.745Y-0.093
X-0.747Y-0.074
X-0.748Y-0.056
X-0.75Y-0.037
X-0.75Y-0.018
X-0.75Y0
X-0.75Y56.804
X-0.75Y56.823
X-0.749Y56.841
X-0.748Y56.859
X-0.746Y56.878
X-0.744Y56.896
X-0.742Y56.914
X-0.739Y56.932
X-0.735Y56.95
X-0.731Y56.968
X-0.727Y56.986
X-0.722Y57.004
X-0.717Y57.022
X-0.711Y57.039
X-0.705Y57.057
X-0.699Y57.074
X-0.692Y57.091
X-0.684Y57.108
X-0.676Y57.124
X-0.668Y57.141
X-0.66Y57.157
X-0.651Y57.173
X-0.641Y57.189
X-0.632Y57.205
X-0.621Y57.22
X-0.611Y57.235
X-0.6Y57.25
X-0.589Y57.265
X-0.577Y57.279
X-0.565Y57.293
X-0.553Y57.307
X-0.54Y57.32
X-0.527Y57.334
X-0.513Y57.347
X-0.5Y57.359
X-0.486Y57.371
X-0.472Y57.383
X-0.458Y57.394
X-0.443Y57.405
X-0.428Y57.416
X-0.413Y57.426
X-0.398Y57.436
X-0.382Y57.445
X-0.367Y57.455
X-0.35Y57.463
X-0.334Y57.472
X-0.318Y57.48
X-0.301Y57.487
X-0.284Y57.494
X-0.267Y57.501
X-0.25Y57.507
X-0.233Y57.513
X-0.216Y57.519
X-0.198Y57.524
X-0.18Y57.528
X-0.163Y57.533
X-0.145Y57.536
X-0.127Y57.54
X-0.109Y57.543
X-0.091Y57.545
X-0.072Y57.547
X-0.054Y57.549
X-0.036Y57.55
X-0.018Y57.55
X0Y57.551
X61.8
X61.821Y57.55
X61.842Y57.549
X61.861Y57.548
X61.88Y57.546
X61.899Y57.544
X61.918Y57.541
X61.936Y57.538
X61.955Y57.534
X61.973Y57.53
X61.992Y57.525
X62.01Y57.52
X62.029Y57.515
X62.046Y57.509
X62.063Y57.503
X62.08Y57.496
X62.097Y57.489
X62.113Y57.482
X62.13Y57.474
X62.146Y57.466
X62.162Y57.457
X62.178Y57.448
X62.193Y57.439
X62.208Y57.429
X62.224Y57.419
X62.238Y57.409
X62.253Y57.398
X62.267Y57.387
X62.281Y57.376
X62.295Y57.364
X62.309Y57.352
X62.322Y57.339
X62.335Y57.326
X62.347Y57.313
X62.36Y57.299
X62.372Y57.285
X62.384Y57.271
X62.395Y57.257
X62.406Y57.242
X62.417Y57.227
X62.427Y57.212
X62.437Y57.197
X62.446Y57.181
X62.456Y57.165
X62.464Y57.149
X62.473Y57.132
X62.481Y57.116
X62.488Y57.099
X62.495Y57.082
X62.502Y57.065
X62.508Y57.048
X62.514Y57.03
X62.52Y57.013
X62.525Y56.995
X62.529Y56.977
X62.533Y56.959
X62.537Y56.941
X62.54Y56.924
X62.543Y56.906
X62.545Y56.888
X62.547Y56.87
X62.549Y56.852
X62.55Y56.834
X62.55Y56.816
X62.551Y52.551
X64.505Y52.55
X64.524Y52.55
X64.543Y52.549
X64.562Y52.548
X64.581Y52.546
X64.6Y52.544
X64.619Y52.541
X64.638Y52.538
X64.657Y52.534
X64.675Y52.53
X64.693Y52.525
X64.71Y52.52
X64.727Y52.515
X64.745Y52.509
X64.762Y52.503
X64.779Y52.497
X64.796Y52.49
X64.812Y52.482
X64.829Y52.475
X64.845Y52.466
X64.861Y52.458
X64.877Y52.449
X64.892Y52.44
X64.908Y52.43
X64.923Y52.42
X64.938Y52.409
X64.952Y52.399
X64.967Y52.388
X64.981Y52.376
X64.995Y52.364
X65.008Y52.352
X65.021Y52.34
X65.035Y52.326
X65.047Y52.313
X65.06Y52.3
X65.072Y52.286
X65.083Y52.272
X65.094Y52.258
X65.105Y52.243
X65.116Y52.229
X65.126Y52.213
X65.136Y52.198
X65.145Y52.183
X65.154Y52.167
X65.163Y52.151
X65.171Y52.135
X65.179Y52.118
X65.187Y52.102
X65.194Y52.085
X65.201Y52.068
X65.207Y52.051
X65.213Y52.034
X65.218Y52.017
X65.223Y51.999
X65.228Y51.982
X65.232Y51.964
X65.236Y51.946
X65.239Y51.928
X65.242Y51.91
X65.245Y51.891
X65.247Y51.873
X65.248Y51.855
X65.25Y51.836
X65.25Y51.818
X65.251Y51.8
Y0
X65.25Y-0.019
X65.25Y-0.038
X65.248Y-0.057
X65.247Y-0.077
X65.244Y-0.096
X65.242Y-0.114
X65.239Y-0.133
X65.235Y-0.151
X65.231Y-0.169
X65.227Y-0.187
X65.222Y-0.205
X65.217Y-0.223
X65.211Y-0.24
X65.205Y-0.258
X65.198Y-0.275
X65.191Y-0.292
X65.184Y-0.309
X65.176Y-0.326
X65.167Y-0.343
X65.159Y-0.359
X65.15Y-0.375
X65.14Y-0.391
X65.13Y-0.407
X65.12Y-0.422
X65.11Y-0.438
X65.099Y-0.452
X65.087Y-0.467
X65.075Y-0.481
X65.063Y-0.495
X65.051Y-0.509
X65.038Y-0.523
X65.025Y-0.536
X65.012Y-0.549
X64.998Y-0.561
X64.984Y-0.573
X64.97Y-0.585
X64.955Y-0.596
X64.94Y-0.607
X64.925Y-0.618
X64.91Y-0.628
X64.894Y-0.638
X64.878Y-0.648
X64.862Y-0.657
X64.845Y-0.666
X64.829Y-0.674
X64.812Y-0.682
X64.795Y-0.69
X64.778Y-0.697
X64.761Y-0.703
X64.744Y-0.71
X64.726Y-0.715
X64.709Y-0.721
X64.691Y-0.726
X64.673Y-0.73
X64.655Y-0.734
X64.637Y-0.738
X64.619Y-0.741
X64.601Y-0.744
X64.583Y-0.746
X64.564Y-0.748
X64.546Y-0.749
X64.528Y-0.75
X64.5Y-0.751
X0
X-0.019Y-0.75
X-0.038Y-0.75
X-0.057Y-0.748
X-0.076Y-0.747
X-0.095Y-0.744
X-0.113Y-0.742
X-0.13Y-0.739
X-0.147Y-0.736
X-0.165Y-0.732
X-0.182Y-0.728
X-0.199Y-0.724
X-0.216Y-0.719
X-0.257Y-0.705
X-0.314Y-0.682
X-0.345Y-0.667
X-0.375Y-0.65
X-0.407Y-0.63
X-0.442Y-0.606
X-0.481Y-0.576
X-0.512Y-0.549
X-0.55Y-0.51
X-0.58Y-0.476
X-0.602Y-0.447
X-0.618Y-0.425
G0Z10
 
