(Created with grbl post processor 2023/09/04 22:08)
G21
(G-code generated with BlenderCAM and NC library)
G17G90
(Tool: D = 1.5 mm  type END flutes 2)
S12000M03
G00 Z2.0

G0X0Y0Z2
X26.249Y27.792
G1Z-2.5F100
X36.75Y27.818F200
X36.75Y29.05
X26.249Y29.05
Y27.792
X25.499Y27.04
X37.5Y27.07
X37.5Y29.8
X25.499Y29.8
Y27.04
X24.749Y26.288
X38.25Y26.321
X38.25Y30.55
X24.749Y30.55
Y26.288
X23.999Y25.537
X39Y25.573
X39Y31.3
X23.999Y31.3
Y25.537
X23.249Y24.785
X39.75Y24.825
X39.75Y32.05
X23.249Y32.05
Y24.785
X22.499Y24.033
X40.5Y24.077
X40.5Y32.8
X22.499Y32.8
Y24.033
X21.749Y23.281
X41.25Y23.329
X41.25Y33.55
X21.749Y33.55
Y23.281
X20.999Y22.529
X42Y22.581
X42Y34.3
X20.999Y34.3
Y22.529
X20.249Y21.777
X42.75Y21.832
X42.75Y35.05
X20.249Y35.05
Y21.777
X19.499Y21.026
X43.5Y21.084
X43.5Y35.8
X19.499Y35.8
Y21.026
X18.749Y20.274
X44.25Y20.336
X44.25Y36.55
X18.749Y36.55
Y20.274
X17.999Y19.522
X45Y19.588
X45Y37.3
X17.999Y37.3
Y19.522
X17.249Y18.77
X45.75Y18.84
X45.75Y38.05
X17.249Y38.05
Y18.77
X16.499Y18.018
X46.5Y18.092
X46.5Y38.8
X16.499Y38.8
Y18.018
X15.749Y17.266
X47.25Y17.343
X47.25Y39.55
X15.749Y39.55
Y17.266
X14.999Y16.515
X48Y16.595
X48Y40.3
X14.999Y40.3
Y16.515
X14.249Y15.763
X48.75Y15.847
X48.75Y41.05
X14.249Y41.05
Y15.763
X13.499Y15.011
X49.5Y15.099
X49.5Y41.8
X13.499Y41.8
Y15.011
X12.749Y14.259
X50.25Y14.351
X50.25Y42.55
X12.749Y42.55
Y14.259
X11.999Y13.507
X50.622Y13.593
X50.834Y13.873
X51Y14.082
X51Y43.3
X11.999Y43.3
Y13.507
X11.249Y12.756
X51.004Y12.834
X51.177Y13.08
X51.341Y13.302
X51.511Y13.52
X51.685Y13.733
X51.75Y13.81
X51.75Y44.05
X11.249Y44.05
Y12.756
X10.499Y12.004
X51.406Y12.079
X51.564Y12.323
X51.71Y12.536
X51.861Y12.745
X52.016Y12.95
X52.177Y13.151
X52.343Y13.349
X52.5Y13.528
X52.5Y44.8
X10.499Y44.8
Y12.004
X9.749Y11.253
X51.825Y11.318
X51.932Y11.502
X52.058Y11.706
X52.188Y11.907
X52.323Y12.104
X52.463Y12.298
X52.608Y12.489
X52.757Y12.676
X52.911Y12.859
X53.069Y13.038
X53.232Y13.214
X53.25Y13.233
X53.25Y45.55
X9.749Y45.55
Y11.253
X8.999Y10.502
X52.271Y10.563
X52.358Y10.732
X52.465Y10.926
X52.576Y11.117
X52.691Y11.305
X52.812Y11.49
X52.936Y11.672
X53.065Y11.851
X53.199Y12.027
X53.337Y12.2
X53.479Y12.369
X53.625Y12.535
X53.775Y12.697
X53.929Y12.855
X54Y12.926
X54Y46.3
X8.999Y46.3
Y10.502
X8.249Y9.751
X52.746Y9.813
X52.838Y10.017
X52.927Y10.199
X53.02Y10.379
X53.117Y10.556
X53.219Y10.731
X53.325Y10.904
X53.435Y11.073
X53.55Y11.24
X53.668Y11.405
X53.79Y11.566
X53.917Y11.724
X54.047Y11.879
X54.181Y12.031
X54.318Y12.18
X54.459Y12.325
X54.604Y12.466
X54.75Y12.602
X54.75Y47.05
X8.249Y47.05
Y9.751
X7.499Y9
X53.244Y9.039
X53.3Y9.189
X53.368Y9.36
X53.44Y9.529
X53.516Y9.696
X53.597Y9.862
X53.681Y10.025
X53.77Y10.186
X53.862Y10.346
X53.959Y10.502
X54.059Y10.657
X54.163Y10.809
X54.27Y10.958
X54.382Y11.105
X54.496Y11.248
X54.615Y11.389
X54.736Y11.527
X54.861Y11.662
X54.99Y11.794
X55.121Y11.923
X55.256Y12.048
X55.394Y12.171
X55.5Y12.261
X55.5Y47.8
X7.499Y47.8
Y9
X6.749Y8.249
X53.786Y8.265
X53.838Y8.449
X53.888Y8.607
X53.942Y8.763
X53.999Y8.919
X54.061Y9.073
X54.126Y9.225
X54.194Y9.376
X54.267Y9.524
X54.343Y9.672
X54.423Y9.817
X54.506Y9.96
X54.592Y10.101
X54.683Y10.24
X54.776Y10.377
X54.873Y10.511
X54.973Y10.643
X55.076Y10.773
X55.183Y10.9
X55.292Y11.024
X55.405Y11.145
X55.52Y11.264
X55.639Y11.38
X55.76Y11.493
X55.884Y11.603
X56.01Y11.71
X56.139Y11.813
X56.25Y11.898
X56.25Y48.55
X6.749Y48.55
Y8.249
X5.999Y7.499
X54.385Y7.499
X54.414Y7.66
X54.444Y7.804
X54.478Y7.947
X54.515Y8.09
X54.556Y8.231
X54.6Y8.371
X54.648Y8.511
X54.699Y8.649
X54.754Y8.786
X54.811Y8.921
X54.872Y9.055
X54.937Y9.187
X55.004Y9.318
X55.075Y9.447
X55.149Y9.575
X55.226Y9.7
X55.306Y9.824
X55.389Y9.945
X55.475Y10.065
X55.564Y10.182
X55.656Y10.297
X55.751Y10.41
X55.848Y10.52
X55.948Y10.628
X56.051Y10.734
X56.156Y10.837
X56.263Y10.937
X56.374Y11.035
X56.486Y11.13
X56.601Y11.222
X56.718Y11.311
X56.837Y11.398
X56.958Y11.481
X57Y11.509
X57Y49.3
X5.999Y49.3
Y7.499
X5.249Y6.749
X55.057Y6.749
X55.064Y6.875
X55.075Y7.004
X55.089Y7.132
X55.106Y7.26
X55.126Y7.387
X55.15Y7.513
X55.176Y7.64
X55.206Y7.765
X55.238Y7.89
X55.274Y8.013
X55.313Y8.136
X55.354Y8.258
X55.399Y8.379
X55.446Y8.499
X55.497Y8.617
X55.55Y8.734
X55.607Y8.85
X55.666Y8.965
X55.728Y9.078
X55.792Y9.189
X55.86Y9.299
X55.93Y9.407
X56.002Y9.513
X56.078Y9.618
X56.156Y9.721
X56.236Y9.821
X56.319Y9.92
X56.404Y10.017
X56.491Y10.111
X56.581Y10.204
X56.673Y10.294
X56.767Y10.382
X56.864Y10.467
X56.962Y10.55
X57.062Y10.631
X57.165Y10.709
X57.269Y10.785
X57.375Y10.858
X57.483Y10.928
X57.593Y10.996
X57.704Y11.061
X57.75Y11.088
X57.75Y50.05
X5.249Y50.05
Y6.749
X4.499Y5.999
X55.801Y5.999
X55.801Y6.545
X55.803Y6.655
X55.808Y6.765
X55.816Y6.875
X55.827Y6.985
X55.84Y7.095
X55.856Y7.204
X55.875Y7.313
X55.896Y7.421
X55.92Y7.529
X55.947Y7.636
X55.976Y7.743
X56.008Y7.848
X56.042Y7.953
X56.079Y8.057
X56.119Y8.16
X56.161Y8.263
X56.205Y8.364
X56.252Y8.464
X56.302Y8.562
X56.354Y8.66
X56.408Y8.756
X56.464Y8.851
X56.523Y8.944
X56.584Y9.036
X56.648Y9.127
X56.713Y9.215
X56.781Y9.303
X56.851Y9.388
X56.923Y9.472
X56.997Y9.554
X57.073Y9.634
X57.151Y9.712
X57.23Y9.789
X57.312Y9.863
X57.396Y9.935
X57.481Y10.005
X57.568Y10.074
X57.656Y10.14
X57.746Y10.203
X57.838Y10.265
X57.931Y10.324
X58.026Y10.381
X58.122Y10.436
X58.219Y10.488
X58.317Y10.538
X58.417Y10.585
X58.5Y10.623
X58.5Y50.8
X4.499Y50.8
Y5.999
X3.749Y5.249
X56.55Y5.249
X56.551Y6.535
X56.553Y6.627
X56.557Y6.719
X56.564Y6.811
X56.572Y6.903
X56.583Y6.994
X56.597Y7.085
X56.612Y7.176
X56.63Y7.266
X56.65Y7.356
X56.672Y7.445
X56.696Y7.534
X56.723Y7.622
X56.751Y7.709
X56.782Y7.796
X56.815Y7.882
X56.85Y7.967
X56.887Y8.051
X56.926Y8.135
X56.967Y8.217
X57.011Y8.298
X57.056Y8.378
X57.103Y8.457
X57.152Y8.535
X57.203Y8.612
X57.256Y8.687
X57.31Y8.761
X57.367Y8.834
X57.425Y8.905
X57.485Y8.975
X57.546Y9.043
X57.61Y9.11
X57.675Y9.176
X57.741Y9.239
X57.809Y9.301
X57.879Y9.361
X57.95Y9.42
X58.022Y9.477
X58.096Y9.532
X58.171Y9.585
X58.247Y9.636
X58.325Y9.686
X58.404Y9.733
X58.483Y9.779
X58.564Y9.822
X58.647Y9.864
X58.73Y9.904
X58.814Y9.941
X58.899Y9.977
X58.984Y10.01
X59.071Y10.041
X59.158Y10.07
X59.25Y10.098
X59.25Y51.55
X3.749Y51.55
Y5.249
X2.999Y5
X2.999Y4.499
X57.301Y4.499
X57.301Y6.526
X57.302Y6.6
X57.306Y6.673
X57.311Y6.747
X57.318Y6.82
X57.327Y6.893
X57.337Y6.966
X57.35Y7.038
X57.364Y7.111
X57.38Y7.183
X57.397Y7.254
X57.417Y7.325
X57.438Y7.396
X57.461Y7.465
X57.485Y7.535
X57.512Y7.604
X57.539Y7.672
X57.569Y7.739
X57.6Y7.806
X57.633Y7.872
X57.668Y7.937
X57.704Y8.001
X57.741Y8.064
X57.781Y8.126
X57.821Y8.188
X57.864Y8.248
X57.907Y8.307
X57.952Y8.365
X57.999Y8.423
X58.047Y8.478
X58.096Y8.533
X58.147Y8.587
X58.198Y8.639
X58.252Y8.69
X58.306Y8.739
X58.362Y8.788
X58.418Y8.835
X58.476Y8.88
X58.535Y8.924
X58.595Y8.967
X58.656Y9.008
X58.718Y9.047
X58.781Y9.085
X58.845Y9.122
X58.91Y9.157
X58.976Y9.19
X59.042Y9.222
X59.109Y9.252
X59.177Y9.28
X59.246Y9.307
X59.315Y9.332
X59.385Y9.355
X59.455Y9.377
X59.526Y9.397
X59.597Y9.415
X59.669Y9.431
X59.741Y9.446
X59.814Y9.459
X59.887Y9.47
X59.96Y9.479
X60Y9.483
X60Y52.3
X2.999Y52.3
Y5
X2.249Y5
X2.249Y3.749
X58.051Y3.749
X58.051Y6.517
X58.052Y6.572
X58.054Y6.627
X58.058Y6.682
X58.063Y6.737
X58.07Y6.792
X58.078Y6.847
X58.087Y6.901
X58.097Y6.955
X58.109Y7.009
X58.122Y7.063
X58.137Y7.116
X58.153Y7.169
X58.17Y7.222
X58.188Y7.274
X58.208Y7.325
X58.229Y7.376
X58.251Y7.427
X58.274Y7.477
X58.299Y7.526
X58.325Y7.575
X58.352Y7.623
X58.38Y7.671
X58.409Y7.717
X58.44Y7.764
X58.471Y7.809
X58.504Y7.853
X58.538Y7.897
X58.573Y7.94
X58.609Y7.982
X58.646Y8.023
X58.683Y8.063
X58.722Y8.102
X58.762Y8.14
X58.803Y8.178
X58.845Y8.214
X58.887Y8.249
X58.93Y8.283
X58.975Y8.316
X59.02Y8.348
X59.065Y8.379
X59.112Y8.409
X59.159Y8.437
X59.207Y8.465
X59.256Y8.491
X59.305Y8.516
X59.355Y8.54
X59.405Y8.563
X59.456Y8.584
X59.507Y8.604
X59.559Y8.623
X59.612Y8.64
X59.664Y8.657
X59.717Y8.672
X59.771Y8.685
X59.825Y8.698
X59.879Y8.709
X59.933Y8.718
X59.988Y8.727
X60.043Y8.734
X60.098Y8.739
X60.153Y8.744
X60.208Y8.747
X60.263Y8.748
X60.3Y8.749
X60.75Y8.749
X60.75Y53.05
X2.249Y53.05
Y5
X1.499Y5
X1.499Y2.999
X58.8Y2.999
X58.801Y6.508
X58.801Y6.545
X58.803Y6.581
X58.805Y6.618
X58.809Y6.655
X58.813Y6.691
X58.818Y6.728
X58.824Y6.764
X58.831Y6.8
X58.839Y6.836
X58.848Y6.872
X58.857Y6.907
X58.868Y6.943
X58.879Y6.978
X58.891Y7.012
X58.904Y7.047
X58.918Y7.081
X58.933Y7.115
X58.948Y7.148
X58.965Y7.181
X58.982Y7.214
X59Y7.246
X59.019Y7.277
X59.038Y7.309
X59.058Y7.339
X59.079Y7.37
X59.101Y7.399
X59.124Y7.428
X59.147Y7.457
X59.171Y7.485
X59.195Y7.512
X59.22Y7.539
X59.246Y7.565
X59.273Y7.591
X59.3Y7.616
X59.328Y7.64
X59.356Y7.664
X59.385Y7.686
X59.414Y7.709
X59.444Y7.73
X59.475Y7.751
X59.506Y7.77
X59.537Y7.79
X59.569Y7.808
X59.601Y7.825
X59.634Y7.842
X59.667Y7.858
X59.701Y7.873
X59.735Y7.888
X59.769Y7.901
X59.803Y7.914
X59.838Y7.925
X59.873Y7.936
X59.909Y7.946
X59.945Y7.956
X59.98Y7.964
X60.016Y7.971
X60.053Y7.978
X60.089Y7.983
X60.126Y7.988
X60.162Y7.992
X60.199Y7.995
X60.236Y7.997
X60.272Y7.998
X60.3Y7.999
X61.5Y7.999
X61.5Y53.801
X1.499Y53.8
Y5
X0.749Y5
X0.749Y2.249
X59.551Y2.249
Y6.499
X59.551Y6.517
X59.551Y6.535
X59.553Y6.554
X59.554Y6.572
X59.556Y6.59
X59.559Y6.609
X59.562Y6.627
X59.565Y6.645
X59.569Y6.663
X59.573Y6.681
X59.578Y6.698
X59.583Y6.716
X59.588Y6.734
X59.594Y6.751
X59.601Y6.768
X59.608Y6.785
X59.615Y6.802
X59.622Y6.819
X59.631Y6.836
X59.639Y6.852
X59.648Y6.868
X59.657Y6.884
X59.667Y6.9
X59.677Y6.915
X59.687Y6.93
X59.698Y6.945
X59.709Y6.96
X59.721Y6.974
X59.733Y6.988
X59.745Y7.002
X59.757Y7.016
X59.77Y7.029
X59.783Y7.042
X59.797Y7.054
X59.811Y7.066
X59.825Y7.078
X59.839Y7.09
X59.854Y7.101
X59.869Y7.112
X59.884Y7.122
X59.899Y7.132
X59.915Y7.142
X59.931Y7.151
X59.947Y7.16
X59.963Y7.168
X59.98Y7.176
X59.996Y7.184
X60.013Y7.191
X60.03Y7.198
X60.048Y7.205
X60.065Y7.211
X60.083Y7.216
X60.1Y7.221
X60.118Y7.226
X60.136Y7.23
X60.154Y7.234
X60.172Y7.237
X60.19Y7.24
X60.208Y7.243
X60.227Y7.245
X60.245Y7.246
X60.263Y7.248
X60.282Y7.248
X60.3Y7.249
X62.25Y7.249
X62.25Y54.551
X0.749Y54.55
Y5
G0Z2
 
