(Created with grbl post processor 2023/09/04 22:08)
G21
(G-code generated with BlenderCAM and NC library)
G17G90
(Tool: D = 1.5 mm  type END flutes 2)
S12000M03
G00 Z2.0

G0X0Y0Z2
X11.999Y13.507
G1Z-4.5F100
X14.486Y13.513F200
X14.207Y13.561
X13.918Y13.618
X13.631Y13.683
X13.345Y13.754
X13.061Y13.832
X12.911Y13.877
X12.198Y14.094
X11.999Y14.159
Y13.507
G0Z2
X12.002Y42.641
G1Z-4.5F100
X12.33Y42.746F200
X13.044Y42.962
X13.328Y43.04
X13.614Y43.112
X13.901Y43.177
X14.19Y43.235
X14.48Y43.285
X14.575Y43.3
X12.001Y43.3
X12.002Y42.641
G0Z2
X40.363Y34.287
G1Z-4.5F100
X40.469Y33.864F200
X40.57Y33.415
X40.634Y33.108
X40.719Y32.656
X40.771Y32.348
X40.839Y31.893
X40.88Y31.582
X40.932Y31.118
X41.02Y30.209
X41.055Y29.75
X41.073Y29.438
X41.09Y28.978
X41.097Y28.665
X41.098Y28.205
X41.092Y27.892
X41.076Y27.432
X41.059Y27.119
X41.026Y26.661
X40.997Y26.341
X40.912Y25.488
X40.856Y25.031
X40.813Y24.721
X40.74Y24.267
X40.686Y23.959
X40.597Y23.507
X40.53Y23.201
X40.425Y22.753
X40.38Y22.576
X42Y22.58
X42Y34.291
X40.363Y34.287
X39.637Y34.1
X39.739Y33.691
X39.837Y33.258
X39.898Y32.962
X39.98Y32.526
X40.031Y32.229
X40.096Y31.79
X40.136Y31.491
X40.186Y31.042
X40.273Y30.145
X40.307Y29.702
X40.324Y29.401
X40.341Y28.958
X40.347Y28.656
X40.348Y28.212
X40.343Y27.91
X40.327Y27.467
X40.311Y27.166
X40.279Y26.723
X40.251Y26.415
X40.166Y25.571
X40.113Y25.13
X40.071Y24.831
X40.001Y24.393
X39.948Y24.096
X39.862Y23.661
X39.799Y23.366
X39.697Y22.934
X39.622Y22.641
X39.505Y22.214
X39.417Y21.917
X39.389Y21.824
X42.75Y21.832
X42.75Y35.043
X39.371Y35.035
X39.485Y34.652
X39.604Y34.224
X39.637Y34.1
X38.911Y33.911
X39.009Y33.517
X39.104Y33.101
X39.163Y32.816
X39.242Y32.396
X39.29Y32.11
X39.353Y31.687
X39.391Y31.399
X39.44Y30.967
X39.526Y30.08
X39.558Y29.654
X39.575Y29.364
X39.591Y28.937
X39.597Y28.647
X39.598Y28.22
X39.593Y27.929
X39.578Y27.502
X39.562Y27.212
X39.532Y26.786
X39.505Y26.488
X39.421Y25.653
X39.369Y25.229
X39.329Y24.941
X39.262Y24.52
X39.211Y24.233
X39.128Y23.814
X39.067Y23.53
X38.969Y23.114
X38.897Y22.833
X38.784Y22.421
X38.699Y22.134
X38.454Y21.332
X38.37Y21.071
X43.5Y21.084
X43.5Y35.795
X38.35Y35.789
X38.45Y35.482
X38.523Y35.246
X38.765Y34.443
X38.88Y34.031
X38.911Y33.911
X38.185Y33.723
X38.28Y33.344
X38.381Y32.895
X38.471Y32.444
X38.55Y31.991
X38.617Y31.535
X38.674Y31.079
X38.699Y30.842
X38.779Y30.016
X38.813Y29.557
X38.835Y29.098
X38.847Y28.638
X38.847Y28.177
X38.836Y27.717
X38.814Y27.258
X38.78Y26.799
X38.758Y26.562
X38.676Y25.736
X38.619Y25.279
X38.552Y24.824
X38.474Y24.371
X38.384Y23.919
X38.283Y23.47
X38.172Y23.024
X38.049Y22.58
X37.982Y22.352
X37.739Y21.559
X37.595Y21.122
X37.44Y20.688
X37.299Y20.318
X44.25Y20.336
X44.25Y36.545
X37.276Y36.537
X37.435Y36.126
X37.59Y35.693
X37.735Y35.256
X37.805Y35.028
X38.045Y34.234
X38.168Y33.791
X38.185Y33.723
X37.46Y33.534
X37.55Y33.171
X37.647Y32.74
X37.733Y32.307
X37.809Y31.872
X37.874Y31.435
X37.928Y30.996
X37.952Y30.768
X38.031Y29.952
X38.064Y29.511
X38.086Y29.07
X38.097Y28.629
X38.097Y28.187
X38.087Y27.745
X38.065Y27.304
X38.033Y26.863
X38.012Y26.635
X37.93Y25.819
X37.876Y25.381
X37.812Y24.944
X37.736Y24.508
X37.65Y24.075
X37.554Y23.644
X37.447Y23.215
X37.329Y22.789
X37.264Y22.57
X37.025Y21.785
X36.886Y21.366
X36.737Y20.95
X36.579Y20.537
X36.41Y20.129
X36.231Y19.725
X36.157Y19.566
X45Y19.588
X45Y37.296
X36.132Y37.286
X36.315Y36.887
X36.489Y36.481
X36.653Y36.071
X36.808Y35.657
X36.951Y35.239
X37.088Y34.811
X37.324Y34.025
X37.442Y33.6
X37.46Y33.534
X36.734Y33.346
X36.82Y32.998
X36.913Y32.585
X36.996Y32.17
X37.069Y31.753
X37.131Y31.334
X37.183Y30.914
X37.206Y30.695
X37.284Y29.888
X37.315Y29.466
X37.336Y29.043
X37.347Y28.619
X37.347Y28.196
X37.337Y27.773
X37.316Y27.35
X37.286Y26.928
X37.265Y26.709
X37.185Y25.902
X37.133Y25.482
X37.071Y25.063
X36.999Y24.646
X36.917Y24.23
X36.824Y23.817
X36.721Y23.406
X36.609Y22.998
X36.546Y22.787
X36.31Y22.012
X36.177Y21.61
X36.035Y21.211
X35.882Y20.816
X35.721Y20.425
X35.549Y20.038
X35.368Y19.655
X35.178Y19.277
X35.076Y19.082
X34.932Y18.812
X45.75Y18.839
X45.75Y38.047
X34.906Y38.035
X35.171Y37.537
X35.361Y37.159
X35.542Y36.776
X35.714Y36.389
X35.876Y35.998
X36.029Y35.603
X36.172Y35.205
X36.305Y34.803
X36.37Y34.593
X36.604Y33.817
X36.717Y33.409
X36.734Y33.346
X36.008Y33.157
X36.09Y32.825
X36.179Y32.43
X36.259Y32.032
X36.328Y31.634
X36.388Y31.233
X36.437Y30.831
X36.46Y30.621
X36.537Y29.824
X36.567Y29.42
X36.587Y29.015
X36.597Y28.61
X36.597Y28.205
X36.588Y27.801
X36.568Y27.396
X36.538Y26.992
X36.519Y26.782
X36.439Y25.985
X36.39Y25.583
X36.331Y25.182
X36.262Y24.783
X36.183Y24.386
X36.094Y23.991
X35.996Y23.598
X35.888Y23.207
X35.828Y23.005
X35.595Y22.238
X35.468Y21.854
X35.332Y21.473
X35.186Y21.095
X35.031Y20.72
X34.867Y20.35
X34.694Y19.984
X34.512Y19.622
X34.414Y19.436
X34.035Y18.729
X33.836Y18.377
X33.646Y18.059
X46.5Y18.091
X46.5Y38.798
X33.62Y38.783
X33.828Y38.437
X34.027Y38.084
X34.128Y37.899
X34.505Y37.192
X34.687Y36.83
X34.86Y36.464
X35.025Y36.094
X35.18Y35.72
X35.326Y35.342
X35.462Y34.961
X35.59Y34.576
X35.652Y34.375
X35.884Y33.608
X35.992Y33.217
X36.008Y33.157
X35.282Y32.969
X35.361Y32.652
X35.446Y32.274
X35.521Y31.895
X35.588Y31.514
X35.644Y31.132
X35.692Y30.748
X35.713Y30.548
X35.79Y29.759
X35.818Y29.374
X35.837Y28.988
X35.847Y28.601
X35.847Y28.215
X35.838Y27.828
X35.819Y27.442
X35.791Y27.057
X35.773Y26.856
X35.694Y26.067
X35.647Y25.684
X35.59Y25.301
X35.524Y24.92
X35.449Y24.541
X35.365Y24.164
X35.271Y23.789
X35.168Y23.416
X35.111Y23.223
X34.88Y22.465
X34.759Y22.098
X34.629Y21.734
X34.49Y21.373
X34.342Y21.016
X34.185Y20.663
X34.02Y20.313
X33.847Y19.968
X33.753Y19.789
X33.378Y19.091
X33.188Y18.754
X32.989Y18.423
X32.783Y18.096
X32.568Y17.775
X32.346Y17.458
X32.234Y17.306
X47.25Y17.343
X47.25Y39.549
X32.202Y39.536
X32.448Y39.197
X32.667Y38.878
X32.878Y38.555
X33.081Y38.226
X33.276Y37.892
X33.467Y37.546
X33.839Y36.846
X34.013Y36.501
X34.178Y36.152
X34.335Y35.799
X34.483Y35.442
X34.623Y35.081
X34.753Y34.717
X34.875Y34.35
X34.934Y34.157
X35.163Y33.399
X35.267Y33.026
X35.282Y32.969
X34.556Y32.78
X34.631Y32.478
X34.712Y32.119
X34.784Y31.758
X34.847Y31.395
X34.901Y31.031
X34.947Y30.666
X34.967Y30.474
X35.042Y29.695
X35.07Y29.328
X35.088Y28.96
X35.097Y28.592
X35.097Y28.224
X35.089Y27.856
X35.071Y27.488
X35.044Y27.121
X35.026Y26.929
X34.948Y26.15
X34.904Y25.785
X34.85Y25.421
X34.787Y25.058
X34.715Y24.697
X34.635Y24.337
X34.546Y23.98
X34.448Y23.625
X34.393Y23.441
X34.165Y22.692
X34.049Y22.342
X33.926Y21.995
X33.793Y21.652
X33.653Y21.312
X33.504Y20.975
X33.346Y20.642
X33.181Y20.313
X33.091Y20.143
X32.721Y19.453
X32.54Y19.132
X32.351Y18.816
X32.154Y18.505
X31.95Y18.199
X31.738Y17.898
X31.519Y17.602
X31.293Y17.312
X31.171Y17.162
X30.669Y16.552
X48Y16.595
X48Y40.299
X30.635Y40.288
X30.786Y40.107
X31.282Y39.501
X31.509Y39.211
X31.728Y38.915
X31.94Y38.614
X32.145Y38.308
X32.342Y37.997
X32.531Y37.682
X32.713Y37.361
X32.805Y37.192
X33.173Y36.501
X33.339Y36.172
X33.497Y35.84
X33.646Y35.503
X33.787Y35.163
X33.92Y34.82
X34.044Y34.473
X34.16Y34.124
X34.217Y33.94
X34.443Y33.19
X34.541Y32.835
X34.556Y32.78
X33.83Y32.591
X33.901Y32.305
X33.978Y31.964
X34.047Y31.621
X34.107Y31.276
X34.158Y30.93
X34.201Y30.583
X34.22Y30.401
X34.295Y29.631
X34.321Y29.282
X34.338Y28.933
X34.347Y28.583
X34.347Y28.233
X34.339Y27.884
X34.322Y27.534
X34.297Y27.185
X34.28Y27.003
X34.203Y26.233
X34.16Y25.886
X34.109Y25.54
X34.05Y25.195
X33.982Y24.852
X33.905Y24.511
X33.821Y24.171
X33.727Y23.834
X33.675Y23.658
X33.45Y22.918
X33.34Y22.586
X33.223Y22.257
X33.097Y21.93
X32.963Y21.607
X32.822Y21.287
X32.672Y20.971
X32.515Y20.659
X32.43Y20.496
X32.064Y19.814
X31.892Y19.51
X31.713Y19.21
X31.526Y18.914
X31.331Y18.623
X31.13Y18.337
X30.922Y18.056
X30.707Y17.78
X30.592Y17.638
X30.1Y17.04
X29.872Y16.775
X29.637Y16.516
X29.396Y16.263
X29.149Y16.015
X28.921Y15.797
X48.75Y15.847
X48.75Y41.05
X28.875Y41.044
X29.136Y40.796
X29.384Y40.549
X29.625Y40.296
X29.86Y40.037
X30.089Y39.772
X30.206Y39.631
X30.696Y39.032
X30.912Y38.757
X31.12Y38.476
X31.322Y38.19
X31.516Y37.899
X31.703Y37.604
X31.883Y37.304
X32.056Y37
X32.144Y36.839
X32.507Y36.156
X32.665Y35.843
X32.815Y35.527
X32.957Y35.208
X33.091Y34.885
X33.217Y34.559
X33.335Y34.229
X33.445Y33.897
X33.499Y33.722
X33.723Y32.981
X33.816Y32.644
X33.83Y32.591
X33.104Y32.403
X33.172Y32.132
X33.244Y31.809
X33.309Y31.484
X33.366Y31.157
X33.415Y30.83
X33.456Y30.501
X33.474Y30.327
X33.548Y29.566
X33.573Y29.236
X33.589Y28.905
X33.597Y28.574
X33.598Y28.243
X33.59Y27.911
X33.574Y27.58
X33.549Y27.25
X33.533Y27.076
X33.458Y26.316
X33.417Y25.987
X33.369Y25.659
X33.312Y25.332
X33.248Y25.007
X33.176Y24.684
X33.095Y24.363
X33.007Y24.043
X32.958Y23.876
X32.735Y23.145
X32.631Y22.83
X32.52Y22.518
X32.401Y22.209
X32.274Y21.903
X32.14Y21.6
X31.998Y21.3
X31.85Y21.004
X31.769Y20.85
X31.407Y20.176
X31.244Y19.888
X31.074Y19.603
X30.897Y19.323
X30.713Y19.048
X30.522Y18.777
X30.325Y18.51
X30.122Y18.249
X30.012Y18.113
X29.526Y17.523
X29.31Y17.272
X29.088Y17.027
X28.859Y16.786
X28.625Y16.552
X28.385Y16.323
X28.14Y16.101
X27.889Y15.884
X27.755Y15.773
X27.164Y15.288
X26.903Y15.084
X26.847Y15.042
X49.5Y15.099
X49.5Y41.8
X26.797Y41.794
X27.02Y41.624
X27.286Y41.412
X27.876Y40.926
X28.127Y40.71
X28.372Y40.488
X28.613Y40.259
X28.847Y40.025
X29.076Y39.785
X29.298Y39.54
X29.515Y39.289
X29.626Y39.155
X30.111Y38.564
X30.315Y38.303
X30.512Y38.037
X30.703Y37.766
X30.887Y37.49
X31.065Y37.211
X31.235Y36.926
X31.399Y36.638
X31.482Y36.485
X31.842Y35.81
X31.991Y35.515
X32.133Y35.215
X32.267Y34.912
X32.394Y34.606
X32.514Y34.297
X32.625Y33.985
X32.73Y33.671
X32.781Y33.504
X33.002Y32.773
X33.091Y32.453
X33.104Y32.403
X32.378Y32.214
X32.442Y31.959
X32.511Y31.653
X32.572Y31.347
X32.626Y31.038
X32.672Y30.729
X32.71Y30.418
X32.728Y30.254
X32.801Y29.502
X32.824Y29.19
X32.839Y28.878
X32.847Y28.565
X32.848Y28.252
X32.84Y27.939
X32.825Y27.626
X32.802Y27.314
X32.787Y27.15
X32.712Y26.398
X32.674Y26.088
X32.628Y25.778
X32.575Y25.47
X32.514Y25.163
X32.446Y24.857
X32.37Y24.554
X32.287Y24.252
X32.24Y24.094
X32.02Y23.371
X31.922Y23.074
X31.817Y22.779
X31.704Y22.487
X31.585Y22.198
X31.458Y21.912
X31.325Y21.629
X31.184Y21.349
X31.107Y21.203
X30.75Y20.538
X30.596Y20.265
X30.436Y19.997
X30.268Y19.732
X30.095Y19.472
X29.915Y19.216
X29.728Y18.965
X29.536Y18.718
X29.432Y18.589
X28.952Y18.006
X28.748Y17.769
X28.538Y17.537
X28.323Y17.31
X28.101Y17.089
X27.875Y16.873
X27.643Y16.663
X27.406Y16.458
X27.279Y16.352
X26.695Y15.874
X26.448Y15.681
X26.197Y15.495
X25.942Y15.314
X25.681Y15.14
X25.417Y14.973
X25.149Y14.812
X24.877Y14.657
X24.732Y14.578
X24.184Y14.286
X50.25Y14.351
X50.25Y42.55
X24.117Y42.549
X24.196Y42.507
X24.861Y42.15
X25.134Y41.996
X25.402Y41.836
X25.667Y41.668
X25.927Y41.495
X26.183Y41.315
X26.434Y41.128
X26.681Y40.936
X26.81Y40.832
X27.393Y40.352
X27.63Y40.148
X27.862Y39.938
X28.089Y39.723
X28.31Y39.501
X28.526Y39.275
X28.736Y39.043
X28.941Y38.806
X29.047Y38.679
X29.525Y38.095
X29.718Y37.848
X29.904Y37.597
X30.085Y37.342
X30.259Y37.081
X30.426Y36.817
X30.587Y36.549
X30.742Y36.277
X30.821Y36.131
X31.176Y35.465
X31.317Y35.186
X31.451Y34.903
X31.578Y34.617
X31.698Y34.328
X31.811Y34.036
X31.916Y33.741
X32.015Y33.444
X32.064Y33.287
X32.282Y32.564
X32.366Y32.262
X32.378Y32.214
X31.652Y32.025
X31.712Y31.785
X31.777Y31.498
X31.835Y31.209
X31.885Y30.919
X31.929Y30.628
X31.965Y30.336
X31.981Y30.18
X32.053Y29.438
X32.075Y29.144
X32.09Y28.85
X32.097Y28.556
X32.098Y28.261
X32.091Y27.967
X32.076Y27.673
X32.055Y27.379
X32.041Y27.223
X31.967Y26.481
X31.931Y26.189
X31.888Y25.897
X31.838Y25.607
X31.781Y25.318
X31.716Y25.031
X31.645Y24.745
X31.567Y24.461
X31.522Y24.311
X31.305Y23.598
X31.213Y23.318
X31.114Y23.041
X31.008Y22.766
X30.895Y22.494
X30.776Y22.225
X30.651Y21.958
X30.518Y21.695
X30.446Y21.557
X30.093Y20.899
X29.948Y20.643
X29.797Y20.39
X29.64Y20.141
X29.476Y19.896
X29.307Y19.655
X29.132Y19.419
X28.951Y19.186
X28.852Y19.065
X28.378Y18.489
X28.186Y18.266
X27.989Y18.048
X27.786Y17.834
X27.578Y17.626
X27.365Y17.422
X27.146Y17.224
X26.924Y17.032
X26.804Y16.932
X26.226Y16.46
X25.994Y16.278
X25.758Y16.103
X25.517Y15.933
X25.273Y15.769
X25.024Y15.611
X24.771Y15.46
X24.515Y15.314
X24.378Y15.24
X23.72Y14.889
X23.457Y14.756
X23.191Y14.63
X22.921Y14.511
X22.649Y14.398
X22.375Y14.291
X22.098Y14.192
X21.818Y14.099
X21.669Y14.053
X20.955Y13.837
X20.671Y13.759
X20.385Y13.687
X20.098Y13.622
X19.809Y13.564
X19.582Y13.524
X50.622Y13.593
X50.834Y13.873
X51Y14.082
X51Y43.3
X19.424Y43.3
X19.647Y43.264
X19.936Y43.21
X20.225Y43.149
X20.511Y43.081
X20.796Y43.007
X21.088Y42.922
X21.801Y42.705
X22.081Y42.613
X22.358Y42.514
X22.633Y42.408
X22.905Y42.295
X23.174Y42.176
X23.441Y42.051
X23.704Y41.918
X23.842Y41.846
X24.5Y41.493
X24.756Y41.348
X25.009Y41.197
X25.258Y41.04
X25.503Y40.876
X25.744Y40.707
X25.98Y40.532
X26.213Y40.351
X26.334Y40.252
X26.91Y39.779
X27.133Y39.586
X27.351Y39.389
X27.565Y39.186
X27.773Y38.978
X27.977Y38.765
X28.175Y38.546
X28.367Y38.324
X28.467Y38.204
X28.939Y37.626
X29.121Y37.394
X29.296Y37.158
X29.466Y36.917
X29.63Y36.673
X29.788Y36.424
X29.939Y36.171
X30.085Y35.915
X30.159Y35.778
X30.51Y35.12
X30.643Y34.857
X30.769Y34.591
X30.888Y34.321
X31.001Y34.049
X31.108Y33.775
X31.207Y33.498
X31.3Y33.218
X31.346Y33.069
X31.562Y32.355
X31.64Y32.071
X31.652Y32.025
X30.926Y31.837
X30.982Y31.612
X31.043Y31.343
X31.097Y31.072
X31.145Y30.8
X31.185Y30.527
X31.219Y30.253
X31.235Y30.107
X31.306Y29.374
X31.327Y29.098
X31.34Y28.823
X31.347Y28.546
X31.348Y28.27
X31.341Y27.994
X31.328Y27.719
X31.308Y27.443
X31.294Y27.297
X31.221Y26.564
X31.188Y26.29
X31.147Y26.017
X31.1Y25.745
X31.047Y25.474
X30.987Y25.204
X30.92Y24.936
X30.846Y24.67
X30.805Y24.529
X30.59Y23.825
X30.504Y23.562
X30.411Y23.302
X30.312Y23.045
X30.206Y22.789
X30.094Y22.537
X29.977Y22.287
X29.853Y22.04
X29.784Y21.91
X29.436Y21.261
X29.3Y21.021
X29.159Y20.784
X29.011Y20.55
X28.858Y20.321
X28.699Y20.095
X28.535Y19.873
X28.365Y19.655
X28.273Y19.541
X27.805Y18.972
X27.624Y18.763
X27.439Y18.558
X27.249Y18.358
X27.054Y18.162
X26.854Y17.972
X26.65Y17.786
X26.441Y17.606
X26.328Y17.512
X25.758Y17.045
X25.54Y16.875
X25.319Y16.71
X25.093Y16.551
X24.864Y16.398
X24.63Y16.25
X24.394Y16.108
X24.154Y15.971
X24.024Y15.901
X23.374Y15.555
X23.128Y15.43
X22.878Y15.312
X22.626Y15.2
X22.371Y15.094
X22.113Y14.995
X21.854Y14.901
X21.591Y14.814
X21.451Y14.771
X20.746Y14.558
X20.48Y14.484
X20.212Y14.417
X19.943Y14.356
X19.672Y14.302
X19.4Y14.254
X19.127Y14.214
X18.853Y14.18
X18.707Y14.164
X17.974Y14.093
X17.698Y14.072
X17.423Y14.059
X17.146Y14.052
X16.87Y14.051
X16.594Y14.058
X16.319Y14.071
X16.043Y14.091
X15.897Y14.105
X15.164Y14.178
X14.89Y14.211
X14.617Y14.252
X14.344Y14.299
X14.074Y14.352
X13.804Y14.412
X13.536Y14.479
X13.27Y14.553
X13.129Y14.594
X12.425Y14.809
X12.162Y14.895
X11.902Y14.988
X11.645Y15.087
X11.389Y15.193
X11.249Y15.254
Y12.756
X51.004Y12.834
X51.177Y13.08
X51.341Y13.302
X51.511Y13.52
X51.685Y13.733
X51.75Y13.81
X51.75Y44.05
X11.251Y44.05
X11.253Y41.547
X11.5Y41.653
X11.756Y41.756
X12.015Y41.852
X12.276Y41.942
X12.548Y42.028
X13.253Y42.241
X13.519Y42.315
X13.787Y42.382
X14.056Y42.443
X14.327Y42.497
X14.599Y42.545
X14.872Y42.585
X15.146Y42.619
X15.292Y42.635
X16.025Y42.706
X16.301Y42.727
X16.576Y42.74
X16.853Y42.747
X17.129Y42.748
X17.405Y42.741
X17.68Y42.728
X17.956Y42.708
X18.102Y42.694
X18.835Y42.621
X19.109Y42.588
X19.382Y42.547
X19.655Y42.5
X19.925Y42.447
X20.195Y42.387
X20.463Y42.32
X20.729Y42.246
X20.87Y42.205
X21.574Y41.99
X21.837Y41.904
X22.097Y41.811
X22.354Y41.712
X22.61Y41.606
X22.862Y41.494
X23.112Y41.377
X23.359Y41.253
X23.489Y41.184
X24.138Y40.836
X24.378Y40.7
X24.615Y40.559
X24.849Y40.411
X25.078Y40.258
X25.304Y40.099
X25.526Y39.935
X25.744Y39.765
X25.858Y39.673
X26.427Y39.205
X26.636Y39.024
X26.841Y38.839
X27.041Y38.649
X27.237Y38.454
X27.427Y38.254
X27.613Y38.05
X27.793Y37.841
X27.887Y37.728
X28.354Y37.158
X28.524Y36.94
X28.689Y36.719
X28.848Y36.493
X29.001Y36.264
X29.149Y36.03
X29.291Y35.794
X29.428Y35.554
X29.498Y35.424
X29.844Y34.774
X29.969Y34.528
X30.087Y34.278
X30.199Y34.026
X30.305Y33.771
X30.404Y33.514
X30.498Y33.254
X30.585Y32.991
X30.628Y32.851
X30.841Y32.146
X30.915Y31.88
X30.926Y31.837
X30.201Y31.648
X30.253Y31.439
X30.309Y31.188
X30.36Y30.935
X30.404Y30.681
X30.442Y30.426
X30.474Y30.17
X30.488Y30.033
X30.559Y29.309
X30.578Y29.052
X30.591Y28.795
X30.598Y28.537
X30.598Y28.28
X30.592Y28.022
X30.579Y27.765
X30.56Y27.508
X30.548Y27.37
X30.476Y26.647
X30.445Y26.391
X30.407Y26.136
X30.363Y25.882
X30.313Y25.629
X30.257Y25.378
X30.194Y25.128
X30.126Y24.879
X30.087Y24.747
X29.875Y24.051
X29.794Y23.806
X29.708Y23.564
X29.615Y23.323
X29.517Y23.085
X29.413Y22.849
X29.303Y22.616
X29.187Y22.386
X29.123Y22.264
X28.779Y21.623
X28.652Y21.398
X28.52Y21.177
X28.382Y20.959
X28.239Y20.745
X28.091Y20.534
X27.938Y20.327
X27.78Y20.124
X27.693Y20.017
X27.231Y19.455
X27.063Y19.26
X26.89Y19.068
X26.712Y18.882
X26.53Y18.699
X26.344Y18.521
X26.153Y18.348
X25.958Y18.18
X25.852Y18.092
X25.289Y17.631
X25.086Y17.472
X24.879Y17.318
X24.669Y17.17
X24.455Y17.026
X24.237Y16.888
X24.016Y16.756
X23.792Y16.628
X23.671Y16.563
X23.029Y16.22
X22.799Y16.104
X22.566Y15.994
X22.331Y15.889
X22.093Y15.79
X21.852Y15.698
X21.61Y15.611
X21.365Y15.529
X21.233Y15.489
X20.537Y15.278
X20.289Y15.209
X20.039Y15.146
X19.788Y15.09
X19.535Y15.039
X19.281Y14.995
X19.026Y14.957
X18.77Y14.925
X18.633Y14.911
X17.909Y14.84
X17.652Y14.821
X17.395Y14.808
X17.137Y14.801
X16.88Y14.801
X16.622Y14.807
X16.365Y14.82
X16.108Y14.839
X15.97Y14.851
X15.246Y14.923
X14.991Y14.954
X14.736Y14.992
X14.482Y15.036
X14.229Y15.086
X13.978Y15.142
X13.728Y15.205
X13.479Y15.273
X13.347Y15.312
X12.651Y15.524
X12.406Y15.605
X12.164Y15.691
X11.923Y15.784
X11.685Y15.882
X11.449Y15.986
X11.216Y16.096
X10.986Y16.212
X10.864Y16.276
X10.499Y16.472
Y12.004
X51.406Y12.079
X51.564Y12.323
X51.71Y12.536
X51.861Y12.745
X52.016Y12.95
X52.177Y13.151
X52.343Y13.349
X52.5Y13.528
X52.5Y44.8
X10.5Y44.8
X10.504Y40.331
X10.97Y40.579
X11.2Y40.695
X11.433Y40.805
X11.668Y40.91
X11.906Y41.009
X12.147Y41.101
X12.389Y41.189
X12.634Y41.27
X12.766Y41.31
X13.462Y41.521
X13.71Y41.59
X13.96Y41.653
X14.211Y41.709
X14.464Y41.76
X14.718Y41.804
X14.973Y41.842
X15.229Y41.874
X15.366Y41.888
X16.09Y41.959
X16.347Y41.978
X16.604Y41.991
X16.862Y41.998
X17.119Y41.998
X17.377Y41.992
X17.634Y41.979
X17.891Y41.96
X18.029Y41.948
X18.753Y41.876
X19.008Y41.845
X19.263Y41.807
X19.517Y41.763
X19.77Y41.713
X20.021Y41.657
X20.271Y41.594
X20.52Y41.526
X20.652Y41.487
X21.348Y41.275
X21.593Y41.194
X21.835Y41.108
X22.076Y41.015
X22.314Y40.917
X22.55Y40.813
X22.783Y40.703
X23.013Y40.587
X23.135Y40.523
X23.776Y40.179
X24.001Y40.052
X24.222Y39.92
X24.44Y39.782
X24.654Y39.639
X24.865Y39.491
X25.072Y39.338
X25.275Y39.18
X25.382Y39.093
X25.944Y38.631
X26.139Y38.463
X26.331Y38.29
X26.517Y38.112
X26.7Y37.93
X26.878Y37.744
X27.051Y37.553
X27.219Y37.358
X27.307Y37.252
X27.768Y36.689
X27.927Y36.486
X28.081Y36.279
X28.229Y36.069
X28.373Y35.855
X28.511Y35.637
X28.643Y35.416
X28.771Y35.192
X28.836Y35.071
X29.179Y34.429
X29.295Y34.199
X29.405Y33.966
X29.51Y33.731
X29.609Y33.493
X29.701Y33.252
X29.788Y33.01
X29.87Y32.765
X29.91Y32.633
X30.121Y31.937
X30.19Y31.689
X30.201Y31.648
X29.475Y31.459
X29.523Y31.266
X29.576Y31.032
X29.623Y30.798
X29.664Y30.562
X29.699Y30.325
X29.728Y30.088
X29.742Y29.96
X29.812Y29.245
X29.83Y29.006
X29.842Y28.767
X29.848Y28.528
X29.848Y28.289
X29.842Y28.05
X29.831Y27.811
X29.813Y27.572
X29.802Y27.444
X29.73Y26.729
X29.701Y26.492
X29.667Y26.255
X29.626Y26.019
X29.579Y25.784
X29.527Y25.551
X29.469Y25.319
X29.406Y25.088
X29.369Y24.965
X29.16Y24.278
X29.085Y24.05
X29.005Y23.825
X28.919Y23.602
X28.827Y23.38
X28.731Y23.162
X28.629Y22.945
X28.521Y22.731
X28.461Y22.617
X28.122Y21.984
X28.004Y21.776
X27.882Y21.571
X27.754Y21.368
X27.621Y21.169
X27.483Y20.974
X27.341Y20.781
X27.194Y20.592
X27.113Y20.492
X26.657Y19.938
X26.501Y19.756
X26.34Y19.579
X26.175Y19.406
X26.006Y19.236
X25.833Y19.071
X25.656Y18.91
X25.475Y18.754
X25.376Y18.671
X24.821Y18.216
X24.632Y18.069
X24.44Y17.926
X24.245Y17.788
X24.046Y17.655
X23.844Y17.527
X23.638Y17.404
X23.43Y17.285
X23.317Y17.224
X22.684Y16.886
X22.47Y16.778
X22.254Y16.676
X22.035Y16.579
X21.814Y16.487
X21.591Y16.401
X21.366Y16.32
X21.139Y16.244
X21.016Y16.206
X20.328Y15.998
X20.098Y15.934
X19.866Y15.876
X19.632Y15.823
X19.398Y15.776
X19.162Y15.735
X18.925Y15.7
X18.688Y15.671
X18.56Y15.657
X17.845Y15.587
X17.606Y15.569
X17.367Y15.558
X17.128Y15.551
X16.889Y15.551
X16.65Y15.557
X16.411Y15.568
X16.172Y15.586
X16.044Y15.597
X15.329Y15.669
X15.092Y15.698
X14.855Y15.732
X14.619Y15.773
X14.384Y15.82
X14.151Y15.872
X13.919Y15.93
X13.688Y15.993
X13.565Y16.03
X12.878Y16.239
X12.65Y16.314
X12.425Y16.394
X12.202Y16.48
X11.98Y16.572
X11.762Y16.668
X11.545Y16.77
X11.331Y16.878
X11.217Y16.938
X10.584Y17.277
X10.376Y17.395
X10.171Y17.517
X9.968Y17.645
X9.769Y17.778
X9.749Y17.792
Y11.253
X51.825Y11.318
X51.932Y11.502
X52.058Y11.706
X52.188Y11.907
X52.323Y12.104
X52.463Y12.298
X52.608Y12.489
X52.757Y12.676
X52.911Y12.859
X53.069Y13.038
X53.232Y13.214
X53.25Y13.233
X53.25Y45.55
X9.749Y45.55
X9.755Y39.011
X9.953Y39.144
X10.155Y39.272
X10.361Y39.395
X10.569Y39.514
X10.682Y39.575
X11.315Y39.913
X11.529Y40.021
X11.745Y40.123
X11.964Y40.22
X12.185Y40.312
X12.408Y40.398
X12.633Y40.479
X12.86Y40.555
X12.983Y40.593
X13.671Y40.801
X13.901Y40.865
X14.133Y40.923
X14.367Y40.976
X14.601Y41.023
X14.837Y41.064
X15.074Y41.099
X15.311Y41.128
X15.439Y41.142
X16.154Y41.212
X16.393Y41.23
X16.632Y41.242
X16.871Y41.248
X17.11Y41.248
X17.349Y41.242
X17.588Y41.231
X17.827Y41.213
X17.955Y41.202
X18.67Y41.13
X18.907Y41.101
X19.144Y41.067
X19.38Y41.026
X19.615Y40.979
X19.848Y40.927
X20.08Y40.869
X20.311Y40.806
X20.434Y40.769
X21.121Y40.56
X21.349Y40.485
X21.574Y40.405
X21.797Y40.319
X22.019Y40.227
X22.237Y40.131
X22.454Y40.029
X22.668Y39.921
X22.782Y39.861
X23.415Y39.522
X23.623Y39.404
X23.828Y39.282
X24.031Y39.154
X24.23Y39.021
X24.425Y38.883
X24.618Y38.741
X24.807Y38.594
X24.907Y38.513
X25.461Y38.057
X25.643Y37.901
X25.82Y37.74
X25.993Y37.575
X26.163Y37.406
X26.328Y37.233
X26.489Y37.056
X26.645Y36.875
X26.728Y36.776
X27.183Y36.221
X27.33Y36.032
X27.473Y35.84
X27.611Y35.645
X27.744Y35.446
X27.872Y35.244
X27.995Y35.038
X28.114Y34.83
X28.175Y34.717
X28.513Y34.084
X28.621Y33.87
X28.723Y33.654
X28.82Y33.435
X28.912Y33.214
X28.998Y32.991
X29.079Y32.766
X29.155Y32.539
X29.193Y32.416
X29.401Y31.728
X29.465Y31.498
X29.475Y31.459
X28.749Y31.271
X28.793Y31.092
X28.842Y30.877
X28.885Y30.66
X28.923Y30.443
X28.956Y30.224
X28.983Y30.005
X28.996Y29.886
X29.064Y29.181
X29.081Y28.96
X29.092Y28.74
X29.098Y28.519
X29.098Y28.298
X29.093Y28.077
X29.082Y27.857
X29.066Y27.636
X29.055Y27.517
X28.985Y26.812
X28.958Y26.593
X28.926Y26.374
X28.889Y26.156
X28.846Y25.94
X28.797Y25.724
X28.744Y25.51
X28.685Y25.297
X28.651Y25.182
X28.445Y24.504
X28.376Y24.294
X28.302Y24.086
X28.222Y23.88
X28.138Y23.676
X28.049Y23.474
X27.955Y23.274
X27.855Y23.077
X27.8Y22.971
X27.465Y22.346
X27.357Y22.154
X27.243Y21.964
X27.125Y21.778
X27.003Y21.594
X26.876Y21.413
X26.744Y21.235
X26.608Y21.061
X26.533Y20.968
X26.083Y20.421
X25.939Y20.253
X25.791Y20.089
X25.639Y19.929
X25.483Y19.773
X25.323Y19.621
X25.159Y19.472
X24.992Y19.328
X24.9Y19.251
X24.352Y18.802
X24.178Y18.666
X24.001Y18.534
X23.82Y18.407
X23.637Y18.284
X23.45Y18.165
X23.261Y18.052
X23.069Y17.943
X22.964Y17.885
X22.338Y17.552
X22.141Y17.452
X21.942Y17.358
X21.74Y17.268
X21.536Y17.183
X21.33Y17.104
X21.122Y17.029
X20.912Y16.959
X20.798Y16.924
X20.119Y16.719
X19.907Y16.66
X19.692Y16.606
X19.477Y16.557
X19.26Y16.514
X19.043Y16.476
X18.824Y16.443
X18.605Y16.416
X18.486Y16.403
X17.781Y16.335
X17.56Y16.318
X17.34Y16.307
X17.119Y16.301
X16.898Y16.301
X16.677Y16.306
X16.457Y16.317
X16.236Y16.333
X16.117Y16.344
X15.412Y16.414
X15.193Y16.441
X14.974Y16.473
X14.756Y16.511
X14.54Y16.553
X14.324Y16.602
X14.11Y16.655
X13.897Y16.714
X13.782Y16.748
X13.104Y16.954
X12.894Y17.023
X12.686Y17.097
X12.48Y17.177
X12.276Y17.261
X12.074Y17.35
X11.874Y17.444
X11.677Y17.544
X11.571Y17.599
X10.946Y17.934
X10.754Y18.043
X10.564Y18.156
X10.378Y18.274
X10.194Y18.396
X10.013Y18.523
X9.835Y18.655
X9.661Y18.791
X9.568Y18.866
X9.021Y19.316
X8.999Y19.335
Y10.502
X52.271Y10.563
X52.358Y10.732
X52.465Y10.926
X52.576Y11.117
X52.691Y11.305
X52.812Y11.49
X52.936Y11.672
X53.065Y11.851
X53.199Y12.027
X53.337Y12.2
X53.479Y12.369
X53.625Y12.535
X53.775Y12.697
X53.929Y12.855
X54Y12.926
X54Y46.3
X8.999Y46.3
X9Y37.466
X9.099Y37.548
X9.647Y37.997
X9.821Y38.133
X9.998Y38.265
X10.179Y38.392
X10.362Y38.515
X10.549Y38.634
X10.738Y38.747
X10.93Y38.856
X11.035Y38.914
X11.661Y39.247
X11.858Y39.347
X12.057Y39.441
X12.259Y39.531
X12.463Y39.616
X12.669Y39.695
X12.877Y39.77
X13.087Y39.84
X13.201Y39.875
X13.88Y40.08
X14.092Y40.139
X14.307Y40.193
X14.522Y40.242
X14.739Y40.285
X14.956Y40.323
X15.175Y40.356
X15.394Y40.383
X15.513Y40.396
X16.218Y40.464
X16.439Y40.481
X16.659Y40.492
X16.88Y40.498
X17.101Y40.498
X17.322Y40.493
X17.542Y40.482
X17.763Y40.466
X17.882Y40.455
X18.587Y40.385
X18.806Y40.358
X19.025Y40.326
X19.243Y40.289
X19.459Y40.246
X19.675Y40.197
X19.889Y40.144
X20.102Y40.085
X20.217Y40.051
X20.895Y39.845
X21.105Y39.776
X21.313Y39.702
X21.519Y39.622
X21.723Y39.538
X21.925Y39.449
X22.125Y39.355
X22.322Y39.255
X22.428Y39.2
X23.053Y38.865
X23.245Y38.757
X23.435Y38.643
X23.622Y38.525
X23.805Y38.403
X23.986Y38.276
X24.164Y38.144
X24.338Y38.008
X24.431Y37.933
X24.978Y37.483
X25.146Y37.339
X25.31Y37.191
X25.47Y37.039
X25.626Y36.883
X25.778Y36.723
X25.927Y36.559
X26.071Y36.392
X26.148Y36.3
X26.597Y35.752
X26.733Y35.578
X26.865Y35.401
X26.992Y35.22
X27.115Y35.037
X27.234Y34.85
X27.347Y34.661
X27.456Y34.469
X27.514Y34.364
X27.847Y33.738
X27.947Y33.541
X28.041Y33.342
X28.131Y33.14
X28.216Y32.936
X28.295Y32.73
X28.37Y32.522
X28.44Y32.312
X28.475Y32.198
X28.68Y31.519
X28.739Y31.307
X28.749Y31.271
X28.023Y31.082
X28.064Y30.919
X28.108Y30.722
X28.148Y30.523
X28.183Y30.324
X28.213Y30.123
X28.238Y29.922
X28.249Y29.813
X28.317Y29.116
X28.332Y28.914
X28.343Y28.712
X28.348Y28.51
X28.348Y28.307
X28.343Y28.105
X28.333Y27.903
X28.319Y27.701
X28.309Y27.591
X28.24Y26.895
X28.215Y26.694
X28.186Y26.493
X28.151Y26.294
X28.112Y26.095
X28.068Y25.898
X28.019Y25.701
X27.965Y25.506
X27.934Y25.4
X27.73Y24.731
X27.667Y24.538
X27.599Y24.348
X27.526Y24.159
X27.449Y23.972
X27.367Y23.786
X27.281Y23.603
X27.19Y23.422
X27.138Y23.325
X26.808Y22.708
X26.709Y22.532
X26.605Y22.358
X26.496Y22.187
X26.384Y22.018
X26.268Y21.852
X26.147Y21.69
X26.023Y21.53
X25.954Y21.444
X25.509Y20.904
X25.377Y20.75
X25.241Y20.6
X25.102Y20.453
X24.959Y20.31
X24.812Y20.17
X24.663Y20.034
X24.509Y19.901
X24.425Y19.831
X23.883Y19.387
X23.724Y19.263
X23.561Y19.142
X23.396Y19.025
X23.228Y18.912
X23.057Y18.804
X22.883Y18.7
X22.707Y18.6
X22.61Y18.547
X21.993Y18.218
X21.812Y18.126
X21.629Y18.04
X21.444Y17.957
X21.257Y17.88
X21.068Y17.807
X20.878Y17.738
X20.686Y17.674
X20.58Y17.642
X19.911Y17.439
X19.716Y17.385
X19.519Y17.335
X19.322Y17.291
X19.123Y17.251
X18.924Y17.216
X18.723Y17.186
X18.522Y17.161
X18.413Y17.15
X17.716Y17.082
X17.515Y17.067
X17.312Y17.056
X17.11Y17.051
X16.907Y17.051
X16.705Y17.056
X16.503Y17.066
X16.301Y17.08
X16.191Y17.09
X15.495Y17.159
X15.294Y17.184
X15.093Y17.213
X14.894Y17.248
X14.695Y17.287
X14.498Y17.331
X14.301Y17.38
X14.106Y17.434
X14Y17.465
X13.331Y17.669
X13.138Y17.732
X12.948Y17.8
X12.759Y17.873
X12.572Y17.95
X12.386Y18.032
X12.203Y18.118
X12.022Y18.209
X11.925Y18.261
X11.308Y18.591
X11.131Y18.69
X10.958Y18.794
X10.787Y18.903
X10.618Y19.015
X10.452Y19.131
X10.29Y19.252
X10.13Y19.376
X10.044Y19.445
X9.504Y19.89
X9.35Y20.022
X9.2Y20.158
X9.053Y20.297
X8.91Y20.44
X8.77Y20.587
X8.634Y20.736
X8.501Y20.89
X8.431Y20.974
X8.249Y21.197
Y9.751
X52.746Y9.813
X52.838Y10.017
X52.927Y10.199
X53.02Y10.379
X53.117Y10.556
X53.219Y10.731
X53.325Y10.904
X53.435Y11.073
X53.55Y11.24
X53.668Y11.405
X53.79Y11.566
X53.917Y11.724
X54.047Y11.879
X54.181Y12.031
X54.318Y12.18
X54.459Y12.325
X54.604Y12.466
X54.75Y12.602
X54.75Y47.05
X8.249Y47.05
X8.25Y35.604
X8.49Y35.895
X8.622Y36.049
X8.758Y36.199
X8.897Y36.346
X9.04Y36.489
X9.187Y36.629
X9.336Y36.765
X9.49Y36.898
X9.574Y36.968
X10.116Y37.412
X10.275Y37.536
X10.438Y37.657
X10.603Y37.774
X10.771Y37.887
X10.942Y37.995
X11.116Y38.099
X11.292Y38.199
X11.389Y38.252
X12.006Y38.581
X12.187Y38.673
X12.37Y38.759
X12.555Y38.842
X12.742Y38.919
X12.931Y38.992
X13.121Y39.061
X13.313Y39.125
X13.419Y39.157
X14.088Y39.36
X14.283Y39.414
X14.48Y39.464
X14.677Y39.508
X14.876Y39.548
X15.075Y39.583
X15.276Y39.613
X15.477Y39.638
X15.586Y39.649
X16.283Y39.717
X16.485Y39.732
X16.687Y39.743
X16.889Y39.748
X17.092Y39.748
X17.294Y39.743
X17.496Y39.733
X17.698Y39.719
X17.808Y39.709
X18.504Y39.64
X18.705Y39.615
X18.906Y39.586
X19.105Y39.551
X19.304Y39.512
X19.501Y39.468
X19.698Y39.419
X19.893Y39.365
X19.999Y39.334
X20.668Y39.13
X20.861Y39.067
X21.051Y38.999
X21.24Y38.926
X21.427Y38.849
X21.613Y38.767
X21.796Y38.681
X21.977Y38.59
X22.074Y38.538
X22.691Y38.208
X22.868Y38.109
X23.041Y38.005
X23.212Y37.896
X23.381Y37.784
X23.547Y37.668
X23.709Y37.547
X23.869Y37.423
X23.955Y37.354
X24.495Y36.909
X24.649Y36.777
X24.799Y36.641
X24.946Y36.502
X25.089Y36.359
X25.229Y36.212
X25.365Y36.063
X25.498Y35.909
X25.568Y35.825
X26.012Y35.283
X26.136Y35.124
X26.257Y34.961
X26.374Y34.796
X26.487Y34.628
X26.595Y34.457
X26.699Y34.283
X26.799Y34.107
X26.852Y34.01
X27.181Y33.393
X27.273Y33.212
X27.359Y33.029
X27.442Y32.844
X27.519Y32.657
X27.592Y32.468
X27.661Y32.278
X27.725Y32.086
X27.757Y31.98
X27.96Y31.311
X28.014Y31.116
X28.023Y31.082
X27.297Y30.893
X27.334Y30.746
X27.374Y30.566
X27.411Y30.386
X27.442Y30.205
X27.469Y30.022
X27.492Y29.84
X27.503Y29.739
X27.57Y29.052
X27.584Y28.869
X27.593Y28.685
X27.598Y28.501
X27.598Y28.317
X27.594Y28.133
X27.585Y27.949
X27.572Y27.765
X27.562Y27.664
X27.494Y26.977
X27.472Y26.795
X27.445Y26.613
X27.414Y26.431
X27.378Y26.251
X27.338Y26.071
X27.294Y25.892
X27.245Y25.715
X27.216Y25.618
X27.015Y24.957
X26.958Y24.782
X26.896Y24.609
X26.83Y24.437
X26.76Y24.267
X26.685Y24.099
X26.607Y23.932
X26.524Y23.768
X26.477Y23.678
X26.151Y23.069
X26.061Y22.909
X25.966Y22.751
X25.868Y22.596
X25.766Y22.442
X25.66Y22.292
X25.55Y22.144
X25.437Y21.998
X25.374Y21.92
X24.935Y21.386
X24.815Y21.247
X24.692Y21.11
X24.565Y20.977
X24.435Y20.847
X24.302Y20.72
X24.166Y20.596
X24.026Y20.475
X23.949Y20.411
X23.415Y19.973
X23.27Y19.86
X23.122Y19.75
X22.972Y19.644
X22.819Y19.541
X22.663Y19.442
X22.506Y19.348
X22.346Y19.257
X22.257Y19.208
X21.648Y18.883
X21.483Y18.8
X21.317Y18.722
X21.149Y18.647
X20.979Y18.576
X20.807Y18.51
X20.634Y18.447
X20.459Y18.389
X20.363Y18.359
X19.702Y18.159
X19.524Y18.11
X19.346Y18.065
X19.166Y18.025
X18.986Y17.988
X18.805Y17.957
X18.623Y17.93
X18.44Y17.907
X18.339Y17.896
X17.652Y17.829
X17.469Y17.815
X17.285Y17.806
X17.101Y17.801
X16.917Y17.801
X16.733Y17.805
X16.549Y17.814
X16.365Y17.827
X16.264Y17.837
X15.577Y17.905
X15.395Y17.927
X15.213Y17.954
X15.031Y17.985
X14.851Y18.021
X14.671Y18.061
X14.492Y18.105
X14.315Y18.154
X14.218Y18.183
X13.557Y18.384
X13.382Y18.441
X13.209Y18.503
X13.037Y18.569
X12.867Y18.639
X12.699Y18.714
X12.532Y18.792
X12.368Y18.875
X12.278Y18.922
X11.669Y19.248
X11.509Y19.338
X11.351Y19.433
X11.196Y19.531
X11.042Y19.633
X10.892Y19.739
X10.744Y19.849
X10.598Y19.962
X10.52Y20.025
X9.986Y20.464
X9.847Y20.584
X9.71Y20.707
X9.577Y20.834
X9.447Y20.964
X9.32Y21.097
X9.196Y21.233
X9.075Y21.373
X9.011Y21.45
X8.573Y21.984
X8.46Y22.129
X8.35Y22.277
X8.244Y22.427
X8.141Y22.58
X8.042Y22.736
X7.948Y22.893
X7.857Y23.053
X7.808Y23.142
X7.499Y23.722
Y9
X53.244Y9.039
X53.3Y9.189
X53.368Y9.36
X53.44Y9.529
X53.516Y9.696
X53.597Y9.862
X53.681Y10.025
X53.77Y10.186
X53.862Y10.346
X53.959Y10.502
X54.059Y10.657
X54.163Y10.809
X54.27Y10.958
X54.382Y11.105
X54.496Y11.248
X54.615Y11.389
X54.736Y11.527
X54.861Y11.662
X54.99Y11.794
X55.121Y11.923
X55.256Y12.048
X55.394Y12.171
X55.5Y12.261
X55.5Y47.8
X7.499Y47.8
Y33.077
X7.848Y33.73
X7.938Y33.89
X8.033Y34.048
X8.131Y34.203
X8.233Y34.357
X8.339Y34.507
X8.449Y34.655
X8.562Y34.801
X8.625Y34.879
X9.064Y35.413
X9.184Y35.552
X9.307Y35.689
X9.434Y35.822
X9.564Y35.952
X9.697Y36.079
X9.833Y36.203
X9.973Y36.324
X10.05Y36.388
X10.584Y36.826
X10.729Y36.939
X10.877Y37.049
X11.027Y37.155
X11.18Y37.258
X11.336Y37.357
X11.493Y37.451
X11.653Y37.542
X11.742Y37.591
X12.351Y37.916
X12.516Y37.999
X12.682Y38.078
X12.85Y38.152
X13.02Y38.223
X13.192Y38.289
X13.365Y38.352
X13.54Y38.41
X13.636Y38.44
X14.297Y38.64
X14.475Y38.689
X14.653Y38.734
X14.833Y38.774
X15.013Y38.811
X15.194Y38.842
X15.376Y38.869
X15.559Y38.892
X15.66Y38.903
X16.347Y38.97
X16.53Y38.984
X16.714Y38.993
X16.898Y38.998
X17.082Y38.998
X17.266Y38.994
X17.45Y38.985
X17.634Y38.972
X17.735Y38.962
X18.422Y38.894
X18.604Y38.872
X18.786Y38.845
X18.968Y38.814
X19.148Y38.778
X19.328Y38.738
X19.507Y38.694
X19.684Y38.645
X19.781Y38.616
X20.442Y38.415
X20.617Y38.358
X20.79Y38.296
X20.962Y38.23
X21.132Y38.16
X21.3Y38.085
X21.467Y38.007
X21.631Y37.924
X21.721Y37.877
X22.33Y37.551
X22.49Y37.461
X22.648Y37.366
X22.803Y37.268
X22.957Y37.166
X23.107Y37.06
X23.255Y36.95
X23.401Y36.837
X23.479Y36.774
X24.013Y36.335
X24.152Y36.215
X24.289Y36.092
X24.422Y35.965
X24.552Y35.835
X24.679Y35.702
X24.803Y35.566
X24.924Y35.426
X24.988Y35.349
X25.426Y34.815
X25.539Y34.67
X25.649Y34.522
X25.755Y34.372
X25.858Y34.219
X25.957Y34.063
X26.051Y33.906
X26.142Y33.746
X26.191Y33.657
X26.516Y33.048
X26.599Y32.883
X26.678Y32.717
X26.752Y32.549
X26.823Y32.379
X26.889Y32.207
X26.952Y32.034
X27.01Y31.859
X27.04Y31.763
X27.24Y31.102
X27.289Y30.924
X27.297Y30.893
X26.571Y30.704
X26.604Y30.573
X26.641Y30.411
X26.673Y30.249
X26.702Y30.085
X26.726Y29.922
X26.747Y29.757
X26.756Y29.666
X26.823Y28.988
X26.835Y28.823
X26.844Y28.657
X26.848Y28.492
X26.848Y28.326
X26.844Y28.16
X26.836Y27.995
X26.824Y27.829
X26.816Y27.738
X26.749Y27.06
X26.729Y26.896
X26.705Y26.732
X26.677Y26.568
X26.644Y26.406
X26.608Y26.244
X26.568Y26.083
X26.524Y25.924
X26.498Y25.835
X26.3Y25.184
X26.248Y25.026
X26.193Y24.87
X26.133Y24.716
X26.07Y24.563
X26.003Y24.411
X25.933Y24.261
X25.858Y24.113
X25.816Y24.032
X25.494Y23.431
X25.413Y23.287
X25.328Y23.145
X25.239Y23.005
X25.147Y22.867
X25.052Y22.731
X24.954Y22.598
X24.852Y22.467
X24.794Y22.396
X24.362Y21.869
X24.254Y21.744
X24.142Y21.621
X24.028Y21.501
X23.911Y21.383
X23.792Y21.269
X23.669Y21.158
X23.544Y21.049
X23.473Y20.99
X22.946Y20.559
X22.816Y20.456
X22.683Y20.358
X22.547Y20.262
X22.41Y20.17
X22.27Y20.081
X22.128Y19.996
X21.984Y19.914
X21.903Y19.87
X21.302Y19.549
X21.154Y19.474
X21.005Y19.403
X20.853Y19.336
X20.7Y19.272
X20.546Y19.213
X20.39Y19.157
X20.233Y19.104
X20.145Y19.077
X19.493Y18.88
X19.333Y18.835
X19.173Y18.795
X19.011Y18.758
X18.849Y18.726
X18.685Y18.697
X18.522Y18.673
X18.357Y18.652
X18.266Y18.643
X17.588Y18.576
X17.423Y18.564
X17.257Y18.555
X17.092Y18.551
X16.926Y18.551
X16.76Y18.555
X16.595Y18.563
X16.429Y18.575
X16.338Y18.583
X15.66Y18.65
X15.496Y18.67
X15.332Y18.694
X15.168Y18.722
X15.006Y18.755
X14.844Y18.791
X14.683Y18.831
X14.524Y18.875
X14.435Y18.901
X13.784Y19.099
X13.626Y19.151
X13.47Y19.206
X13.316Y19.266
X13.163Y19.329
X13.011Y19.396
X12.861Y19.466
X12.713Y19.541
X12.632Y19.583
X12.031Y19.905
X11.887Y19.986
X11.745Y20.071
X11.605Y20.16
X11.467Y20.252
X11.331Y20.347
X11.198Y20.445
X11.067Y20.547
X10.996Y20.605
X10.469Y21.037
X10.344Y21.145
X10.221Y21.257
X10.101Y21.371
X9.983Y21.488
X9.869Y21.607
X9.758Y21.73
X9.649Y21.855
X9.59Y21.926
X9.159Y22.453
X9.056Y22.583
X8.958Y22.716
X8.862Y22.852
X8.77Y22.989
X8.681Y23.129
X8.596Y23.271
X8.514Y23.415
X8.47Y23.496
X8.149Y24.097
X8.074Y24.245
X8.003Y24.394
X7.936Y24.546
X7.872Y24.699
X7.813Y24.853
X7.757Y25.009
X7.704Y25.166
X7.677Y25.254
X7.48Y25.906
X7.435Y26.066
X7.395Y26.226
X7.358Y26.388
X7.326Y26.55
X7.297Y26.714
X7.273Y26.877
X7.252Y27.042
X7.243Y27.133
X7.176Y27.811
X7.164Y27.976
X7.155Y28.142
X7.151Y28.307
X7.151Y28.473
X7.155Y28.639
X7.163Y28.804
X7.175Y28.97
X7.183Y29.061
X7.25Y29.739
X7.27Y29.903
X7.294Y30.067
X7.322Y30.231
X7.355Y30.393
X7.391Y30.555
X7.431Y30.716
X7.475Y30.875
X7.501Y30.964
X7.699Y31.615
X7.751Y31.773
X7.806Y31.929
X7.866Y32.083
X7.929Y32.236
X7.996Y32.388
X8.066Y32.538
X8.141Y32.686
X8.183Y32.767
X8.505Y33.368
X8.586Y33.512
X8.671Y33.654
X8.76Y33.794
X8.852Y33.932
X8.947Y34.068
X9.045Y34.201
X9.147Y34.332
X9.205Y34.403
X9.637Y34.93
X9.745Y35.055
X9.857Y35.178
X9.971Y35.298
X10.088Y35.416
X10.207Y35.53
X10.33Y35.641
X10.455Y35.75
X10.526Y35.809
X11.053Y36.24
X11.183Y36.343
X11.316Y36.441
X11.452Y36.537
X11.589Y36.629
X11.729Y36.718
X11.871Y36.803
X12.015Y36.885
X12.096Y36.929
X12.697Y37.25
X12.845Y37.325
X12.994Y37.396
X13.146Y37.463
X13.299Y37.527
X13.453Y37.586
X13.609Y37.642
X13.766Y37.695
X13.854Y37.722
X14.506Y37.919
X14.666Y37.964
X14.826Y38.004
X14.988Y38.041
X15.15Y38.073
X15.314Y38.102
X15.477Y38.126
X15.642Y38.147
X15.733Y38.156
X16.411Y38.223
X16.576Y38.235
X16.742Y38.244
X16.907Y38.248
X17.073Y38.248
X17.239Y38.244
X17.404Y38.236
X17.57Y38.224
X17.661Y38.216
X18.339Y38.149
X18.503Y38.129
X18.667Y38.105
X18.831Y38.077
X18.993Y38.044
X19.155Y38.008
X19.316Y37.968
X19.475Y37.924
X19.564Y37.898
X20.215Y37.7
X20.373Y37.648
X20.529Y37.593
X20.683Y37.533
X20.836Y37.47
X20.988Y37.403
X21.138Y37.333
X21.286Y37.258
X21.367Y37.216
X21.968Y36.894
X22.112Y36.813
X22.254Y36.728
X22.394Y36.639
X22.532Y36.547
X22.668Y36.452
X22.801Y36.354
X22.932Y36.252
X23.003Y36.194
X23.53Y35.762
X23.655Y35.654
X23.778Y35.542
X23.898Y35.428
X24.016Y35.311
X24.13Y35.192
X24.241Y35.069
X24.35Y34.944
X24.409Y34.873
X24.84Y34.346
X24.943Y34.216
X25.041Y34.083
X25.137Y33.947
X25.229Y33.81
X25.318Y33.67
X25.403Y33.528
X25.485Y33.384
X25.529Y33.303
X25.85Y32.702
X25.925Y32.554
X25.996Y32.405
X26.063Y32.253
X26.127Y32.1
X26.186Y31.946
X26.242Y31.79
X26.295Y31.633
X26.322Y31.545
X26.519Y30.893
X26.564Y30.733
X26.571Y30.704
G0Z2
X6.749Y48.55
G1Z-4.5F100
Y8.249F200
X53.786Y8.265
X53.838Y8.449
X53.888Y8.607
X53.942Y8.763
X53.999Y8.919
X54.061Y9.073
X54.126Y9.225
X54.194Y9.376
X54.267Y9.524
X54.343Y9.672
X54.423Y9.817
X54.506Y9.96
X54.592Y10.101
X54.683Y10.24
X54.776Y10.377
X54.873Y10.511
X54.973Y10.643
X55.076Y10.773
X55.183Y10.9
X55.292Y11.024
X55.405Y11.145
X55.52Y11.264
X55.639Y11.38
X55.76Y11.493
X55.884Y11.603
X56.01Y11.71
X56.139Y11.813
X56.25Y11.898
X56.25Y48.55
X6.749Y48.55
X5.999Y49.3
Y7.499
X54.385Y7.499
X54.414Y7.66
X54.444Y7.804
X54.478Y7.947
X54.515Y8.09
X54.556Y8.231
X54.6Y8.371
X54.648Y8.511
X54.699Y8.649
X54.754Y8.786
X54.811Y8.921
X54.872Y9.055
X54.937Y9.187
X55.004Y9.318
X55.075Y9.447
X55.149Y9.575
X55.226Y9.7
X55.306Y9.824
X55.389Y9.945
X55.475Y10.065
X55.564Y10.182
X55.656Y10.297
X55.751Y10.41
X55.848Y10.52
X55.948Y10.628
X56.051Y10.734
X56.156Y10.837
X56.263Y10.937
X56.374Y11.035
X56.486Y11.13
X56.601Y11.222
X56.718Y11.311
X56.837Y11.398
X56.958Y11.481
X57Y11.509
X57Y49.3
X5.999Y49.3
X5.249Y50.05
Y6.749
X55.057Y6.749
X55.064Y6.875
X55.075Y7.004
X55.089Y7.132
X55.106Y7.26
X55.126Y7.387
X55.15Y7.513
X55.176Y7.64
X55.206Y7.765
X55.238Y7.89
X55.274Y8.013
X55.313Y8.136
X55.354Y8.258
X55.399Y8.379
X55.446Y8.499
X55.497Y8.617
X55.55Y8.734
X55.607Y8.85
X55.666Y8.965
X55.728Y9.078
X55.792Y9.189
X55.86Y9.299
X55.93Y9.407
X56.002Y9.513
X56.078Y9.618
X56.156Y9.721
X56.236Y9.821
X56.319Y9.92
X56.404Y10.017
X56.491Y10.111
X56.581Y10.204
X56.673Y10.294
X56.767Y10.382
X56.864Y10.467
X56.962Y10.55
X57.062Y10.631
X57.165Y10.709
X57.269Y10.785
X57.375Y10.858
X57.483Y10.928
X57.593Y10.996
X57.704Y11.061
X57.75Y11.088
X57.75Y50.05
X5.249Y50.05
X4.499Y50.8
Y5.999
X55.801Y5.999
X55.801Y6.545
X55.803Y6.655
X55.808Y6.765
X55.816Y6.875
X55.827Y6.985
X55.84Y7.095
X55.856Y7.204
X55.875Y7.313
X55.896Y7.421
X55.92Y7.529
X55.947Y7.636
X55.976Y7.743
X56.008Y7.848
X56.042Y7.953
X56.079Y8.057
X56.119Y8.16
X56.161Y8.263
X56.205Y8.364
X56.252Y8.464
X56.302Y8.562
X56.354Y8.66
X56.408Y8.756
X56.464Y8.851
X56.523Y8.944
X56.584Y9.036
X56.648Y9.127
X56.713Y9.215
X56.781Y9.303
X56.851Y9.388
X56.923Y9.472
X56.997Y9.554
X57.073Y9.634
X57.151Y9.712
X57.23Y9.789
X57.312Y9.863
X57.396Y9.935
X57.481Y10.005
X57.568Y10.074
X57.656Y10.14
X57.746Y10.203
X57.838Y10.265
X57.931Y10.324
X58.026Y10.381
X58.122Y10.436
X58.219Y10.488
X58.317Y10.538
X58.417Y10.585
X58.5Y10.623
X58.5Y50.8
X4.499Y50.8
X3.749Y51.55
Y5.249
X56.55Y5.249
X56.551Y6.535
X56.553Y6.627
X56.557Y6.719
X56.564Y6.811
X56.572Y6.903
X56.583Y6.994
X56.597Y7.085
X56.612Y7.176
X56.63Y7.266
X56.65Y7.356
X56.672Y7.445
X56.696Y7.534
X56.723Y7.622
X56.751Y7.709
X56.782Y7.796
X56.815Y7.882
X56.85Y7.967
X56.887Y8.051
X56.926Y8.135
X56.967Y8.217
X57.011Y8.298
X57.056Y8.378
X57.103Y8.457
X57.152Y8.535
X57.203Y8.612
X57.256Y8.687
X57.31Y8.761
X57.367Y8.834
X57.425Y8.905
X57.485Y8.975
X57.546Y9.043
X57.61Y9.11
X57.675Y9.176
X57.741Y9.239
X57.809Y9.301
X57.879Y9.361
X57.95Y9.42
X58.022Y9.477
X58.096Y9.532
X58.171Y9.585
X58.247Y9.636
X58.325Y9.686
X58.404Y9.733
X58.483Y9.779
X58.564Y9.822
X58.647Y9.864
X58.73Y9.904
X58.814Y9.941
X58.899Y9.977
X58.984Y10.01
X59.071Y10.041
X59.158Y10.07
X59.25Y10.098
X59.25Y51.55
X3.749Y51.55
X2.999Y52.3
X2.999Y4.499
X57.301Y4.499
X57.301Y6.526
X57.302Y6.6
X57.306Y6.673
X57.311Y6.747
X57.318Y6.82
X57.327Y6.893
X57.337Y6.966
X57.35Y7.038
X57.364Y7.111
X57.38Y7.183
X57.397Y7.254
X57.417Y7.325
X57.438Y7.396
X57.461Y7.465
X57.485Y7.535
X57.512Y7.604
X57.539Y7.672
X57.569Y7.739
X57.6Y7.806
X57.633Y7.872
X57.668Y7.937
X57.704Y8.001
X57.741Y8.064
X57.781Y8.126
X57.821Y8.188
X57.864Y8.248
X57.907Y8.307
X57.952Y8.365
X57.999Y8.423
X58.047Y8.478
X58.096Y8.533
X58.147Y8.587
X58.198Y8.639
X58.252Y8.69
X58.306Y8.739
X58.362Y8.788
X58.418Y8.835
X58.476Y8.88
X58.535Y8.924
X58.595Y8.967
X58.656Y9.008
X58.718Y9.047
X58.781Y9.085
X58.845Y9.122
X58.91Y9.157
X58.976Y9.19
X59.042Y9.222
X59.109Y9.252
X59.177Y9.28
X59.246Y9.307
X59.315Y9.332
X59.385Y9.355
X59.455Y9.377
X59.526Y9.397
X59.597Y9.415
X59.669Y9.431
X59.741Y9.446
X59.814Y9.459
X59.887Y9.47
X59.96Y9.479
X60Y9.483
X60Y52.3
X2.999Y52.3
X2.249Y53.05
Y5
X2.249Y3.749
X58.051Y3.749
X58.051Y6.517
X58.052Y6.572
X58.054Y6.627
X58.058Y6.682
X58.063Y6.737
X58.07Y6.792
X58.078Y6.847
X58.087Y6.901
X58.097Y6.955
X58.109Y7.009
X58.122Y7.063
X58.137Y7.116
X58.153Y7.169
X58.17Y7.222
X58.188Y7.274
X58.208Y7.325
X58.229Y7.376
X58.251Y7.427
X58.274Y7.477
X58.299Y7.526
X58.325Y7.575
X58.352Y7.623
X58.38Y7.671
X58.409Y7.717
X58.44Y7.764
X58.471Y7.809
X58.504Y7.853
X58.538Y7.897
X58.573Y7.94
X58.609Y7.982
X58.646Y8.023
X58.683Y8.063
X58.722Y8.102
X58.762Y8.14
X58.803Y8.178
X58.845Y8.214
X58.887Y8.249
X58.93Y8.283
X58.975Y8.316
X59.02Y8.348
X59.065Y8.379
X59.112Y8.409
X59.159Y8.437
X59.207Y8.465
X59.256Y8.491
X59.305Y8.516
X59.355Y8.54
X59.405Y8.563
X59.456Y8.584
X59.507Y8.604
X59.559Y8.623
X59.612Y8.64
X59.664Y8.657
X59.717Y8.672
X59.771Y8.685
X59.825Y8.698
X59.879Y8.709
X59.933Y8.718
X59.988Y8.727
X60.043Y8.734
X60.098Y8.739
X60.153Y8.744
X60.208Y8.747
X60.263Y8.748
X60.3Y8.749
X60.75Y8.749
X60.75Y53.05
X2.249Y53.05
X1.499Y53.8
Y5
X1.499Y2.999
X58.8Y2.999
X58.801Y6.508
X58.801Y6.545
X58.803Y6.581
X58.805Y6.618
X58.809Y6.655
X58.813Y6.691
X58.818Y6.728
X58.824Y6.764
X58.831Y6.8
X58.839Y6.836
X58.848Y6.872
X58.857Y6.907
X58.868Y6.943
X58.879Y6.978
X58.891Y7.012
X58.904Y7.047
X58.918Y7.081
X58.933Y7.115
X58.948Y7.148
X58.965Y7.181
X58.982Y7.214
X59Y7.246
X59.019Y7.277
X59.038Y7.309
X59.058Y7.339
X59.079Y7.37
X59.101Y7.399
X59.124Y7.428
X59.147Y7.457
X59.171Y7.485
X59.195Y7.512
X59.22Y7.539
X59.246Y7.565
X59.273Y7.591
X59.3Y7.616
X59.328Y7.64
X59.356Y7.664
X59.385Y7.686
X59.414Y7.709
X59.444Y7.73
X59.475Y7.751
X59.506Y7.77
X59.537Y7.79
X59.569Y7.808
X59.601Y7.825
X59.634Y7.842
X59.667Y7.858
X59.701Y7.873
X59.735Y7.888
X59.769Y7.901
X59.803Y7.914
X59.838Y7.925
X59.873Y7.936
X59.909Y7.946
X59.945Y7.956
X59.98Y7.964
X60.016Y7.971
X60.053Y7.978
X60.089Y7.983
X60.126Y7.988
X60.162Y7.992
X60.199Y7.995
X60.236Y7.997
X60.272Y7.998
X60.3Y7.999
X61.5Y7.999
X61.5Y53.801
X1.499Y53.8
X0.749Y54.55
Y5
X0.749Y2.249
X59.551Y2.249
Y6.499
X59.551Y6.517
X59.551Y6.535
X59.553Y6.554
X59.554Y6.572
X59.556Y6.59
X59.559Y6.609
X59.562Y6.627
X59.565Y6.645
X59.569Y6.663
X59.573Y6.681
X59.578Y6.698
X59.583Y6.716
X59.588Y6.734
X59.594Y6.751
X59.601Y6.768
X59.608Y6.785
X59.615Y6.802
X59.622Y6.819
X59.631Y6.836
X59.639Y6.852
X59.648Y6.868
X59.657Y6.884
X59.667Y6.9
X59.677Y6.915
X59.687Y6.93
X59.698Y6.945
X59.709Y6.96
X59.721Y6.974
X59.733Y6.988
X59.745Y7.002
X59.757Y7.016
X59.77Y7.029
X59.783Y7.042
X59.797Y7.054
X59.811Y7.066
X59.825Y7.078
X59.839Y7.09
X59.854Y7.101
X59.869Y7.112
X59.884Y7.122
X59.899Y7.132
X59.915Y7.142
X59.931Y7.151
X59.947Y7.16
X59.963Y7.168
X59.98Y7.176
X59.996Y7.184
X60.013Y7.191
X60.03Y7.198
X60.048Y7.205
X60.065Y7.211
X60.083Y7.216
X60.1Y7.221
X60.118Y7.226
X60.136Y7.23
X60.154Y7.234
X60.172Y7.237
X60.19Y7.24
X60.208Y7.243
X60.227Y7.245
X60.245Y7.246
X60.263Y7.248
X60.282Y7.248
X60.3Y7.249
X62.25Y7.249
X62.25Y54.551
X0.749Y54.55
G0Z2
X12.122Y36.079
G1Z-4.5F100
X12.249Y36.155F200
X12.377Y36.228
X12.449Y36.268
X13.042Y36.584
X13.174Y36.651
X13.307Y36.714
X13.441Y36.774
X13.577Y36.83
X13.714Y36.883
X13.853Y36.933
X13.993Y36.98
X14.072Y37.004
X14.715Y37.199
X14.857Y37.238
X15Y37.274
X15.143Y37.307
X15.288Y37.336
X15.433Y37.361
X15.578Y37.383
X15.724Y37.401
X15.807Y37.41
X16.476Y37.476
X16.622Y37.487
X16.769Y37.494
X16.917Y37.498
X17.064Y37.498
X17.211Y37.495
X17.358Y37.488
X17.505Y37.477
X17.588Y37.47
X18.256Y37.403
X18.402Y37.386
X18.548Y37.364
X18.693Y37.339
X18.838Y37.311
X18.981Y37.279
X19.124Y37.243
X19.266Y37.204
X19.346Y37.181
X19.989Y36.985
X20.129Y36.939
X20.267Y36.89
X20.405Y36.837
X20.541Y36.781
X20.676Y36.721
X20.809Y36.659
X20.94Y36.593
X21.014Y36.554
X21.606Y36.237
X21.734Y36.165
X21.861Y36.089
X21.985Y36.011
X22.108Y35.929
X22.229Y35.844
X22.347Y35.757
X22.463Y35.666
X22.528Y35.614
X23.047Y35.188
X23.158Y35.092
X23.268Y34.993
X23.374Y34.892
X23.479Y34.788
X23.58Y34.681
X23.68Y34.572
X23.776Y34.461
X23.829Y34.397
X24.255Y33.878
X24.346Y33.762
X24.434Y33.643
X24.519Y33.523
X24.601Y33.401
X24.679Y33.277
X24.755Y33.15
X24.828Y33.022
X24.868Y32.95
X25.184Y32.357
X25.251Y32.225
X25.314Y32.092
X25.374Y31.958
X25.43Y31.822
X25.483Y31.685
X25.533Y31.546
X25.58Y31.406
X25.604Y31.327
X25.799Y30.684
X25.838Y30.542
X25.874Y30.399
X25.907Y30.256
X25.936Y30.111
X25.961Y29.966
X25.983Y29.821
X26.001Y29.675
X26.01Y29.592
X26.076Y28.923
X26.087Y28.777
X26.094Y28.63
X26.098Y28.482
X26.098Y28.335
X26.095Y28.188
X26.088Y28.041
X26.077Y27.894
X26.07Y27.811
X26.003Y27.143
X25.986Y26.997
X25.964Y26.851
X25.939Y26.706
X25.911Y26.561
X25.879Y26.418
X25.843Y26.275
X25.804Y26.133
X25.781Y26.053
X25.585Y25.41
X25.539Y25.27
X25.49Y25.132
X25.437Y24.994
X25.381Y24.858
X25.321Y24.723
X25.259Y24.59
X25.193Y24.459
X25.154Y24.385
X24.837Y23.793
X24.765Y23.665
X24.689Y23.538
X24.611Y23.414
X24.529Y23.291
X24.444Y23.17
X24.357Y23.052
X24.266Y22.936
X24.214Y22.871
X23.788Y22.352
X23.692Y22.241
X23.593Y22.131
X23.492Y22.025
X23.388Y21.92
X23.281Y21.819
X23.172Y21.719
X23.061Y21.623
X22.997Y21.57
X22.478Y21.144
X22.362Y21.053
X22.243Y20.965
X22.123Y20.88
X22.001Y20.798
X21.877Y20.72
X21.75Y20.644
X21.622Y20.571
X21.55Y20.531
X20.957Y20.215
X20.825Y20.148
X20.692Y20.085
X20.558Y20.025
X20.422Y19.969
X20.285Y19.916
X20.146Y19.866
X20.006Y19.819
X19.927Y19.795
X19.284Y19.6
X19.142Y19.561
X18.999Y19.525
X18.856Y19.492
X18.711Y19.463
X18.566Y19.438
X18.421Y19.416
X18.275Y19.398
X18.192Y19.389
X17.523Y19.323
X17.377Y19.312
X17.23Y19.305
X17.082Y19.301
X16.935Y19.301
X16.788Y19.304
X16.641Y19.311
X16.494Y19.322
X16.411Y19.329
X15.743Y19.396
X15.597Y19.413
X15.451Y19.435
X15.306Y19.46
X15.161Y19.488
X15.018Y19.52
X14.875Y19.556
X14.733Y19.595
X14.653Y19.618
X14.01Y19.814
X13.87Y19.86
X13.732Y19.909
X13.594Y19.962
X13.458Y20.018
X13.323Y20.078
X13.19Y20.14
X13.059Y20.206
X12.985Y20.245
X12.393Y20.562
X12.265Y20.634
X12.138Y20.71
X12.014Y20.788
X11.891Y20.87
X11.77Y20.955
X11.652Y21.042
X11.536Y21.133
X11.471Y21.185
X10.952Y21.611
X10.841Y21.707
X10.731Y21.806
X10.625Y21.907
X10.52Y22.011
X10.419Y22.118
X10.319Y22.227
X10.223Y22.338
X10.17Y22.402
X9.744Y22.921
X9.653Y23.037
X9.565Y23.156
X9.48Y23.276
X9.398Y23.398
X9.32Y23.522
X9.244Y23.649
X9.171Y23.777
X9.131Y23.849
X8.815Y24.442
X8.748Y24.574
X8.685Y24.707
X8.625Y24.841
X8.569Y24.977
X8.516Y25.114
X8.466Y25.253
X8.419Y25.393
X8.395Y25.472
X8.2Y26.115
X8.161Y26.257
X8.125Y26.4
X8.092Y26.543
X8.063Y26.688
X8.038Y26.833
X8.016Y26.978
X7.998Y27.124
X7.989Y27.207
X7.923Y27.876
X7.912Y28.022
X7.905Y28.169
X7.901Y28.317
X7.901Y28.464
X7.904Y28.611
X7.911Y28.758
X7.922Y28.905
X7.929Y28.988
X7.996Y29.656
X8.013Y29.802
X8.035Y29.948
X8.06Y30.093
X8.088Y30.238
X8.12Y30.381
X8.156Y30.524
X8.195Y30.666
X8.218Y30.746
X8.414Y31.389
X8.46Y31.529
X8.509Y31.667
X8.562Y31.805
X8.618Y31.941
X8.678Y32.076
X8.74Y32.209
X8.806Y32.34
X8.845Y32.414
X9.162Y33.006
X9.234Y33.134
X9.31Y33.261
X9.388Y33.385
X9.47Y33.508
X9.555Y33.629
X9.642Y33.747
X9.733Y33.863
X9.785Y33.928
X10.211Y34.447
X10.307Y34.558
X10.406Y34.668
X10.507Y34.774
X10.611Y34.879
X10.718Y34.98
X10.827Y35.08
X10.938Y35.176
X11.002Y35.229
X11.521Y35.655
X11.637Y35.746
X11.756Y35.834
X11.876Y35.919
X11.998Y36.001
X12.122Y36.079
X12.516Y35.441
X12.626Y35.507
X12.738Y35.571
X12.803Y35.606
X13.388Y35.918
X13.503Y35.977
X13.619Y36.032
X13.737Y36.084
X13.856Y36.134
X13.976Y36.18
X14.097Y36.224
X14.219Y36.265
X14.29Y36.287
X14.924Y36.479
X15.048Y36.513
X15.173Y36.545
X15.299Y36.573
X15.425Y36.599
X15.552Y36.621
X15.679Y36.64
X15.807Y36.656
X15.88Y36.664
X16.54Y36.728
X16.668Y36.738
X16.797Y36.745
X16.926Y36.748
X17.055Y36.748
X17.184Y36.745
X17.312Y36.739
X17.441Y36.73
X17.514Y36.723
X18.174Y36.658
X18.302Y36.642
X18.429Y36.624
X18.556Y36.602
X18.682Y36.577
X18.808Y36.549
X18.933Y36.518
X19.057Y36.484
X19.128Y36.463
X19.762Y36.27
X19.885Y36.23
X20.006Y36.187
X20.126Y36.141
X20.245Y36.092
X20.363Y36.04
X20.48Y35.985
X20.595Y35.927
X20.66Y35.893
X21.245Y35.58
X21.357Y35.517
X21.467Y35.451
X21.576Y35.382
X21.684Y35.31
X21.789Y35.236
X21.893Y35.16
X21.995Y35.081
X22.052Y35.035
X22.564Y34.614
X22.662Y34.53
X22.757Y34.443
X22.851Y34.355
X22.942Y34.264
X23.031Y34.171
X23.118Y34.075
X23.202Y33.978
X23.249Y33.921
X23.669Y33.409
X23.749Y33.307
X23.826Y33.204
X23.9Y33.099
X23.972Y32.992
X24.041Y32.883
X24.107Y32.773
X24.171Y32.661
X24.206Y32.596
X24.518Y32.011
X24.577Y31.896
X24.632Y31.78
X24.684Y31.662
X24.734Y31.543
X24.78Y31.423
X24.824Y31.302
X24.865Y31.18
X24.887Y31.109
X25.079Y30.475
X25.113Y30.351
X25.145Y30.226
X25.173Y30.1
X25.199Y29.974
X25.221Y29.847
X25.24Y29.72
X25.256Y29.592
X25.264Y29.519
X25.328Y28.859
X25.338Y28.731
X25.345Y28.602
X25.348Y28.473
X25.348Y28.344
X25.345Y28.215
X25.339Y28.087
X25.33Y27.958
X25.323Y27.885
X25.258Y27.225
X25.242Y27.097
X25.224Y26.97
X25.202Y26.843
X25.177Y26.717
X25.149Y26.591
X25.118Y26.466
X25.084Y26.342
X25.063Y26.271
X24.87Y25.637
X24.83Y25.514
X24.787Y25.393
X24.741Y25.273
X24.692Y25.154
X24.64Y25.036
X24.585Y24.919
X24.527Y24.804
X24.493Y24.739
X24.18Y24.154
X24.117Y24.042
X24.051Y23.932
X23.982Y23.823
X23.91Y23.715
X23.836Y23.61
X23.76Y23.506
X23.681Y23.404
X23.635Y23.347
X23.214Y22.835
X23.13Y22.737
X23.043Y22.642
X22.955Y22.548
X22.864Y22.457
X22.771Y22.368
X22.675Y22.281
X22.578Y22.197
X22.521Y22.15
X22.009Y21.73
X21.907Y21.65
X21.804Y21.573
X21.699Y21.499
X21.592Y21.427
X21.483Y21.358
X21.373Y21.292
X21.261Y21.228
X21.196Y21.193
X20.611Y20.881
X20.496Y20.822
X20.38Y20.767
X20.262Y20.715
X20.143Y20.665
X20.023Y20.619
X19.902Y20.575
X19.78Y20.534
X19.709Y20.512
X19.075Y20.32
X18.951Y20.286
X18.826Y20.254
X18.7Y20.226
X18.574Y20.2
X18.447Y20.178
X18.32Y20.159
X18.192Y20.143
X18.119Y20.135
X17.459Y20.071
X17.331Y20.061
X17.202Y20.054
X17.073Y20.051
X16.944Y20.051
X16.815Y20.054
X16.687Y20.06
X16.558Y20.069
X16.485Y20.076
X15.825Y20.141
X15.697Y20.157
X15.57Y20.175
X15.443Y20.197
X15.317Y20.222
X15.191Y20.25
X15.066Y20.281
X14.942Y20.315
X14.871Y20.336
X14.237Y20.529
X14.114Y20.569
X13.993Y20.612
X13.873Y20.658
X13.754Y20.707
X13.636Y20.759
X13.519Y20.814
X13.404Y20.872
X13.339Y20.906
X12.754Y21.219
X12.642Y21.282
X12.532Y21.348
X12.423Y21.417
X12.315Y21.489
X12.21Y21.563
X12.106Y21.639
X12.004Y21.718
X11.947Y21.764
X11.435Y22.185
X11.337Y22.269
X11.242Y22.356
X11.148Y22.444
X11.057Y22.535
X10.968Y22.628
X10.881Y22.724
X10.797Y22.821
X10.75Y22.878
X10.33Y23.39
X10.25Y23.492
X10.173Y23.595
X10.099Y23.7
X10.027Y23.807
X9.958Y23.916
X9.892Y24.026
X9.828Y24.138
X9.793Y24.203
X9.481Y24.788
X9.422Y24.903
X9.367Y25.019
X9.315Y25.137
X9.265Y25.256
X9.219Y25.376
X9.175Y25.497
X9.134Y25.619
X9.112Y25.69
X8.92Y26.324
X8.886Y26.448
X8.854Y26.573
X8.826Y26.699
X8.8Y26.825
X8.778Y26.952
X8.759Y27.079
X8.743Y27.207
X8.735Y27.28
X8.671Y27.94
X8.661Y28.068
X8.654Y28.197
X8.651Y28.326
X8.651Y28.455
X8.654Y28.584
X8.66Y28.712
X8.669Y28.841
X8.676Y28.914
X8.741Y29.574
X8.757Y29.702
X8.775Y29.829
X8.797Y29.956
X8.822Y30.082
X8.85Y30.208
X8.881Y30.333
X8.915Y30.457
X8.936Y30.528
X9.129Y31.162
X9.169Y31.285
X9.212Y31.406
X9.258Y31.526
X9.307Y31.645
X9.359Y31.763
X9.414Y31.88
X9.472Y31.995
X9.506Y32.06
X9.819Y32.645
X9.882Y32.757
X9.948Y32.867
X10.017Y32.976
X10.089Y33.084
X10.163Y33.189
X10.239Y33.293
X10.318Y33.395
X10.364Y33.452
X10.785Y33.964
X10.869Y34.062
X10.956Y34.157
X11.044Y34.251
X11.135Y34.342
X11.228Y34.431
X11.324Y34.518
X11.421Y34.602
X11.478Y34.649
X11.99Y35.069
X12.092Y35.149
X12.195Y35.226
X12.3Y35.3
X12.407Y35.372
X12.516Y35.441
X12.909Y34.802
X13.004Y34.859
X13.1Y34.914
X13.157Y34.945
X13.733Y35.253
X13.832Y35.303
X13.931Y35.35
X14.032Y35.395
X14.134Y35.437
X14.237Y35.477
X14.341Y35.515
X14.446Y35.55
X14.507Y35.569
X15.133Y35.758
X15.239Y35.788
X15.346Y35.815
X15.454Y35.839
X15.562Y35.861
X15.671Y35.88
X15.78Y35.897
X15.89Y35.91
X15.954Y35.917
X16.604Y35.981
X16.714Y35.989
X16.825Y35.995
X16.935Y35.998
X17.046Y35.998
X17.156Y35.996
X17.266Y35.991
X17.376Y35.983
X17.441Y35.977
X18.091Y35.912
X18.201Y35.899
X18.31Y35.883
X18.419Y35.865
X18.527Y35.843
X18.635Y35.819
X18.742Y35.793
X18.849Y35.763
X18.91Y35.745
X19.536Y35.555
X19.641Y35.521
X19.745Y35.484
X19.848Y35.444
X19.95Y35.402
X20.051Y35.358
X20.151Y35.311
X20.25Y35.261
X20.307Y35.231
X20.883Y34.923
X20.979Y34.869
X21.074Y34.812
X21.167Y34.753
X21.259Y34.692
X21.35Y34.629
X21.439Y34.563
X21.526Y34.495
X21.576Y34.455
X22.081Y34.04
X22.165Y33.968
X22.247Y33.894
X22.327Y33.818
X22.405Y33.74
X22.481Y33.66
X22.556Y33.579
X22.628Y33.495
X22.669Y33.446
X23.084Y32.94
X23.152Y32.853
X23.218Y32.765
X23.282Y32.675
X23.343Y32.583
X23.402Y32.49
X23.459Y32.395
X23.514Y32.299
X23.545Y32.242
X23.853Y31.666
X23.903Y31.567
X23.95Y31.468
X23.995Y31.367
X24.037Y31.265
X24.077Y31.162
X24.115Y31.058
X24.15Y30.953
X24.169Y30.892
X24.358Y30.266
X24.388Y30.16
X24.415Y30.053
X24.439Y29.945
X24.461Y29.837
X24.48Y29.728
X24.497Y29.619
X24.51Y29.509
X24.517Y29.445
X24.581Y28.795
X24.589Y28.685
X24.595Y28.574
X24.598Y28.464
X24.598Y28.353
X24.596Y28.243
X24.591Y28.133
X24.583Y28.023
X24.577Y27.958
X24.512Y27.308
X24.499Y27.198
X24.483Y27.089
X24.465Y26.98
X24.443Y26.872
X24.419Y26.764
X24.393Y26.657
X24.363Y26.55
X24.345Y26.489
X24.155Y25.863
X24.121Y25.758
X24.084Y25.654
X24.044Y25.551
X24.002Y25.449
X23.958Y25.348
X23.911Y25.248
X23.861Y25.149
X23.831Y25.092
X23.523Y24.516
X23.469Y24.42
X23.412Y24.325
X23.353Y24.232
X23.292Y24.14
X23.229Y24.049
X23.163Y23.96
X23.095Y23.873
X23.055Y23.823
X22.64Y23.318
X22.568Y23.234
X22.494Y23.152
X22.418Y23.072
X22.34Y22.994
X22.26Y22.918
X22.179Y22.843
X22.095Y22.771
X22.046Y22.73
X21.54Y22.315
X21.453Y22.247
X21.365Y22.181
X21.275Y22.117
X21.183Y22.056
X21.09Y21.997
X20.995Y21.94
X20.899Y21.885
X20.842Y21.854
X20.266Y21.546
X20.167Y21.496
X20.068Y21.449
X19.967Y21.404
X19.865Y21.362
X19.762Y21.322
X19.658Y21.284
X19.553Y21.249
X19.492Y21.23
X18.866Y21.041
X18.76Y21.011
X18.653Y20.984
X18.545Y20.96
X18.437Y20.938
X18.328Y20.919
X18.219Y20.902
X18.109Y20.889
X18.045Y20.882
X17.395Y20.818
X17.285Y20.81
X17.174Y20.804
X17.064Y20.801
X16.953Y20.801
X16.843Y20.803
X16.733Y20.808
X16.623Y20.816
X16.558Y20.822
X15.908Y20.887
X15.798Y20.9
X15.689Y20.916
X15.58Y20.934
X15.472Y20.956
X15.364Y20.98
X15.257Y21.006
X15.15Y21.036
X15.089Y21.054
X14.463Y21.244
X14.358Y21.278
X14.254Y21.315
X14.151Y21.355
X14.049Y21.397
X13.948Y21.441
X13.848Y21.488
X13.749Y21.538
X13.692Y21.568
X13.116Y21.876
X13.02Y21.93
X12.925Y21.987
X12.832Y22.046
X12.74Y22.107
X12.649Y22.17
X12.56Y22.236
X12.473Y22.304
X12.423Y22.344
X11.918Y22.759
X11.834Y22.831
X11.752Y22.905
X11.672Y22.981
X11.594Y23.059
X11.518Y23.139
X11.443Y23.22
X11.371Y23.304
X11.33Y23.353
X10.915Y23.859
X10.847Y23.946
X10.781Y24.034
X10.717Y24.124
X10.656Y24.216
X10.597Y24.309
X10.54Y24.404
X10.485Y24.5
X10.454Y24.557
X10.146Y25.133
X10.096Y25.232
X10.049Y25.331
X10.004Y25.432
X9.962Y25.534
X9.922Y25.637
X9.884Y25.741
X9.849Y25.846
X9.83Y25.907
X9.641Y26.533
X9.611Y26.639
X9.584Y26.746
X9.56Y26.854
X9.538Y26.962
X9.519Y27.071
X9.502Y27.18
X9.489Y27.29
X9.482Y27.354
X9.418Y28.004
X9.41Y28.114
X9.404Y28.225
X9.401Y28.335
X9.401Y28.446
X9.403Y28.556
X9.408Y28.666
X9.416Y28.776
X9.422Y28.841
X9.487Y29.491
X9.5Y29.601
X9.516Y29.71
X9.534Y29.819
X9.556Y29.927
X9.58Y30.035
X9.606Y30.142
X9.636Y30.249
X9.654Y30.31
X9.844Y30.936
X9.878Y31.041
X9.915Y31.145
X9.955Y31.248
X9.997Y31.35
X10.041Y31.451
X10.088Y31.551
X10.138Y31.65
X10.168Y31.707
X10.476Y32.283
X10.53Y32.379
X10.587Y32.474
X10.646Y32.567
X10.707Y32.659
X10.77Y32.75
X10.836Y32.839
X10.904Y32.926
X10.944Y32.976
X11.359Y33.481
X11.431Y33.565
X11.505Y33.647
X11.581Y33.727
X11.659Y33.805
X11.739Y33.881
X11.82Y33.956
X11.904Y34.028
X11.953Y34.069
X12.459Y34.484
X12.546Y34.552
X12.634Y34.618
X12.724Y34.682
X12.816Y34.743
X12.909Y34.802
X13.303Y34.164
X13.382Y34.211
X13.462Y34.257
X13.51Y34.283
X14.078Y34.587
X14.161Y34.629
X14.244Y34.668
X14.328Y34.706
X14.413Y34.741
X14.498Y34.774
X14.585Y34.806
X14.672Y34.835
X14.725Y34.851
X15.342Y35.038
X15.43Y35.063
X15.52Y35.085
X15.609Y35.106
X15.699Y35.124
X15.79Y35.14
X15.881Y35.154
X15.972Y35.165
X16.027Y35.171
X16.669Y35.234
X16.76Y35.241
X16.852Y35.246
X16.944Y35.248
X17.036Y35.248
X17.128Y35.246
X17.22Y35.242
X17.312Y35.235
X17.367Y35.23
X18.008Y35.167
X18.1Y35.156
X18.191Y35.143
X18.281Y35.127
X18.372Y35.109
X18.462Y35.09
X18.551Y35.067
X18.64Y35.043
X18.693Y35.027
X19.309Y34.84
X19.397Y34.812
X19.483Y34.781
X19.569Y34.748
X19.654Y34.713
X19.739Y34.676
X19.822Y34.637
X19.904Y34.595
X19.953Y34.57
X20.521Y34.266
X20.601Y34.221
X20.681Y34.174
X20.758Y34.125
X20.835Y34.074
X20.91Y34.021
X20.985Y33.966
X21.057Y33.91
X21.1Y33.875
X21.598Y33.466
X21.668Y33.406
X21.736Y33.344
X21.803Y33.281
X21.868Y33.216
X21.932Y33.15
X21.994Y33.082
X22.054Y33.012
X22.09Y32.97
X22.498Y32.472
X22.555Y32.399
X22.61Y32.325
X22.663Y32.25
X22.715Y32.174
X22.764Y32.096
X22.811Y32.017
X22.857Y31.937
X22.883Y31.889
X23.187Y31.321
X23.229Y31.238
X23.268Y31.155
X23.306Y31.071
X23.341Y30.986
X23.374Y30.901
X23.406Y30.814
X23.435Y30.727
X23.451Y30.674
X23.638Y30.057
X23.663Y29.969
X23.685Y29.88
X23.706Y29.79
X23.724Y29.7
X23.74Y29.609
X23.754Y29.518
X23.765Y29.427
X23.771Y29.372
X23.834Y28.73
X23.841Y28.639
X23.846Y28.547
X23.848Y28.455
X23.848Y28.363
X23.846Y28.271
X23.842Y28.179
X23.835Y28.087
X23.83Y28.032
X23.767Y27.391
X23.756Y27.299
X23.743Y27.208
X23.727Y27.118
X23.709Y27.027
X23.69Y26.937
X23.667Y26.848
X23.643Y26.759
X23.627Y26.706
X23.44Y26.09
X23.412Y26.002
X23.381Y25.916
X23.348Y25.83
X23.313Y25.745
X23.276Y25.66
X23.237Y25.577
X23.195Y25.495
X23.17Y25.446
X22.866Y24.878
X22.821Y24.798
X22.774Y24.718
X22.725Y24.641
X22.674Y24.564
X22.621Y24.489
X22.566Y24.414
X22.51Y24.342
X22.475Y24.299
X22.066Y23.801
X22.006Y23.731
X21.944Y23.663
X21.881Y23.596
X21.816Y23.531
X21.75Y23.467
X21.682Y23.405
X21.612Y23.345
X21.57Y23.309
X21.072Y22.901
X20.999Y22.844
X20.925Y22.789
X20.85Y22.736
X20.774Y22.685
X20.696Y22.635
X20.617Y22.588
X20.537Y22.542
X20.489Y22.516
X19.921Y22.212
X19.838Y22.17
X19.755Y22.131
X19.671Y22.093
X19.586Y22.058
X19.501Y22.025
X19.414Y21.993
X19.327Y21.964
X19.274Y21.948
X18.657Y21.761
X18.569Y21.736
X18.479Y21.714
X18.39Y21.693
X18.3Y21.675
X18.209Y21.659
X18.118Y21.645
X18.027Y21.634
X17.972Y21.628
X17.33Y21.565
X17.239Y21.558
X17.147Y21.553
X17.055Y21.551
X16.963Y21.551
X16.871Y21.553
X16.779Y21.557
X16.687Y21.564
X16.632Y21.569
X15.991Y21.632
X15.899Y21.643
X15.808Y21.656
X15.718Y21.672
X15.627Y21.69
X15.537Y21.709
X15.448Y21.732
X15.359Y21.756
X15.306Y21.772
X14.69Y21.959
X14.602Y21.987
X14.516Y22.018
X14.43Y22.051
X14.345Y22.086
X14.26Y22.123
X14.177Y22.162
X14.095Y22.204
X14.046Y22.229
X13.478Y22.533
X13.398Y22.578
X13.318Y22.625
X13.241Y22.674
X13.164Y22.725
X13.089Y22.778
X13.014Y22.833
X12.942Y22.889
X12.899Y22.924
X12.401Y23.333
X12.331Y23.393
X12.263Y23.455
X12.196Y23.518
X12.131Y23.583
X12.067Y23.649
X12.005Y23.717
X11.945Y23.787
X11.909Y23.829
X11.501Y24.327
X11.444Y24.4
X11.389Y24.474
X11.336Y24.549
X11.285Y24.625
X11.235Y24.703
X11.188Y24.782
X11.142Y24.862
X11.116Y24.91
X10.812Y25.478
X10.77Y25.561
X10.731Y25.644
X10.693Y25.728
X10.658Y25.813
X10.625Y25.898
X10.593Y25.985
X10.564Y26.072
X10.548Y26.125
X10.361Y26.742
X10.336Y26.83
X10.314Y26.92
X10.293Y27.009
X10.275Y27.099
X10.259Y27.19
X10.245Y27.281
X10.234Y27.372
X10.228Y27.427
X10.165Y28.069
X10.158Y28.16
X10.153Y28.252
X10.151Y28.344
X10.151Y28.436
X10.153Y28.528
X10.157Y28.62
X10.164Y28.712
X10.169Y28.767
X10.232Y29.408
X10.243Y29.5
X10.256Y29.591
X10.272Y29.681
X10.29Y29.772
X10.309Y29.862
X10.332Y29.951
X10.356Y30.04
X10.372Y30.093
X10.559Y30.709
X10.587Y30.797
X10.618Y30.883
X10.651Y30.969
X10.686Y31.054
X10.723Y31.139
X10.762Y31.222
X10.804Y31.304
X10.829Y31.353
X11.133Y31.921
X11.178Y32.001
X11.225Y32.081
X11.274Y32.158
X11.325Y32.235
X11.378Y32.31
X11.433Y32.385
X11.489Y32.457
X11.524Y32.5
X11.933Y32.998
X11.993Y33.068
X12.055Y33.136
X12.118Y33.203
X12.183Y33.268
X12.249Y33.332
X12.317Y33.394
X12.387Y33.454
X12.429Y33.49
X12.927Y33.898
X13Y33.955
X13.074Y34.01
X13.149Y34.063
X13.225Y34.114
X13.303Y34.164
X13.696Y33.525
X13.759Y33.563
X13.823Y33.6
X13.864Y33.622
X14.424Y33.921
X14.489Y33.955
X14.556Y33.986
X14.623Y34.016
X14.691Y34.045
X14.76Y34.071
X14.829Y34.096
X14.899Y34.12
X14.943Y34.133
X15.551Y34.318
X15.621Y34.337
X15.693Y34.356
X15.765Y34.372
X15.837Y34.387
X15.909Y34.399
X15.982Y34.41
X16.055Y34.42
X16.101Y34.425
X16.733Y34.487
X16.806Y34.492
X16.88Y34.496
X16.953Y34.498
X17.027Y34.498
X17.101Y34.497
X17.174Y34.493
X17.248Y34.488
X17.294Y34.484
X17.926Y34.422
X17.999Y34.413
X18.072Y34.402
X18.144Y34.39
X18.216Y34.376
X18.288Y34.36
X18.36Y34.342
X18.431Y34.323
X18.475Y34.31
X19.083Y34.125
X19.153Y34.102
X19.222Y34.078
X19.291Y34.051
X19.359Y34.024
X19.426Y33.994
X19.493Y33.963
X19.559Y33.93
X19.6Y33.908
X20.16Y33.609
X20.224Y33.573
X20.287Y33.535
X20.349Y33.496
X20.411Y33.455
X20.471Y33.413
X20.53Y33.369
X20.589Y33.324
X20.624Y33.295
X21.115Y32.892
X21.171Y32.844
X21.226Y32.795
X21.279Y32.744
X21.332Y32.692
X21.382Y32.639
X21.432Y32.585
X21.48Y32.529
X21.51Y32.494
X21.913Y32.003
X21.958Y31.945
X22.002Y31.886
X22.045Y31.826
X22.086Y31.765
X22.125Y31.703
X22.163Y31.64
X22.2Y31.576
X22.222Y31.535
X22.521Y30.975
X22.555Y30.91
X22.586Y30.843
X22.616Y30.776
X22.645Y30.708
X22.671Y30.639
X22.696Y30.57
X22.72Y30.5
X22.733Y30.456
X22.918Y29.848
X22.937Y29.778
X22.956Y29.706
X22.972Y29.634
X22.987Y29.562
X22.999Y29.49
X23.01Y29.417
X23.02Y29.344
X23.025Y29.298
X23.087Y28.666
X23.092Y28.593
X23.096Y28.519
X23.098Y28.446
X23.098Y28.372
X23.097Y28.298
X23.093Y28.225
X23.088Y28.151
X23.084Y28.105
X23.022Y27.473
X23.013Y27.4
X23.002Y27.327
X22.99Y27.255
X22.976Y27.183
X22.96Y27.111
X22.942Y27.039
X22.923Y26.968
X22.91Y26.924
X22.725Y26.316
X22.702Y26.246
X22.678Y26.177
X22.651Y26.108
X22.624Y26.04
X22.594Y25.973
X22.563Y25.906
X22.53Y25.84
X22.508Y25.799
X22.209Y25.239
X22.173Y25.175
X22.135Y25.112
X22.096Y25.05
X22.055Y24.988
X22.013Y24.928
X21.969Y24.869
X21.924Y24.81
X21.895Y24.775
X21.492Y24.284
X21.444Y24.228
X21.395Y24.173
X21.344Y24.12
X21.292Y24.067
X21.239Y24.017
X21.185Y23.967
X21.129Y23.919
X21.094Y23.889
X20.603Y23.486
X20.545Y23.441
X20.486Y23.397
X20.426Y23.354
X20.365Y23.313
X20.303Y23.274
X20.24Y23.236
X20.176Y23.199
X20.135Y23.177
X19.575Y22.878
X19.51Y22.844
X19.443Y22.813
X19.376Y22.783
X19.308Y22.754
X19.239Y22.728
X19.17Y22.703
X19.1Y22.679
X19.056Y22.666
X18.448Y22.481
X18.378Y22.462
X18.306Y22.443
X18.234Y22.427
X18.162Y22.412
X18.09Y22.4
X18.017Y22.389
X17.944Y22.379
X17.898Y22.375
X17.266Y22.312
X17.193Y22.307
X17.119Y22.303
X17.046Y22.301
X16.972Y22.301
X16.898Y22.302
X16.825Y22.306
X16.751Y22.311
X16.705Y22.315
X16.073Y22.377
X16Y22.386
X15.927Y22.397
X15.855Y22.409
X15.783Y22.423
X15.711Y22.439
X15.639Y22.457
X15.568Y22.476
X15.524Y22.489
X14.916Y22.674
X14.846Y22.697
X14.777Y22.721
X14.708Y22.748
X14.64Y22.775
X14.573Y22.805
X14.506Y22.836
X14.44Y22.869
X14.399Y22.891
X13.839Y23.19
X13.775Y23.226
X13.712Y23.264
X13.65Y23.303
X13.588Y23.344
X13.528Y23.386
X13.469Y23.43
X13.41Y23.475
X13.375Y23.504
X12.884Y23.907
X12.828Y23.955
X12.773Y24.004
X12.72Y24.055
X12.667Y24.107
X12.617Y24.16
X12.567Y24.214
X12.519Y24.27
X12.489Y24.305
X12.086Y24.796
X12.041Y24.854
X11.997Y24.913
X11.954Y24.973
X11.913Y25.034
X11.874Y25.096
X11.836Y25.159
X11.799Y25.223
X11.777Y25.264
X11.478Y25.824
X11.444Y25.889
X11.413Y25.956
X11.383Y26.023
X11.354Y26.091
X11.328Y26.16
X11.303Y26.229
X11.279Y26.299
X11.266Y26.343
X11.081Y26.951
X11.062Y27.021
X11.043Y27.093
X11.027Y27.165
X11.012Y27.237
X11Y27.309
X10.989Y27.382
X10.979Y27.455
X10.974Y27.501
X10.912Y28.133
X10.907Y28.206
X10.903Y28.28
X10.901Y28.353
X10.901Y28.427
X10.902Y28.501
X10.906Y28.574
X10.911Y28.648
X10.915Y28.694
X10.977Y29.326
X10.986Y29.399
X10.997Y29.472
X11.009Y29.544
X11.023Y29.616
X11.039Y29.688
X11.057Y29.76
X11.076Y29.831
X11.089Y29.875
X11.274Y30.483
X11.297Y30.553
X11.321Y30.622
X11.348Y30.691
X11.375Y30.759
X11.405Y30.826
X11.436Y30.893
X11.469Y30.959
X11.491Y31
X11.79Y31.56
X11.826Y31.624
X11.864Y31.687
X11.903Y31.749
X11.944Y31.811
X11.986Y31.871
X12.03Y31.93
X12.075Y31.989
X12.104Y32.024
X12.507Y32.515
X12.555Y32.571
X12.604Y32.626
X12.655Y32.679
X12.707Y32.732
X12.76Y32.782
X12.814Y32.832
X12.87Y32.88
X12.905Y32.91
X13.396Y33.313
X13.454Y33.358
X13.513Y33.402
X13.573Y33.445
X13.634Y33.486
X13.696Y33.525
X14.09Y32.887
X14.137Y32.915
X14.185Y32.943
X14.217Y32.961
X14.769Y33.256
X14.818Y33.281
X14.868Y33.304
X14.919Y33.327
X14.97Y33.348
X15.021Y33.368
X15.073Y33.387
X15.125Y33.405
X15.16Y33.416
X15.759Y33.597
X15.813Y33.612
X15.866Y33.626
X15.92Y33.638
X15.974Y33.649
X16.028Y33.659
X16.083Y33.667
X16.138Y33.674
X16.174Y33.678
X16.797Y33.739
X16.852Y33.744
X16.907Y33.747
X16.963Y33.748
X17.018Y33.748
X17.073Y33.747
X17.128Y33.745
X17.183Y33.741
X17.22Y33.738
X17.843Y33.676
X17.898Y33.67
X17.952Y33.662
X18.007Y33.653
X18.061Y33.642
X18.115Y33.63
X18.169Y33.617
X18.222Y33.602
X18.257Y33.592
X18.856Y33.41
X18.909Y33.393
X18.961Y33.375
X19.012Y33.355
X19.063Y33.334
X19.114Y33.312
X19.164Y33.289
X19.213Y33.264
X19.246Y33.247
X19.798Y32.952
X19.846Y32.925
X19.894Y32.897
X19.94Y32.867
X19.986Y32.837
X20.032Y32.805
X20.076Y32.772
X20.12Y32.739
X20.149Y32.715
X20.632Y32.318
X20.674Y32.282
X20.715Y32.246
X20.756Y32.208
X20.795Y32.169
X20.833Y32.129
X20.87Y32.088
X20.906Y32.046
X20.93Y32.018
X21.327Y31.534
X21.361Y31.491
X21.394Y31.447
X21.426Y31.402
X21.457Y31.356
X21.487Y31.309
X21.515Y31.262
X21.543Y31.214
X21.561Y31.182
X21.856Y30.63
X21.881Y30.581
X21.904Y30.531
X21.927Y30.48
X21.948Y30.429
X21.968Y30.378
X21.987Y30.326
X22.005Y30.274
X22.016Y30.239
X22.197Y29.64
X22.212Y29.586
X22.226Y29.533
X22.238Y29.479
X22.249Y29.425
X22.259Y29.371
X22.267Y29.316
X22.274Y29.261
X22.278Y29.225
X22.339Y28.602
X22.344Y28.547
X22.347Y28.492
X22.348Y28.436
X22.348Y28.381
X22.347Y28.326
X22.345Y28.271
X22.341Y28.216
X22.338Y28.179
X22.276Y27.556
X22.27Y27.501
X22.262Y27.447
X22.253Y27.392
X22.242Y27.338
X22.23Y27.284
X22.217Y27.23
X22.202Y27.177
X22.192Y27.142
X22.01Y26.543
X21.993Y26.49
X21.975Y26.438
X21.955Y26.387
X21.934Y26.336
X21.912Y26.285
X21.889Y26.235
X21.864Y26.186
X21.847Y26.153
X21.552Y25.601
X21.525Y25.553
X21.497Y25.505
X21.467Y25.459
X21.437Y25.413
X21.405Y25.367
X21.372Y25.323
X21.339Y25.279
X21.315Y25.25
X20.918Y24.767
X20.882Y24.725
X20.846Y24.684
X20.808Y24.643
X20.769Y24.604
X20.729Y24.566
X20.688Y24.529
X20.646Y24.493
X20.618Y24.469
X20.134Y24.072
X20.091Y24.038
X20.047Y24.005
X20.002Y23.973
X19.956Y23.942
X19.909Y23.912
X19.862Y23.884
X19.814Y23.856
X19.782Y23.838
X19.23Y23.544
X19.181Y23.518
X19.131Y23.495
X19.08Y23.472
X19.029Y23.451
X18.978Y23.431
X18.926Y23.412
X18.874Y23.394
X18.839Y23.383
X18.24Y23.202
X18.186Y23.187
X18.133Y23.173
X18.079Y23.161
X18.025Y23.15
X17.971Y23.14
X17.916Y23.132
X17.861Y23.125
X17.825Y23.121
X17.202Y23.06
X17.147Y23.055
X17.092Y23.052
X17.036Y23.051
X16.981Y23.051
X16.926Y23.052
X16.871Y23.054
X16.816Y23.058
X16.779Y23.061
X16.156Y23.123
X16.101Y23.129
X16.047Y23.137
X15.992Y23.146
X15.938Y23.157
X15.884Y23.169
X15.83Y23.182
X15.777Y23.197
X15.742Y23.207
X15.143Y23.389
X15.09Y23.406
X15.038Y23.424
X14.987Y23.444
X14.936Y23.465
X14.885Y23.487
X14.835Y23.51
X14.786Y23.535
X14.753Y23.552
X14.201Y23.847
X14.153Y23.874
X14.105Y23.902
X14.059Y23.932
X14.013Y23.962
X13.967Y23.994
X13.923Y24.027
X13.879Y24.06
X13.85Y24.084
X13.367Y24.481
X13.325Y24.517
X13.284Y24.553
X13.243Y24.591
X13.204Y24.63
X13.166Y24.67
X13.129Y24.711
X13.093Y24.753
X13.069Y24.781
X12.672Y25.265
X12.638Y25.308
X12.605Y25.352
X12.573Y25.397
X12.542Y25.443
X12.512Y25.49
X12.484Y25.537
X12.456Y25.585
X12.438Y25.617
X12.144Y26.169
X12.118Y26.218
X12.095Y26.268
X12.072Y26.319
X12.051Y26.37
X12.031Y26.421
X12.012Y26.473
X11.994Y26.525
X11.983Y26.56
X11.802Y27.159
X11.787Y27.213
X11.773Y27.266
X11.761Y27.32
X11.75Y27.374
X11.74Y27.428
X11.732Y27.483
X11.725Y27.538
X11.721Y27.574
X11.66Y28.197
X11.655Y28.252
X11.652Y28.307
X11.651Y28.363
X11.651Y28.418
X11.652Y28.473
X11.654Y28.528
X11.658Y28.583
X11.661Y28.62
X11.723Y29.243
X11.729Y29.298
X11.737Y29.352
X11.746Y29.407
X11.757Y29.461
X11.769Y29.515
X11.782Y29.569
X11.797Y29.622
X11.807Y29.657
X11.989Y30.256
X12.006Y30.309
X12.024Y30.361
X12.044Y30.412
X12.065Y30.463
X12.087Y30.514
X12.11Y30.564
X12.135Y30.613
X12.152Y30.646
X12.447Y31.198
X12.474Y31.246
X12.502Y31.294
X12.532Y31.34
X12.562Y31.386
X12.594Y31.432
X12.627Y31.476
X12.66Y31.52
X12.684Y31.549
X13.081Y32.032
X13.117Y32.074
X13.153Y32.115
X13.191Y32.156
X13.23Y32.195
X13.27Y32.233
X13.311Y32.27
X13.353Y32.306
X13.381Y32.33
X13.865Y32.727
X13.908Y32.761
X13.952Y32.794
X13.997Y32.826
X14.043Y32.857
X14.09Y32.887
X14.483Y32.248
X14.515Y32.267
X14.546Y32.286
X14.571Y32.299
X15.115Y32.59
X15.147Y32.607
X15.181Y32.622
X15.214Y32.638
X15.248Y32.652
X15.282Y32.665
X15.317Y32.678
X15.352Y32.69
X15.378Y32.698
X15.968Y32.877
X16.004Y32.887
X16.039Y32.896
X16.075Y32.904
X16.111Y32.912
X16.148Y32.918
X16.184Y32.924
X16.22Y32.929
X16.248Y32.932
X16.862Y32.992
X16.898Y32.995
X16.935Y32.997
X16.972Y32.998
X17.009Y32.998
X17.046Y32.998
X17.082Y32.996
X17.119Y32.994
X17.147Y32.991
X17.76Y32.931
X17.797Y32.926
X17.833Y32.921
X17.87Y32.915
X17.906Y32.908
X17.942Y32.9
X17.977Y32.892
X18.013Y32.882
X18.04Y32.874
X18.63Y32.695
X18.665Y32.684
X18.699Y32.672
X18.734Y32.659
X18.768Y32.645
X18.802Y32.63
X18.835Y32.615
X18.868Y32.598
X18.893Y32.585
X19.436Y32.295
X19.469Y32.277
X19.5Y32.258
X19.531Y32.239
X19.562Y32.218
X19.592Y32.197
X19.622Y32.176
X19.651Y32.153
X19.673Y32.136
X20.149Y31.744
X20.178Y31.721
X20.205Y31.696
X20.232Y31.671
X20.258Y31.645
X20.283Y31.618
X20.308Y31.591
X20.333Y31.564
X20.35Y31.542
X20.742Y31.066
X20.764Y31.037
X20.786Y31.007
X20.808Y30.977
X20.828Y30.947
X20.848Y30.916
X20.868Y30.884
X20.886Y30.853
X20.899Y30.828
X21.19Y30.284
X21.207Y30.252
X21.222Y30.218
X21.238Y30.185
X21.252Y30.151
X21.265Y30.117
X21.278Y30.082
X21.29Y30.047
X21.298Y30.021
X21.477Y29.431
X21.487Y29.395
X21.496Y29.36
X21.504Y29.324
X21.512Y29.288
X21.518Y29.251
X21.524Y29.215
X21.529Y29.179
X21.532Y29.151
X21.592Y28.537
X21.595Y28.501
X21.597Y28.464
X21.598Y28.427
X21.598Y28.39
X21.598Y28.353
X21.596Y28.317
X21.594Y28.28
X21.591Y28.252
X21.531Y27.639
X21.526Y27.602
X21.521Y27.566
X21.515Y27.529
X21.508Y27.493
X21.5Y27.457
X21.492Y27.422
X21.482Y27.386
X21.474Y27.359
X21.295Y26.769
X21.284Y26.734
X21.272Y26.7
X21.259Y26.665
X21.245Y26.631
X21.23Y26.597
X21.215Y26.564
X21.198Y26.531
X21.185Y26.506
X20.895Y25.963
X20.877Y25.93
X20.858Y25.899
X20.839Y25.868
X20.818Y25.837
X20.797Y25.807
X20.776Y25.777
X20.753Y25.748
X20.736Y25.726
X20.344Y25.25
X20.321Y25.221
X20.296Y25.194
X20.271Y25.167
X20.245Y25.141
X20.218Y25.116
X20.191Y25.091
X20.164Y25.066
X20.142Y25.049
X19.666Y24.657
X19.637Y24.635
X19.607Y24.613
X19.577Y24.591
X19.547Y24.571
X19.516Y24.551
X19.484Y24.532
X19.453Y24.513
X19.428Y24.5
X18.884Y24.209
X18.852Y24.192
X18.818Y24.177
X18.785Y24.161
X18.751Y24.147
X18.717Y24.134
X18.682Y24.121
X18.647Y24.109
X18.621Y24.101
X18.031Y23.922
X17.995Y23.912
X17.96Y23.903
X17.924Y23.895
X17.888Y23.887
X17.851Y23.881
X17.815Y23.875
X17.779Y23.87
X17.751Y23.867
X17.137Y23.807
X17.101Y23.804
X17.064Y23.802
X17.027Y23.801
X16.99Y23.801
X16.953Y23.801
X16.917Y23.803
X16.88Y23.805
X16.852Y23.808
X16.239Y23.868
X16.202Y23.873
X16.166Y23.878
X16.129Y23.884
X16.093Y23.891
X16.057Y23.899
X16.022Y23.907
X15.986Y23.917
X15.959Y23.925
X15.369Y24.104
X15.334Y24.115
X15.3Y24.127
X15.265Y24.14
X15.231Y24.154
X15.197Y24.169
X15.164Y24.184
X15.131Y24.201
X15.106Y24.214
X14.563Y24.504
X14.53Y24.522
X14.499Y24.541
X14.468Y24.56
X14.437Y24.581
X14.407Y24.602
X14.377Y24.623
X14.348Y24.646
X14.326Y24.663
X13.85Y25.055
X13.821Y25.078
X13.794Y25.103
X13.767Y25.128
X13.741Y25.154
X13.716Y25.181
X13.691Y25.208
X13.666Y25.235
X13.649Y25.257
X13.257Y25.733
X13.235Y25.762
X13.213Y25.792
X13.191Y25.822
X13.171Y25.852
X13.151Y25.883
X13.132Y25.915
X13.113Y25.946
X13.1Y25.971
X12.809Y26.515
X12.792Y26.547
X12.777Y26.581
X12.761Y26.614
X12.747Y26.648
X12.734Y26.682
X12.721Y26.717
X12.709Y26.752
X12.701Y26.778
X12.522Y27.368
X12.512Y27.404
X12.503Y27.439
X12.495Y27.475
X12.487Y27.511
X12.481Y27.548
X12.475Y27.584
X12.47Y27.62
X12.467Y27.648
X12.407Y28.262
X12.404Y28.298
X12.402Y28.335
X12.401Y28.372
X12.401Y28.409
X12.401Y28.446
X12.403Y28.482
X12.405Y28.519
X12.408Y28.547
X12.468Y29.16
X12.473Y29.197
X12.478Y29.233
X12.484Y29.27
X12.491Y29.306
X12.499Y29.342
X12.507Y29.377
X12.517Y29.413
X12.525Y29.44
X12.704Y30.03
X12.715Y30.065
X12.727Y30.099
X12.74Y30.134
X12.754Y30.168
X12.769Y30.202
X12.784Y30.235
X12.801Y30.268
X12.814Y30.293
X13.104Y30.836
X13.122Y30.869
X13.141Y30.9
X13.16Y30.931
X13.181Y30.962
X13.202Y30.992
X13.223Y31.022
X13.246Y31.051
X13.263Y31.073
X13.655Y31.549
X13.678Y31.578
X13.703Y31.605
X13.728Y31.632
X13.754Y31.658
X13.781Y31.684
X13.808Y31.708
X13.835Y31.733
X13.857Y31.75
X14.333Y32.142
X14.362Y32.164
X14.392Y32.186
X14.422Y32.208
X14.452Y32.228
X14.483Y32.248
X14.877Y31.61
X14.892Y31.62
X14.908Y31.629
X14.924Y31.638
X15.46Y31.924
X15.476Y31.933
X15.493Y31.941
X15.51Y31.948
X15.527Y31.956
X15.544Y31.962
X15.561Y31.969
X15.578Y31.975
X15.596Y31.98
X16.177Y32.157
X16.195Y32.162
X16.213Y32.166
X16.231Y32.171
X16.249Y32.175
X16.267Y32.178
X16.285Y32.181
X16.303Y32.183
X16.321Y32.185
X16.926Y32.245
X16.944Y32.246
X16.963Y32.248
X16.981Y32.248
X17Y32.249
X17.018Y32.248
X17.036Y32.248
X17.055Y32.246
X17.073Y32.245
X17.678Y32.185
X17.696Y32.183
X17.714Y32.181
X17.732Y32.178
X17.75Y32.175
X17.768Y32.171
X17.786Y32.166
X17.804Y32.162
X17.822Y32.157
X18.403Y31.98
X18.421Y31.975
X18.438Y31.969
X18.455Y31.962
X18.472Y31.956
X18.489Y31.948
X18.506Y31.941
X18.523Y31.933
X18.539Y31.924
X19.075Y31.638
X19.091Y31.629
X19.107Y31.62
X19.122Y31.61
X19.138Y31.6
X19.153Y31.589
X19.168Y31.579
X19.183Y31.567
X19.197Y31.556
X19.667Y31.171
X19.681Y31.159
X19.694Y31.147
X19.708Y31.134
X19.721Y31.121
X19.734Y31.108
X19.747Y31.094
X19.759Y31.081
X19.771Y31.067
X20.156Y30.597
X20.167Y30.583
X20.179Y30.568
X20.189Y30.553
X20.2Y30.538
X20.21Y30.522
X20.22Y30.507
X20.229Y30.491
X20.238Y30.475
X20.524Y29.939
X20.533Y29.923
X20.541Y29.906
X20.548Y29.889
X20.556Y29.872
X20.562Y29.855
X20.569Y29.838
X20.575Y29.821
X20.58Y29.803
X20.757Y29.222
X20.762Y29.204
X20.766Y29.186
X20.771Y29.168
X20.775Y29.15
X20.778Y29.132
X20.781Y29.114
X20.783Y29.096
X20.785Y29.078
X20.845Y28.473
X20.846Y28.455
X20.848Y28.436
X20.848Y28.418
X20.848Y28.4
X20.848Y28.381
X20.848Y28.363
X20.846Y28.344
X20.845Y28.326
X20.785Y27.721
X20.783Y27.703
X20.781Y27.685
X20.778Y27.667
X20.775Y27.649
X20.771Y27.631
X20.766Y27.613
X20.762Y27.595
X20.757Y27.577
X20.58Y26.996
X20.575Y26.978
X20.569Y26.961
X20.562Y26.944
X20.556Y26.927
X20.548Y26.91
X20.541Y26.893
X20.533Y26.876
X20.524Y26.86
X20.238Y26.324
X20.229Y26.308
X20.22Y26.292
X20.21Y26.277
X20.2Y26.261
X20.189Y26.246
X20.179Y26.231
X20.167Y26.216
X20.156Y26.202
X19.771Y25.732
X19.759Y25.718
X19.747Y25.705
X19.734Y25.691
X19.721Y25.678
X19.708Y25.665
X19.694Y25.652
X19.681Y25.64
X19.667Y25.628
X19.197Y25.243
X19.183Y25.232
X19.168Y25.22
X19.153Y25.21
X19.138Y25.199
X19.122Y25.189
X19.107Y25.179
X19.091Y25.17
X19.075Y25.161
X18.539Y24.875
X18.523Y24.866
X18.506Y24.858
X18.489Y24.851
X18.472Y24.843
X18.455Y24.837
X18.438Y24.83
X18.421Y24.824
X18.403Y24.819
X17.822Y24.642
X17.804Y24.637
X17.786Y24.633
X17.768Y24.628
X17.75Y24.624
X17.732Y24.621
X17.714Y24.618
X17.696Y24.616
X17.678Y24.614
X17.073Y24.554
X17.055Y24.553
X17.036Y24.551
X17.018Y24.551
X17Y24.551
X16.981Y24.551
X16.963Y24.551
X16.944Y24.553
X16.926Y24.554
X16.321Y24.614
X16.303Y24.616
X16.285Y24.618
X16.267Y24.621
X16.249Y24.624
X16.231Y24.628
X16.213Y24.633
X16.195Y24.637
X16.177Y24.642
X15.596Y24.819
X15.578Y24.824
X15.561Y24.83
X15.544Y24.837
X15.527Y24.843
X15.51Y24.851
X15.493Y24.858
X15.476Y24.866
X15.46Y24.875
X14.924Y25.161
X14.908Y25.17
X14.892Y25.179
X14.877Y25.189
X14.861Y25.199
X14.846Y25.21
X14.831Y25.22
X14.816Y25.232
X14.802Y25.243
X14.332Y25.628
X14.318Y25.64
X14.305Y25.652
X14.291Y25.665
X14.278Y25.678
X14.265Y25.691
X14.252Y25.705
X14.24Y25.718
X14.228Y25.732
X13.843Y26.202
X13.832Y26.216
X13.82Y26.231
X13.81Y26.246
X13.799Y26.261
X13.789Y26.277
X13.779Y26.292
X13.77Y26.308
X13.761Y26.324
X13.475Y26.86
X13.466Y26.876
X13.458Y26.893
X13.451Y26.91
X13.443Y26.927
X13.437Y26.944
X13.43Y26.961
X13.424Y26.978
X13.419Y26.996
X13.242Y27.577
X13.237Y27.595
X13.233Y27.613
X13.228Y27.631
X13.224Y27.649
X13.221Y27.667
X13.218Y27.685
X13.216Y27.703
X13.214Y27.721
X13.154Y28.326
X13.153Y28.344
X13.151Y28.363
X13.151Y28.381
X13.151Y28.4
X13.151Y28.418
X13.151Y28.436
X13.153Y28.455
X13.154Y28.473
X13.214Y29.078
X13.216Y29.096
X13.218Y29.114
X13.221Y29.132
X13.224Y29.15
X13.228Y29.168
X13.233Y29.186
X13.237Y29.204
X13.242Y29.222
X13.419Y29.803
X13.424Y29.821
X13.43Y29.838
X13.437Y29.855
X13.443Y29.872
X13.451Y29.889
X13.458Y29.906
X13.466Y29.923
X13.475Y29.939
X13.761Y30.475
X13.77Y30.491
X13.779Y30.507
X13.789Y30.522
X13.799Y30.538
X13.81Y30.553
X13.82Y30.568
X13.832Y30.583
X13.843Y30.597
X14.228Y31.067
X14.24Y31.081
X14.252Y31.094
X14.265Y31.108
X14.278Y31.121
X14.291Y31.134
X14.305Y31.147
X14.318Y31.159
X14.332Y31.171
X14.802Y31.556
X14.816Y31.567
X14.831Y31.579
X14.846Y31.589
X14.861Y31.6
X14.877Y31.61
G0Z2
 
