(Created with grbl post processor 2023/09/09 00:28)
G21
(G-code generated with BlenderCAM and NC library)
G17G90
(Tool: D = 1.5 mm  type END flutes 2)
S12000M03
G00 Z2.0

G0X0Y0Z2
X54.5Y27.5
G1Z-0.476F75
X54.3Z-0.48F150
X54.1Z-0.479
X54.148Y27.308Z-0.48
X54.283Y27.163Z-0.48
X54.471Y27.101Z-0.476
X54.666Y27.136Z-0.47
X54.82Y27.26Z-0.465
X54.896Y27.443Z-0.463
X54.874Y27.64Z-0.463
X54.761Y27.802Z-0.467
X54.584Y27.891Z-0.473
X54.386Y27.883Z-0.478
X54.216Y27.782Z-0.481
X54.1Y27.5Z-0.479
X53.9Z-0.473
X53.7Z-0.467
X53.724Y27.302Z-0.467
X53.797Y27.116Z-0.47
X53.914Y26.954Z-0.474
X54.067Y26.826Z-0.478
X54.247Y26.74Z-0.481
X54.443Y26.702Z-0.477
X54.642Y26.712Z-0.471
X54.832Y26.772Z-0.465
X55.002Y26.877Z-0.458
X55.14Y27.021Z-0.452
X55.239Y27.194Z-0.447
X55.291Y27.387Z-0.445
X55.295Y27.586Z-0.445
X55.249Y27.78Z-0.447
X55.156Y27.957Z-0.451
X55.022Y28.105Z-0.458
X54.856Y28.215Z-0.464
X54.668Y28.282Z-0.47
X54.469Y28.299Z-0.477
X54.273Y28.267Z-0.481
X54.09Y28.187Z-0.479
X53.933Y28.064Z-0.474
X53.811Y27.906Z-0.47
X53.731Y27.723Z-0.468
X53.7Y27.5Z-0.467
X53.5Z-0.46
X53.3Z-0.451
X53.316Y27.3Z-0.451
X53.366Y27.107Z-0.454
X53.446Y26.924Z-0.457
X53.556Y26.757Z-0.462
X53.693Y26.611Z-0.466
X53.851Y26.49Z-0.471
X54.028Y26.396Z-0.477
X54.217Y26.333Z-0.481
X54.415Y26.303Z-0.477
X54.614Y26.305Z-0.472
X54.811Y26.341Z-0.465
X54.999Y26.408Z-0.458
X55.173Y26.506Z-0.45
X55.328Y26.632Z-0.443
X55.461Y26.781Z-0.437
X55.567Y26.951Z-0.43
X55.643Y27.135Z-0.426
X55.687Y27.33Z-0.423
X55.699Y27.53Z-0.422
X55.678Y27.728Z-0.424
X55.623Y27.92Z-0.427
X55.538Y28.101Z-0.432
X55.424Y28.265Z-0.439
X55.284Y28.408Z-0.446
X55.122Y28.525Z-0.453
X54.944Y28.614Z-0.461
X54.752Y28.673Z-0.467
X54.554Y28.698Z-0.474
X54.355Y28.691Z-0.479
X54.159Y28.65Z-0.48
X53.973Y28.578Z-0.476
X53.801Y28.475Z-0.47
X53.649Y28.346Z-0.465
X53.52Y28.193Z-0.461
X53.419Y28.021Z-0.456
X53.347Y27.835Z-0.453
X53.3Y27.5Z-0.451
X53.1Z-0.441
X52.9Z-0.43
X52.912Y27.3Z-0.431
X52.949Y27.104Z-0.433
X53.011Y26.913Z-0.437
X53.095Y26.732Z-0.441
X53.202Y26.563Z-0.446
X53.329Y26.409Z-0.452
X53.474Y26.271Z-0.458
X53.635Y26.153Z-0.464
X53.81Y26.056Z-0.47
X53.995Y25.981Z-0.476
X54.188Y25.93Z-0.48
X54.386Y25.904Z-0.478
X54.586Y25.902Z-0.472
X54.785Y25.925Z-0.466
X54.979Y25.973Z-0.459
X55.165Y26.045Z-0.45
X55.342Y26.139Z-0.442
X55.505Y26.255Z-0.434
X55.652Y26.39Z-0.425
X55.781Y26.542Z-0.417
X55.891Y26.709Z-0.411
X55.978Y26.889Z-0.405
X56.043Y27.078Z-0.4
X56.083Y27.274Z-0.397
X56.099Y27.473Z-0.396
X56.09Y27.673Z-0.396
X56.056Y27.87Z-0.399
X55.998Y28.061Z-0.403
X55.916Y28.243Z-0.409
X55.812Y28.414Z-0.416
X55.688Y28.571Z-0.423
X55.545Y28.71Z-0.432
X55.386Y28.831Z-0.441
X55.213Y28.931Z-0.449
X55.029Y29.009Z-0.457
X54.837Y29.064Z-0.465
X54.639Y29.093Z-0.471
X54.439Y29.098Z-0.477
X54.24Y29.078Z-0.481
X54.046Y29.034Z-0.478
X53.858Y28.965Z-0.472
X53.68Y28.874Z-0.466
X53.515Y28.761Z-0.461
X53.366Y28.628Z-0.454
X53.234Y28.478Z-0.448
X53.122Y28.313Z-0.443
X53.031Y28.135Z-0.438
X52.963Y27.947Z-0.434
X52.919Y27.752Z-0.431
X52.9Y27.5Z-0.43
X52.7Z-0.418
X52.5Z-0.405
X52.509Y27.3Z-0.406
X52.539Y27.102Z-0.408
X52.589Y26.908Z-0.411
X52.657Y26.721Z-0.415
X52.744Y26.541Z-0.421
X52.849Y26.37Z-0.427
X52.97Y26.211Z-0.434
X53.106Y26.065Z-0.441
X53.256Y25.933Z-0.448
X53.419Y25.817Z-0.456
X53.592Y25.717Z-0.463
X53.775Y25.635Z-0.469
X53.965Y25.572Z-0.475
X54.16Y25.529Z-0.479
X54.358Y25.505Z-0.478
X54.558Y25.5Z-0.473
X54.757Y25.516Z-0.467
X54.954Y25.552Z-0.46
X55.146Y25.607Z-0.451
X55.332Y25.681Z-0.443
X55.509Y25.773Z-0.433
X55.677Y25.883Z-0.423
X55.832Y26.008Z-0.414
X55.974Y26.149Z-0.405
X56.102Y26.303Z-0.395
X56.213Y26.468Z-0.387
X56.308Y26.645Z-0.38
X56.384Y26.83Z-0.374
X56.441Y27.021Z-0.369
X56.479Y27.217Z-0.366
X56.498Y27.416Z-0.365
X56.496Y27.616Z-0.365
X56.474Y27.815Z-0.367
X56.433Y28.011Z-0.37
X56.372Y28.201Z-0.376
X56.293Y28.385Z-0.382
X56.196Y28.559Z-0.389
X56.081Y28.723Z-0.397
X55.951Y28.875Z-0.407
X55.807Y29.013Z-0.416
X55.649Y29.136Z-0.425
X55.48Y29.243Z-0.436
X55.301Y29.332Z-0.445
X55.114Y29.403Z-0.453
X54.921Y29.455Z-0.462
X54.724Y29.487Z-0.468
X54.524Y29.499Z-0.475
X54.325Y29.492Z-0.479
X54.126Y29.464Z-0.479
X53.932Y29.417Z-0.474
X53.744Y29.351Z-0.468
X53.562Y29.266Z-0.462
X53.391Y29.164Z-0.455
X53.23Y29.045Z-0.447
X53.082Y28.911Z-0.441
X52.948Y28.762Z-0.433
X52.83Y28.601Z-0.426
X52.728Y28.429Z-0.42
X52.645Y28.247Z-0.415
X52.579Y28.058Z-0.411
X52.533Y27.864Z-0.408
X52.5Y27.5Z-0.405
X52.1Z-0.376
X52.108Y27.3Z-0.376
X52.133Y27.101Z-0.378
X52.174Y26.906Z-0.381
X52.232Y26.714Z-0.385
X52.305Y26.528Z-0.391
X52.393Y26.349Z-0.397
X52.496Y26.178Z-0.405
X52.613Y26.015Z-0.413
X52.743Y25.864Z-0.42
X52.886Y25.723Z-0.429
X53.039Y25.595Z-0.438
X53.203Y25.48Z-0.446
X53.375Y25.379Z-0.454
X53.556Y25.293Z-0.461
X53.743Y25.222Z-0.468
X53.935Y25.167Z-0.474
X54.131Y25.128Z-0.479
X54.33Y25.106Z-0.479
X54.53Y25.1Z-0.474
X54.729Y25.111Z-0.468
X54.927Y25.138Z-0.461
X55.122Y25.182Z-0.452
X55.313Y25.242Z-0.443
X55.498Y25.317Z-0.434
X55.676Y25.408Z-0.423
X55.846Y25.513Z-0.413
X56.007Y25.632Z-0.402
X56.157Y25.764Z-0.391
X56.296Y25.908Z-0.381
X56.422Y26.063Z-0.371
X56.535Y26.228Z-0.361
X56.634Y26.402Z-0.352
X56.718Y26.584Z-0.345
X56.786Y26.771Z-0.339
X56.839Y26.964Z-0.334
X56.875Y27.161Z-0.331
X56.895Y27.36Z-0.329
X56.899Y27.56Z-0.328
X56.885Y27.759Z-0.33
X56.856Y27.957Z-0.333
X56.809Y28.151Z-0.337
X56.747Y28.341Z-0.343
X56.669Y28.526Z-0.35
X56.576Y28.703Z-0.358
X56.469Y28.871Z-0.367
X56.348Y29.03Z-0.377
X56.214Y29.179Z-0.387
X56.068Y29.316Z-0.398
X55.912Y29.44Z-0.41
X55.745Y29.551Z-0.42
X55.57Y29.647Z-0.43
X55.388Y29.729Z-0.44
X55.199Y29.795Z-0.449
X55.005Y29.846Z-0.458
X54.808Y29.88Z-0.465
X54.609Y29.897Z-0.472
X54.409Y29.898Z-0.478
X54.21Y29.882Z-0.481
X54.013Y29.85Z-0.477
X53.819Y29.801Z-0.471
X53.63Y29.736Z-0.464
X53.446Y29.656Z-0.457
X53.27Y29.561Z-0.449
X53.103Y29.451Z-0.441
X52.946Y29.328Z-0.433
X52.799Y29.193Z-0.424
X52.664Y29.045Z-0.416
X52.541Y28.887Z-0.408
X52.433Y28.719Z-0.4
X52.338Y28.543Z-0.394
X52.259Y28.36Z-0.388
X52.195Y28.17Z-0.383
X52.147Y27.976Z-0.379
X52.116Y27.779Z-0.377
X52.1Y27.5Z-0.376
X51.7Z-0.341
X51.707Y27.3Z-0.341
X51.728Y27.101Z-0.343
X51.764Y26.904Z-0.346
X51.813Y26.71Z-0.35
X51.876Y26.521Z-0.356
X51.953Y26.336Z-0.363
X52.042Y26.157Z-0.37
X52.144Y25.985Z-0.379
X52.258Y25.821Z-0.387
X52.384Y25.665Z-0.396
X52.52Y25.519Z-0.406
X52.667Y25.383Z-0.416
X52.822Y25.257Z-0.425
X52.987Y25.143Z-0.435
X53.159Y25.041Z-0.443
X53.338Y24.952Z-0.452
X53.522Y24.876Z-0.46
X53.712Y24.813Z-0.467
X53.906Y24.763Z-0.473
X54.103Y24.728Z-0.478
X54.301Y24.707Z-0.479
X54.501Y24.7Z-0.475
X54.701Y24.707Z-0.468
X54.9Y24.728Z-0.462
X55.097Y24.764Z-0.453
X55.29Y24.814Z-0.444
X55.48Y24.877Z-0.435
X55.665Y24.953Z-0.424
X55.843Y25.043Z-0.413
X56.015Y25.145Z-0.401
X56.179Y25.259Z-0.389
X56.335Y25.385Z-0.378
X56.481Y25.521Z-0.366
X56.617Y25.668Z-0.354
X56.743Y25.824Z-0.343
X56.857Y25.988Z-0.332
X56.958Y26.16Z-0.322
X57.048Y26.339Z-0.313
X57.124Y26.524Z-0.305
X57.187Y26.714Z-0.299
X57.236Y26.908Z-0.294
X57.271Y27.104Z-0.29
X57.293Y27.303Z-0.288
X57.3Y27.503Z-0.287
X57.292Y27.703Z-0.288
X57.27Y27.902Z-0.29
X57.235Y28.098Z-0.294
X57.185Y28.292Z-0.299
X57.122Y28.482Z-0.306
X57.045Y28.666Z-0.314
X56.955Y28.845Z-0.323
X56.853Y29.017Z-0.333
X56.738Y29.181Z-0.343
X56.613Y29.336Z-0.354
X56.476Y29.483Z-0.366
X56.33Y29.619Z-0.379
X56.174Y29.744Z-0.39
X56.009Y29.858Z-0.402
X55.837Y29.959Z-0.414
X55.658Y30.048Z-0.425
X55.473Y30.125Z-0.436
X55.284Y30.187Z-0.445
X55.09Y30.237Z-0.454
X54.893Y30.272Z-0.462
X54.694Y30.293Z-0.469
X54.494Y30.299Z-0.476
X54.294Y30.292Z-0.48
X54.096Y30.27Z-0.478
X53.899Y30.234Z-0.473
X53.705Y30.184Z-0.467
X53.516Y30.121Z-0.46
X53.331Y30.044Z-0.452
X53.152Y29.954Z-0.444
X52.981Y29.852Z-0.435
X52.817Y29.737Z-0.425
X52.661Y29.612Z-0.416
X52.515Y29.475Z-0.406
X52.379Y29.328Z-0.396
X52.254Y29.172Z-0.387
X52.141Y29.008Z-0.379
X52.039Y28.836Z-0.371
X51.95Y28.657Z-0.363
X51.874Y28.472Z-0.356
X51.811Y28.282Z-0.351
X51.762Y28.088Z-0.346
X51.727Y27.891Z-0.343
X51.7Y27.5Z-0.341
X51.5Z-0.321
X51.3Z-0.3
X51.306Y27.3Z-0.301
X51.324Y27.101Z-0.303
X51.356Y26.903Z-0.306
X51.399Y26.708Z-0.31
X51.454Y26.516Z-0.316
X51.522Y26.327Z-0.323
X51.601Y26.144Z-0.331
X51.691Y25.965Z-0.339
X51.793Y25.793Z-0.348
X51.904Y25.627Z-0.358
X52.026Y25.469Z-0.369
X52.158Y25.318Z-0.38
X52.299Y25.176Z-0.39
X52.448Y25.043Z-0.401
X52.606Y24.92Z-0.412
X52.771Y24.807Z-0.422
X52.942Y24.704Z-0.432
X53.12Y24.612Z-0.442
X53.303Y24.532Z-0.45
X53.49Y24.463Z-0.459
X53.682Y24.406Z-0.465
X53.877Y24.361Z-0.472
X54.074Y24.328Z-0.477
X54.273Y24.308Z-0.48
X54.473Y24.3Z-0.476
X54.673Y24.304Z-0.469
X54.872Y24.321Z-0.463
X55.07Y24.351Z-0.454
X55.265Y24.393Z-0.445
X55.458Y24.446Z-0.436
X55.647Y24.512Z-0.425
X55.831Y24.59Z-0.414
X56.01Y24.679Z-0.402
X56.184Y24.778Z-0.389
X56.35Y24.889Z-0.377
X56.51Y25.01Z-0.363
X56.661Y25.14Z-0.35
X56.804Y25.28Z-0.337
X56.939Y25.428Z-0.324
X57.063Y25.584Z-0.311
X57.178Y25.748Z-0.299
X57.282Y25.919Z-0.289
X57.375Y26.096Z-0.278
X57.457Y26.278Z-0.268
X57.528Y26.465Z-0.26
X57.586Y26.656Z-0.253
X57.633Y26.851Z-0.247
X57.667Y27.048Z-0.243
X57.69Y27.247Z-0.241
X57.699Y27.446Z-0.24
X57.696Y27.646Z-0.24
X57.681Y27.846Z-0.242
X57.653Y28.044Z-0.245
X57.613Y28.24Z-0.25
X57.56Y28.433Z-0.256
X57.496Y28.622Z-0.264
X57.42Y28.807Z-0.273
X57.333Y28.987Z-0.283
X57.234Y29.161Z-0.294
X57.125Y29.329Z-0.305
X57.006Y29.489Z-0.317
X56.877Y29.642Z-0.331
X56.738Y29.786Z-0.343
X56.591Y29.921Z-0.356
X56.436Y30.047Z-0.37
X56.273Y30.163Z-0.383
X56.103Y30.269Z-0.395
X55.927Y30.363Z-0.408
X55.745Y30.447Z-0.419
X55.559Y30.519Z-0.431
X55.368Y30.579Z-0.441
X55.174Y30.628Z-0.45
X54.977Y30.664Z-0.459
X54.779Y30.687Z-0.466
X54.579Y30.699Z-0.473
X54.379Y30.697Z-0.478
X54.18Y30.683Z-0.48
X53.981Y30.657Z-0.476
X53.785Y30.619Z-0.469
X53.592Y30.568Z-0.463
X53.402Y30.505Z-0.455
X53.216Y30.431Z-0.446
X53.036Y30.345Z-0.438
X52.861Y30.248Z-0.428
X52.692Y30.14Z-0.418
X52.531Y30.022Z-0.407
X52.377Y29.894Z-0.396
X52.232Y29.757Z-0.385
X52.095Y29.611Z-0.375
X51.968Y29.457Z-0.364
X51.851Y29.295Z-0.354
X51.744Y29.126Z-0.345
X51.647Y28.951Z-0.336
X51.562Y28.77Z-0.328
X51.489Y28.584Z-0.32
X51.427Y28.394Z-0.314
X51.377Y28.2Z-0.309
X51.339Y28.004Z-0.305
X51.314Y27.805Z-0.302
X51.3Y27.5Z-0.3
X51.1Z-0.279
X50.9Z-0.255
X50.905Y27.3Z-0.256
X50.922Y27.1Z-0.258
X50.949Y26.902Z-0.261
X50.988Y26.706Z-0.265
X51.038Y26.512Z-0.271
X51.098Y26.322Z-0.278
X51.168Y26.135Z-0.286
X51.249Y25.952Z-0.295
X51.34Y25.774Z-0.304
X51.441Y25.601Z-0.314
X51.551Y25.434Z-0.326
X51.67Y25.273Z-0.337
X51.798Y25.12Z-0.349
X51.935Y24.973Z-0.361
X52.079Y24.835Z-0.373
X52.231Y24.705Z-0.385
X52.389Y24.583Z-0.396
X52.554Y24.47Z-0.409
X52.726Y24.367Z-0.419
X52.902Y24.273Z-0.43
X53.084Y24.189Z-0.44
X53.27Y24.116Z-0.448
X53.46Y24.053Z-0.457
X53.653Y24.001Z-0.464
X53.848Y23.959Z-0.471
X54.046Y23.928Z-0.477
X54.245Y23.909Z-0.48
X54.445Y23.9Z-0.476
X54.645Y23.902Z-0.47
X54.844Y23.916Z-0.463
X55.043Y23.941Z-0.456
X55.239Y23.976Z-0.447
X55.434Y24.023Z-0.437
X55.625Y24.08Z-0.426
X55.814Y24.148Z-0.415
X55.998Y24.226Z-0.402
X56.177Y24.314Z-0.389
X56.351Y24.412Z-0.376
X56.52Y24.52Z-0.362
X56.682Y24.637Z-0.348
X56.838Y24.762Z-0.334
X56.986Y24.896Z-0.319
X57.127Y25.038Z-0.304
X57.26Y25.188Z-0.291
X57.384Y25.345Z-0.277
X57.499Y25.508Z-0.263
X57.605Y25.678Z-0.251
X57.701Y25.853Z-0.239
X57.788Y26.034Z-0.228
X57.864Y26.218Z-0.218
X57.93Y26.407Z-0.209
X57.985Y26.599Z-0.202
X58.03Y26.794Z-0.196
X58.063Y26.991Z-0.191
X58.086Y27.19Z-0.188
X58.098Y27.39Z-0.187
X58.098Y27.59Z-0.187
X58.088Y27.789Z-0.188
X58.066Y27.988Z-0.191
X58.034Y28.186Z-0.196
X57.99Y28.381Z-0.202
X57.936Y28.573Z-0.209
X57.871Y28.762Z-0.218
X57.795Y28.948Z-0.228
X57.71Y29.128Z-0.239
X57.615Y29.304Z-0.25
X57.51Y29.474Z-0.262
X57.395Y29.638Z-0.276
X57.272Y29.796Z-0.29
X57.14Y29.946Z-0.303
X57Y30.089Z-0.318
X56.853Y30.224Z-0.333
X56.698Y30.35Z-0.347
X56.536Y30.468Z-0.361
X56.368Y30.577Z-0.376
X56.194Y30.676Z-0.388
X56.015Y30.765Z-0.402
X55.832Y30.844Z-0.414
X55.644Y30.913Z-0.425
X55.453Y30.971Z-0.437
X55.258Y31.019Z-0.446
X55.062Y31.055Z-0.455
X54.863Y31.081Z-0.463
X54.664Y31.096Z-0.47
X54.464Y31.099Z-0.476
X54.264Y31.092Z-0.48
X54.065Y31.073Z-0.478
X53.867Y31.044Z-0.472
X53.672Y31.003Z-0.465
X53.478Y30.952Z-0.458
X53.288Y30.89Z-0.45
X53.102Y30.817Z-0.441
X52.92Y30.734Z-0.431
X52.743Y30.642Z-0.42
X52.571Y30.539Z-0.41
X52.405Y30.427Z-0.398
X52.246Y30.307Z-0.386
X52.093Y30.177Z-0.375
X51.948Y30.039Z-0.362
X51.811Y29.894Z-0.35
X51.682Y29.741Z-0.339
X51.562Y29.581Z-0.327
X51.451Y29.415Z-0.316
X51.35Y29.242Z-0.306
X51.258Y29.065Z-0.296
X51.176Y28.882Z-0.288
X51.104Y28.696Z-0.279
X51.043Y28.505Z-0.272
X50.992Y28.312Z-0.266
X50.953Y28.116Z-0.261
X50.924Y27.918Z-0.258
X50.906Y27.719Z-0.256
X50.9Y27.5Z-0.255
X50.7Z-0.231
X50.5Z-0.204
X50.505Y27.3Z-0.205
X50.519Y27.1Z-0.207
X50.544Y26.902Z-0.21
X50.579Y26.705Z-0.215
X50.624Y26.51Z-0.22
X50.678Y26.317Z-0.228
X50.742Y26.128Z-0.236
X50.815Y25.942Z-0.245
X50.898Y25.76Z-0.254
X50.989Y25.582Z-0.265
X51.089Y25.409Z-0.277
X51.198Y25.241Z-0.289
X51.315Y25.079Z-0.301
X51.44Y24.923Z-0.314
X51.573Y24.773Z-0.328
X51.713Y24.63Z-0.341
X51.86Y24.494Z-0.354
X52.013Y24.366Z-0.367
X52.173Y24.246Z-0.38
X52.338Y24.134Z-0.393
X52.509Y24.03Z-0.405
X52.685Y23.935Z-0.416
X52.866Y23.848Z-0.427
X53.05Y23.771Z-0.438
X53.238Y23.704Z-0.447
X53.43Y23.645Z-0.455
X53.623Y23.597Z-0.463
X53.82Y23.558Z-0.469
X54.017Y23.529Z-0.476
X54.217Y23.51Z-0.48
X54.416Y23.5Z-0.477
X54.616Y23.501Z-0.471
X54.816Y23.512Z-0.464
X55.015Y23.533Z-0.457
X55.212Y23.564Z-0.447
X55.408Y23.604Z-0.438
X55.602Y23.654Z-0.427
X55.793Y23.714Z-0.416
X55.98Y23.784Z-0.404
X56.164Y23.862Z-0.39
X56.344Y23.95Z-0.377
X56.519Y24.047Z-0.362
X56.689Y24.152Z-0.347
X56.854Y24.266Z-0.332
X57.012Y24.387Z-0.316
X57.165Y24.517Z-0.3
X57.31Y24.654Z-0.285
X57.449Y24.798Z-0.269
X57.58Y24.948Z-0.253
X57.704Y25.106Z-0.239
X57.82Y25.269Z-0.224
X57.927Y25.437Z-0.209
X58.026Y25.611Z-0.196
X58.116Y25.79Z-0.184
X58.197Y25.973Z-0.173
X58.268Y26.16Z-0.162
X58.331Y26.35Z-0.153
X58.383Y26.543Z-0.145
X58.426Y26.738Z-0.138
X58.459Y26.935Z-0.133
X58.483Y27.134Z-0.13
X58.496Y27.333Z-0.128
X58.499Y27.533Z-0.128
X58.493Y27.733Z-0.129
X58.476Y27.932Z-0.131
X58.449Y28.13Z-0.135
X58.413Y28.327Z-0.141
X58.367Y28.522Z-0.148
X58.311Y28.714Z-0.156
X58.245Y28.903Z-0.166
X58.171Y29.088Z-0.177
X58.087Y29.27Z-0.188
X57.994Y29.447Z-0.201
X57.892Y29.619Z-0.214
X57.782Y29.786Z-0.229
X57.663Y29.947Z-0.244
X57.537Y30.102Z-0.259
X57.403Y30.251Z-0.275
X57.262Y30.392Z-0.291
X57.114Y30.527Z-0.306
X56.96Y30.654Z-0.322
X56.799Y30.773Z-0.338
X56.632Y30.883Z-0.352
X56.461Y30.986Z-0.367
X56.284Y31.079Z-0.382
X56.103Y31.164Z-0.395
X55.918Y31.24Z-0.409
X55.729Y31.306Z-0.42
X55.537Y31.363Z-0.432
X55.343Y31.41Z-0.442
X55.146Y31.447Z-0.451
X54.948Y31.474Z-0.46
X54.749Y31.492Z-0.467
X54.549Y31.499Z-0.473
X54.349Y31.497Z-0.479
X54.15Y31.484Z-0.479
X53.951Y31.462Z-0.474
X53.753Y31.429Z-0.468
X53.558Y31.387Z-0.462
X53.365Y31.335Z-0.453
X53.175Y31.274Z-0.444
X52.988Y31.203Z-0.435
X52.804Y31.123Z-0.424
X52.625Y31.033Z-0.413
X52.451Y30.935Z-0.401
X52.282Y30.829Z-0.389
X52.118Y30.714Z-0.377
X51.961Y30.591Z-0.363
X51.809Y30.46Z-0.35
X51.665Y30.322Z-0.337
X51.527Y30.176Z-0.324
X51.397Y30.025Z-0.31
X51.275Y29.866Z-0.298
X51.161Y29.702Z-0.286
X51.055Y29.533Z-0.273
X50.957Y29.358Z-0.262
X50.869Y29.179Z-0.251
X50.79Y28.995Z-0.242
X50.719Y28.808Z-0.234
X50.659Y28.617Z-0.226
X50.608Y28.424Z-0.219
X50.566Y28.228Z-0.213
X50.535Y28.031Z-0.209
X50.513Y27.832Z-0.206
X50.5Y27.5Z-0.204
X50.3Z-0.177
X50.1Z-0.147
X50.104Y27.3Z-0.148
X50.118Y27.1Z-0.15
X50.14Y26.901Z-0.153
X50.172Y26.704Z-0.158
X50.213Y26.508Z-0.164
X50.262Y26.314Z-0.171
X50.32Y26.123Z-0.18
X50.387Y25.935Z-0.189
X50.463Y25.749Z-0.199
X50.546Y25.568Z-0.21
X50.638Y25.39Z-0.222
X50.738Y25.217Z-0.235
X50.846Y25.048Z-0.248
X50.961Y24.885Z-0.262
X51.083Y24.727Z-0.276
X51.213Y24.574Z-0.291
X51.349Y24.428Z-0.305
X51.492Y24.288Z-0.319
X51.641Y24.155Z-0.335
X51.796Y24.028Z-0.348
X51.956Y23.909Z-0.362
X52.122Y23.797Z-0.376
X52.293Y23.693Z-0.389
X52.468Y23.596Z-0.402
X52.648Y23.508Z-0.414
X52.831Y23.428Z-0.425
X53.018Y23.357Z-0.436
X53.207Y23.294Z-0.445
X53.4Y23.239Z-0.454
X53.595Y23.194Z-0.462
X53.791Y23.157Z-0.468
X53.989Y23.129Z-0.475
X54.188Y23.111Z-0.479
X54.388Y23.101Z-0.477
X54.588Y23.1Z-0.471
X54.788Y23.109Z-0.465
X54.987Y23.127Z-0.458
X55.185Y23.153Z-0.448
X55.382Y23.189Z-0.439
X55.577Y23.233Z-0.428
X55.77Y23.287Z-0.417
X55.96Y23.349Z-0.405
X56.147Y23.42Z-0.391
X56.331Y23.499Z-0.377
X56.51Y23.586Z-0.362
X56.686Y23.681Z-0.347
X56.857Y23.785Z-0.332
X57.024Y23.896Z-0.315
X57.185Y24.014Z-0.298
X57.341Y24.14Z-0.281
X57.49Y24.272Z-0.264
X57.634Y24.411Z-0.247
X57.771Y24.557Z-0.23
X57.901Y24.709Z-0.213
X58.025Y24.866Z-0.196
X58.141Y25.029Z-0.181
X58.249Y25.197Z-0.165
X58.35Y25.37Z-0.15
X58.443Y25.547Z-0.136
X58.527Y25.728Z-0.123
X58.604Y25.913Z-0.111
X58.671Y26.101Z-0.1
X58.731Y26.292Z-0.09
X58.781Y26.486Z-0.081
X58.823Y26.681Z-0.074
X58.855Y26.879Z-0.069
X58.879Y27.077Z-0.065
X58.894Y27.277Z-0.063
X58.899Y27.476Z-0.062
X58.896Y27.676Z-0.062
X58.883Y27.876Z-0.065
X58.862Y28.075Z-0.068
X58.831Y28.272Z-0.074
X58.791Y28.468Z-0.08
X58.743Y28.663Z-0.088
X58.686Y28.854Z-0.098
X58.62Y29.043Z-0.109
X58.546Y29.229Z-0.121
X58.463Y29.411Z-0.133
X58.372Y29.589Z-0.147
X58.273Y29.763Z-0.162
X58.166Y29.932Z-0.178
X58.052Y30.096Z-0.193
X57.93Y30.255Z-0.209
X57.802Y30.408Z-0.226
X57.666Y30.555Z-0.243
X57.524Y30.695Z-0.26
X57.376Y30.829Z-0.278
X57.221Y30.957Z-0.295
X57.061Y31.077Z-0.311
X56.896Y31.189Z-0.328
X56.726Y31.295Z-0.344
X56.551Y31.392Z-0.359
X56.372Y31.481Z-0.375
X56.189Y31.562Z-0.389
X56.003Y31.635Z-0.402
X55.814Y31.699Z-0.415
X55.621Y31.754Z-0.426
X55.427Y31.801Z-0.438
X55.231Y31.838Z-0.447
X55.033Y31.867Z-0.456
X54.834Y31.887Z-0.464
X54.634Y31.897Z-0.471
X54.434Y31.899Z-0.477
X54.234Y31.891Z-0.481
X54.035Y31.875Z-0.477
X53.837Y31.849Z-0.471
X53.64Y31.815Z-0.464
X53.444Y31.771Z-0.457
X53.251Y31.719Z-0.448
X53.061Y31.658Z-0.439
X52.874Y31.588Z-0.428
X52.689Y31.51Z-0.417
X52.509Y31.424Z-0.405
X52.333Y31.329Z-0.392
X52.161Y31.227Z-0.38
X51.994Y31.117Z-0.366
X51.832Y30.999Z-0.352
X51.676Y30.874Z-0.338
X51.526Y30.742Z-0.323
X51.381Y30.604Z-0.309
X51.244Y30.459Z-0.294
X51.112Y30.308Z-0.28
X50.988Y30.151Z-0.265
X50.871Y29.989Z-0.252
X50.762Y29.821Z-0.239
X50.66Y29.649Z-0.226
X50.567Y29.473Z-0.213
X50.481Y29.292Z-0.202
X50.404Y29.107Z-0.191
X50.335Y28.92Z-0.182
X50.275Y28.729Z-0.174
X50.223Y28.536Z-0.166
X50.181Y28.34Z-0.159
X50.147Y28.143Z-0.154
X50.122Y27.945Z-0.151
X50.106Y27.745Z-0.148
X50.1Y27.5Z-0.147
X49.9Z-0.117
X49.7Z-0.084
X49.704Y27.3Z-0.084
X49.716Y27.1Z-0.086
X49.737Y26.901Z-0.09
X49.766Y26.703Z-0.095
X49.803Y26.507Z-0.101
X49.849Y26.312Z-0.108
X49.902Y26.119Z-0.117
X49.964Y25.929Z-0.126
X50.033Y25.741Z-0.137
X50.11Y25.557Z-0.148
X50.195Y25.376Z-0.161
X50.287Y25.198Z-0.175
X50.387Y25.025Z-0.188
X50.493Y24.856Z-0.203
X50.607Y24.691Z-0.218
X50.727Y24.531Z-0.234
X50.854Y24.377Z-0.249
X50.987Y24.228Z-0.265
X51.127Y24.084Z-0.281
X51.272Y23.947Z-0.297
X51.423Y23.815Z-0.312
X51.579Y23.69Z-0.328
X51.74Y23.572Z-0.343
X51.906Y23.46Z-0.357
X52.077Y23.356Z-0.372
X52.251Y23.259Z-0.385
X52.43Y23.169Z-0.399
X52.612Y23.086Z-0.411
X52.798Y23.011Z-0.422
X52.986Y22.944Z-0.434
X53.177Y22.885Z-0.443
X53.37Y22.834Z-0.452
X53.566Y22.791Z-0.461
X53.763Y22.756Z-0.467
X53.961Y22.73Z-0.473
X54.16Y22.712Z-0.478
X54.36Y22.702Z-0.477
X54.56Y22.7Z-0.472
X54.76Y22.707Z-0.465
X54.959Y22.722Z-0.458
X55.158Y22.745Z-0.449
X55.355Y22.776Z-0.44
X55.551Y22.816Z-0.429
X55.745Y22.864Z-0.418
X55.937Y22.92Z-0.406
X56.127Y22.984Z-0.392
X56.313Y23.055Z-0.378
X56.497Y23.135Z-0.363
X56.677Y23.222Z-0.347
X56.853Y23.316Z-0.332
X57.026Y23.418Z-0.314
X57.193Y23.527Z-0.297
X57.357Y23.642Z-0.279
X57.515Y23.765Z-0.261
X57.668Y23.894Z-0.243
X57.815Y24.029Z-0.224
X57.957Y24.17Z-0.205
X58.093Y24.317Z-0.187
X58.222Y24.469Z-0.169
X58.345Y24.627Z-0.15
X58.461Y24.79Z-0.133
X58.571Y24.957Z-0.116
X58.673Y25.129Z-0.099
X58.768Y25.305Z-0.083
X58.856Y25.484Z-0.069
X58.936Y25.668Z-0.055
X59.009Y25.854Z-0.043
X59.073Y26.043Z-0.031
X59.13Y26.235Z-0.02
X59.179Y26.429Z-0.011
X59.219Y26.625Z-0.004
G0Z2
X59.212Y28.414
G1Z-0.005F75
X59.169Y28.61Z-0.013F150
X59.119Y28.803Z-0.023
X59.061Y28.995Z-0.034
X58.995Y29.183Z-0.046
X58.92Y29.369Z-0.058
X58.839Y29.552Z-0.072
X58.75Y29.731Z-0.087
X58.653Y29.906Z-0.103
X58.549Y30.077Z-0.12
X58.438Y30.243Z-0.137
X58.32Y30.405Z-0.154
X58.196Y30.561Z-0.173
X58.065Y30.713Z-0.191
X57.928Y30.858Z-0.209
X57.786Y30.998Z-0.228
X57.637Y31.132Z-0.247
X57.483Y31.26Z-0.265
X57.324Y31.381Z-0.284
X57.16Y31.495Z-0.301
X56.991Y31.602Z-0.318
X56.818Y31.703Z-0.336
X56.641Y31.795Z-0.351
X56.46Y31.881Z-0.367
X56.276Y31.959Z-0.382
X56.088Y32.029Z-0.396
X55.898Y32.091Z-0.41
X55.706Y32.145Z-0.421
X55.511Y32.192Z-0.433
X55.315Y32.23Z-0.443
X55.117Y32.26Z-0.452
X54.918Y32.281Z-0.461
X54.719Y32.295Z-0.468
X54.519Y32.299Z-0.474
X54.319Y32.296Z-0.479
X54.119Y32.284Z-0.478
X53.92Y32.264Z-0.473
X53.722Y32.236Z-0.467
X53.526Y32.2Z-0.46
X53.331Y32.155Z-0.451
X53.138Y32.102Z-0.442
X52.947Y32.042Z-0.432
X52.76Y31.973Z-0.421
X52.575Y31.897Z-0.41
X52.393Y31.813Z-0.397
X52.215Y31.721Z-0.384
X52.041Y31.622Z-0.37
X51.872Y31.516Z-0.355
X51.707Y31.403Z-0.341
X51.547Y31.284Z-0.325
X51.392Y31.157Z-0.309
X51.242Y31.025Z-0.294
X51.098Y30.886Z-0.278
X50.96Y30.741Z-0.262
X50.828Y30.591Z-0.246
X50.702Y30.436Z-0.231
X50.583Y30.275Z-0.215
X50.471Y30.109Z-0.2
X50.366Y29.939Z-0.186
X50.268Y29.765Z-0.172
X50.177Y29.587Z-0.159
X50.094Y29.405Z-0.146
X50.018Y29.22Z-0.135
X49.951Y29.032Z-0.125
X49.891Y28.841Z-0.116
X49.839Y28.648Z-0.107
X49.795Y28.452Z-0.1
X49.759Y28.256Z-0.094
X49.732Y28.058Z-0.089
X49.713Y27.858Z-0.086
X49.7Y27.5Z-0.084
X49.5Z-0.05
X49.3Z-0.013
X49.303Y27.3Z-0.014
X49.315Y27.1Z-0.016
X49.334Y26.901Z-0.019
X49.361Y26.703Z-0.024
X49.395Y26.506Z-0.031
X49.437Y26.31Z-0.038
X49.487Y26.116Z-0.047
X49.544Y25.925Z-0.057
X49.608Y25.735Z-0.068
X49.679Y25.548Z-0.08
X49.758Y25.365Z-0.093
X49.844Y25.184Z-0.107
X49.936Y25.006Z-0.122
X50.035Y24.833Z-0.137
X50.141Y24.663Z-0.153
X50.253Y24.498Z-0.169
X50.372Y24.337Z-0.186
X50.497Y24.18Z-0.203
X50.627Y24.029Z-0.22
X50.764Y23.882Z-0.238
X50.905Y23.741Z-0.255
X51.053Y23.606Z-0.272
X51.205Y23.476Z-0.289
X51.362Y23.353Z-0.305
X51.524Y23.235Z-0.322
X51.69Y23.124Z-0.338
X51.86Y23.019Z-0.353
X52.034Y22.921Z-0.368
X52.212Y22.829Z-0.382
X52.394Y22.745Z-0.396
X52.578Y22.668Z-0.409
X52.765Y22.597Z-0.42
X52.955Y22.534Z-0.431
X53.147Y22.478Z-0.441
X53.341Y22.43Z-0.45
X53.537Y22.389Z-0.459
X53.734Y22.356Z-0.466
X53.932Y22.331Z-0.472
X54.132Y22.313Z-0.477
X54.331Y22.302Z-0.477
X54.531Y22.3Z-0.472
X54.731Y22.305Z-0.466
X54.931Y22.317Z-0.459
X55.13Y22.338Z-0.45
X55.328Y22.366Z-0.441
X55.525Y22.402Z-0.431
X55.72Y22.445Z-0.419
X55.913Y22.495Z-0.407
X56.105Y22.553Z-0.393
X56.294Y22.619Z-0.379
X56.48Y22.691Z-0.364
X56.663Y22.771Z-0.348
X56.844Y22.858Z-0.332
X57.02Y22.951Z-0.314
X57.193Y23.052Z-0.296
X57.362Y23.159Z-0.278
X57.527Y23.272Z-0.259
X57.688Y23.391Z-0.24
X57.843Y23.517Z-0.22
X57.994Y23.649Z-0.2
X58.139Y23.786Z-0.18
X58.279Y23.929Z-0.16
X58.414Y24.077Z-0.14
X58.543Y24.23Z-0.12
X58.665Y24.387Z-0.1
X58.782Y24.55Z-0.081
X58.892Y24.717Z-0.062
X58.996Y24.888Z-0.045
X59.093Y25.063Z-0.027
X59.183Y25.241Z-0.01
G0Z2
X59.214Y29.692
G1Z-0.005F75
X59.127Y29.872Z-0.021F150
X59.032Y30.048Z-0.039
X58.931Y30.221Z-0.056
X58.823Y30.389Z-0.074
X58.708Y30.553Z-0.094
X58.588Y30.713Z-0.114
X58.461Y30.868Z-0.133
X58.329Y31.017Z-0.153
X58.191Y31.162Z-0.174
X58.047Y31.301Z-0.193
X57.898Y31.435Z-0.213
X57.745Y31.563Z-0.234
X57.586Y31.684Z-0.253
X57.423Y31.8Z-0.272
X57.255Y31.909Z-0.291
X57.084Y32.012Z-0.309
X56.908Y32.108Z-0.327
X56.729Y32.197Z-0.344
X56.547Y32.279Z-0.36
X56.362Y32.355Z-0.376
X56.174Y32.423Z-0.39
X55.983Y32.483Z-0.404
X55.79Y32.537Z-0.416
X55.596Y32.583Z-0.428
X55.399Y32.621Z-0.439
X55.202Y32.652Z-0.448
X55.003Y32.675Z-0.458
X54.804Y32.691Z-0.465
X54.604Y32.698Z-0.471
X54.404Y32.699Z-0.477
X54.204Y32.691Z-0.48
X54.005Y32.676Z-0.476
X53.806Y32.653Z-0.469
X53.608Y32.623Z-0.463
X53.412Y32.585Z-0.455
X53.217Y32.539Z-0.446
X53.024Y32.486Z-0.437
X52.834Y32.425Z-0.425
X52.646Y32.358Z-0.414
X52.46Y32.283Z-0.402
X52.278Y32.201Z-0.388
X52.099Y32.112Z-0.375
X51.923Y32.016Z-0.36
X51.751Y31.914Z-0.345
X51.584Y31.805Z-0.329
X51.42Y31.69Z-0.312
X51.261Y31.568Z-0.296
X51.107Y31.441Z-0.279
X50.958Y31.307Z-0.261
X50.814Y31.168Z-0.245
X50.676Y31.024Z-0.227
X50.543Y30.874Z-0.209
X50.417Y30.72Z-0.193
X50.296Y30.56Z-0.176
X50.181Y30.396Z-0.159
X50.073Y30.228Z-0.143
X49.971Y30.056Z-0.127
X49.876Y29.88Z-0.113
X49.788Y29.7Z-0.098
X49.707Y29.518Z-0.085
X49.633Y29.332Z-0.072
X49.566Y29.143Z-0.061
X49.507Y28.952Z-0.051
X49.454Y28.759Z-0.042
X49.41Y28.564Z-0.034
X49.373Y28.368Z-0.027
X49.343Y28.17Z-0.021
X49.321Y27.971Z-0.017
X49.307Y27.772Z-0.014
X49.3Y27.5Z-0.013
G0Z2
X49.253Y25.542
G1Z-0.004F75
X49.326Y25.356Z-0.017F150
X49.406Y25.172Z-0.032
X49.492Y24.992Z-0.048
X49.585Y24.815Z-0.064
X49.684Y24.641Z-0.08
X49.789Y24.471Z-0.098
X49.9Y24.305Z-0.116
X50.017Y24.142Z-0.134
X50.14Y23.984Z-0.152
X50.268Y23.831Z-0.171
X50.402Y23.682Z-0.19
X50.541Y23.538Z-0.208
X50.685Y23.4Z-0.227
X50.834Y23.266Z-0.246
X50.987Y23.138Z-0.264
X51.145Y23.015Z-0.282
X51.307Y22.898Z-0.299
X51.474Y22.787Z-0.316
X51.644Y22.682Z-0.334
X51.818Y22.583Z-0.349
X51.995Y22.491Z-0.364
X52.176Y22.404Z-0.379
X52.359Y22.325Z-0.393
X52.545Y22.252Z-0.406
X52.734Y22.185Z-0.418
X52.925Y22.126Z-0.429
X53.117Y22.073Z-0.44
X53.312Y22.027Z-0.449
X53.508Y21.988Z-0.458
X53.706Y21.956Z-0.464
X53.904Y21.931Z-0.471
X54.103Y21.914Z-0.476
X54.303Y21.903Z-0.477
X54.503Y21.9Z-0.473
X54.703Y21.903Z-0.466
X54.903Y21.914Z-0.46
X55.102Y21.932Z-0.451
X55.3Y21.957Z-0.442
X55.498Y21.989Z-0.432
X55.694Y22.028Z-0.42
X55.888Y22.074Z-0.409
X56.081Y22.128Z-0.395
X56.272Y22.187Z-0.381
X56.461Y22.254Z-0.365
X56.647Y22.327Z-0.349
X56.83Y22.407Z-0.333
X57.01Y22.494Z-0.315
X57.187Y22.587Z-0.297
X57.361Y22.686Z-0.278
X57.531Y22.791Z-0.258
X57.697Y22.902Z-0.238
X57.859Y23.019Z-0.217
X58.017Y23.142Z-0.196
X58.171Y23.271Z-0.176
X58.319Y23.404Z-0.153
X58.463Y23.543Z-0.132
X58.602Y23.688Z-0.111
X58.735Y23.836Z-0.088
X58.863Y23.99Z-0.067
X58.986Y24.148Z-0.046
X59.103Y24.31Z-0.025
X59.214Y24.477Z-0.004
G0Z2
X59.206Y30.534
G1Z-0.006F75
X59.095Y30.7Z-0.027F150
X58.977Y30.862Z-0.048
X58.854Y31.02Z-0.069
X58.726Y31.173Z-0.091
X58.592Y31.322Z-0.113
X58.453Y31.466Z-0.134
X58.309Y31.604Z-0.156
X58.16Y31.738Z-0.178
X58.006Y31.866Z-0.199
X57.848Y31.988Z-0.22
X57.686Y32.105Z-0.241
X57.519Y32.216Z-0.26
X57.349Y32.32Z-0.28
X57.175Y32.419Z-0.299
X56.998Y32.511Z-0.317
X56.817Y32.597Z-0.336
X56.634Y32.677Z-0.352
X56.447Y32.75Z-0.368
X56.259Y32.816Z-0.383
X56.068Y32.875Z-0.397
X55.875Y32.928Z-0.411
X55.68Y32.974Z-0.423
X55.484Y33.012Z-0.434
X55.286Y33.044Z-0.444
X55.088Y33.069Z-0.453
X54.889Y33.086Z-0.462
X54.689Y33.096Z-0.468
X54.489Y33.099Z-0.475
X54.289Y33.096Z-0.479
X54.089Y33.084Z-0.478
X53.89Y33.066Z-0.472
X53.692Y33.041Z-0.466
X53.494Y33.009Z-0.459
X53.298Y32.969Z-0.45
X53.104Y32.923Z-0.441
X52.911Y32.869Z-0.43
X52.72Y32.809Z-0.419
X52.532Y32.742Z-0.407
X52.346Y32.669Z-0.393
X52.163Y32.589Z-0.38
X51.982Y32.502Z-0.365
X51.805Y32.409Z-0.349
X51.632Y32.31Z-0.334
X51.462Y32.204Z-0.316
X51.296Y32.093Z-0.299
X51.134Y31.975Z-0.282
X50.976Y31.852Z-0.263
X50.823Y31.724Z-0.245
X50.675Y31.59Z-0.227
X50.531Y31.451Z-0.208
X50.392Y31.306Z-0.189
X50.259Y31.157Z-0.171
X50.131Y31.003Z-0.151
X50.009Y30.845Z-0.133
X49.892Y30.683Z-0.115
X49.782Y30.516Z-0.097
X49.677Y30.346Z-0.079
X49.578Y30.172Z-0.063
X49.486Y29.994Z-0.047
X49.4Y29.814Z-0.032
X49.321Y29.63Z-0.017
X49.248Y29.444Z-0.003
G0Z2
X49.234Y24.623
G1Z0F75
X49.333Y24.449Z-0.018F150
X49.437Y24.279Z-0.038
X49.547Y24.112Z-0.057
X49.663Y23.948Z-0.076
X49.784Y23.789Z-0.097
X49.91Y23.634Z-0.117
X50.042Y23.483Z-0.137
X50.178Y23.337Z-0.157
X50.319Y23.195Z-0.178
X50.465Y23.058Z-0.198
X50.615Y22.926Z-0.218
X50.77Y22.8Z-0.238
X50.929Y22.678Z-0.256
X51.091Y22.562Z-0.275
X51.258Y22.451Z-0.294
X51.428Y22.345Z-0.311
X51.601Y22.246Z-0.329
X51.778Y22.152Z-0.345
X51.958Y22.065Z-0.361
X52.14Y21.983Z-0.376
X52.325Y21.907Z-0.39
X52.513Y21.838Z-0.404
X52.703Y21.775Z-0.416
X52.895Y21.718Z-0.427
X53.088Y21.668Z-0.438
X53.283Y21.624Z-0.447
X53.48Y21.587Z-0.456
X53.677Y21.556Z-0.463
X53.876Y21.532Z-0.47
X54.075Y21.515Z-0.475
X54.275Y21.504Z-0.478
X54.475Y21.5Z-0.474
X54.675Y21.502Z-0.467
X54.874Y21.511Z-0.46
X55.074Y21.527Z-0.452
X55.273Y21.55Z-0.443
X55.47Y21.579Z-0.433
X55.667Y21.614Z-0.422
X55.863Y21.656Z-0.41
X56.057Y21.705Z-0.396
X56.249Y21.76Z-0.382
X56.439Y21.822Z-0.367
X56.627Y21.89Z-0.351
X56.813Y21.964Z-0.334
X56.996Y22.044Z-0.316
X57.177Y22.13Z-0.297
X57.354Y22.222Z-0.278
X57.529Y22.32Z-0.258
X57.7Y22.424Z-0.237
X57.867Y22.534Z-0.216
X58.031Y22.649Z-0.194
X58.19Y22.769Z-0.172
X58.346Y22.895Z-0.149
X58.497Y23.025Z-0.126
X58.644Y23.161Z-0.103
X58.786Y23.302Z-0.079
X58.924Y23.447Z-0.056
X59.056Y23.596Z-0.033
X59.184Y23.75Z-0.009
G0Z2
X59.12Y31.327
G1Z-0.022F75
X58.99Y31.479Z-0.046F150
X58.855Y31.626Z-0.069
X58.715Y31.769Z-0.092
X58.571Y31.907Z-0.116
X58.421Y32.04Z-0.139
X58.268Y32.168Z-0.162
X58.11Y32.291Z-0.185
X57.948Y32.409Z-0.206
X57.783Y32.521Z-0.228
X57.614Y32.628Z-0.249
X57.441Y32.729Z-0.269
X57.265Y32.824Z-0.29
X57.086Y32.913Z-0.308
X56.904Y32.996Z-0.327
X56.72Y33.074Z-0.344
X56.533Y33.144Z-0.361
X56.343Y33.209Z-0.377
X56.152Y33.267Z-0.391
X55.959Y33.319Z-0.405
X55.764Y33.365Z-0.417
X55.568Y33.404Z-0.429
X55.371Y33.436Z-0.44
X55.172Y33.462Z-0.449
X54.973Y33.481Z-0.459
X54.774Y33.493Z-0.466
X54.574Y33.499Z-0.472
X54.374Y33.498Z-0.477
X54.174Y33.491Z-0.479
X53.975Y33.476Z-0.475
X53.776Y33.456Z-0.468
X53.578Y33.428Z-0.462
X53.38Y33.394Z-0.453
X53.185Y33.354Z-0.444
X52.99Y33.307Z-0.435
X52.798Y33.253Z-0.423
X52.607Y33.193Z-0.412
X52.418Y33.127Z-0.398
X52.232Y33.054Z-0.385
X52.048Y32.976Z-0.37
X51.867Y32.891Z-0.354
X51.688Y32.8Z-0.339
X51.513Y32.704Z-0.322
X51.342Y32.601Z-0.304
X51.173Y32.493Z-0.287
X51.009Y32.379Z-0.267
X50.848Y32.26Z-0.248
X50.691Y32.136Z-0.229
X50.539Y32.007Z-0.209
X50.391Y31.872Z-0.189
X50.247Y31.733Z-0.169
X50.109Y31.589Z-0.148
X49.975Y31.44Z-0.128
X49.846Y31.287Z-0.108
X49.722Y31.13Z-0.087
X49.604Y30.969Z-0.067
X49.491Y30.804Z-0.048
X49.384Y30.635Z-0.028
X49.282Y30.463Z-0.009
G0Z2
X49.309Y23.755
G1Z-0.014F75
X49.429Y23.595Z-0.036F150
X49.553Y23.438Z-0.057
X49.683Y23.285Z-0.079
X49.817Y23.137Z-0.102
X49.955Y22.993Z-0.123
X50.098Y22.853Z-0.145
X50.246Y22.718Z-0.167
X50.397Y22.587Z-0.188
X50.553Y22.461Z-0.209
X50.712Y22.341Z-0.23
X50.875Y22.225Z-0.25
X51.042Y22.114Z-0.269
X51.212Y22.009Z-0.289
X51.385Y21.909Z-0.306
X51.561Y21.814Z-0.325
X51.74Y21.725Z-0.341
X51.922Y21.642Z-0.357
X52.106Y21.564Z-0.373
X52.293Y21.492Z-0.387
X52.481Y21.426Z-0.401
X52.672Y21.366Z-0.413
X52.865Y21.312Z-0.425
X53.059Y21.264Z-0.436
X53.254Y21.222Z-0.445
X53.451Y21.186Z-0.454
X53.649Y21.156Z-0.462
X53.848Y21.133Z-0.468
X54.047Y21.116Z-0.474
X54.246Y21.104Z-0.478
X54.446Y21.1Z-0.474
X54.646Y21.101Z-0.468
X54.846Y21.109Z-0.461
X55.046Y21.123Z-0.453
X55.245Y21.143Z-0.444
X55.443Y21.169Z-0.435
X55.64Y21.202Z-0.423
X55.836Y21.241Z-0.411
X56.031Y21.286Z-0.398
X56.225Y21.336Z-0.383
X56.417Y21.393Z-0.369
X56.606Y21.456Z-0.352
X56.794Y21.525Z-0.336
X56.98Y21.6Z-0.317
X57.163Y21.68Z-0.298
X57.343Y21.766Z-0.279
X57.521Y21.858Z-0.258
X57.696Y21.955Z-0.237
X57.868Y22.057Z-0.215
X58.036Y22.165Z-0.193
X58.201Y22.278Z-0.17
X58.362Y22.397Z-0.146
X58.52Y22.52Z-0.122
X58.673Y22.648Z-0.098
X58.823Y22.781Z-0.073
X58.968Y22.918Z-0.048
X59.109Y23.06Z-0.022
G0Z2
X59.118Y31.93
G1Z-0.022F75
X58.977Y32.072Z-0.048F150
X58.832Y32.21Z-0.072
X58.683Y32.343Z-0.097
X58.529Y32.471Z-0.122
X58.372Y32.595Z-0.146
X58.211Y32.713Z-0.17
X58.046Y32.827Z-0.193
X57.878Y32.935Z-0.215
X57.707Y33.038Z-0.238
X57.532Y33.135Z-0.259
X57.354Y33.227Z-0.279
X57.174Y33.314Z-0.299
X56.991Y33.395Z-0.318
X56.806Y33.47Z-0.336
X56.618Y33.539Z-0.353
X56.428Y33.602Z-0.37
X56.237Y33.659Z-0.384
X56.043Y33.711Z-0.399
X55.849Y33.756Z-0.412
X55.652Y33.795Z-0.424
X55.455Y33.828Z-0.436
X55.257Y33.855Z-0.445
X55.058Y33.875Z-0.455
X54.859Y33.889Z-0.463
X54.659Y33.898Z-0.469
X54.459Y33.899Z-0.476
X54.259Y33.895Z-0.48
X54.059Y33.884Z-0.477
X53.86Y33.867Z-0.471
X53.661Y33.844Z-0.464
X53.463Y33.815Z-0.457
X53.267Y33.78Z-0.448
X53.071Y33.738Z-0.439
X52.877Y33.69Z-0.428
X52.684Y33.637Z-0.416
X52.493Y33.577Z-0.404
X52.304Y33.511Z-0.39
X52.118Y33.44Z-0.376
X51.933Y33.362Z-0.36
X51.751Y33.279Z-0.344
X51.572Y33.191Z-0.327
X51.396Y33.096Z-0.309
X51.222Y32.997Z-0.292
X51.052Y32.892Z-0.272
X50.885Y32.781Z-0.252
X50.722Y32.666Z-0.233
X50.562Y32.545Z-0.212
X50.407Y32.42Z-0.191
X50.255Y32.289Z-0.17
X50.107Y32.154Z-0.147
X49.964Y32.015Z-0.126
X49.825Y31.871Z-0.104
X49.691Y31.723Z-0.081
X49.561Y31.571Z-0.06
X49.436Y31.414Z-0.038
X49.317Y31.254Z-0.016
G0Z2
X49.324Y23.088
G1Z-0.016F75
X49.456Y22.938Z-0.04F150
X49.593Y22.792Z-0.063
X49.733Y22.649Z-0.087
X49.878Y22.511Z-0.111
X50.027Y22.378Z-0.134
X50.179Y22.248Z-0.156
X50.336Y22.124Z-0.179
X50.495Y22.003Z-0.201
X50.659Y21.888Z-0.223
X50.825Y21.777Z-0.243
X50.995Y21.672Z-0.263
X51.168Y21.571Z-0.284
X51.344Y21.476Z-0.302
X51.522Y21.386Z-0.32
X51.704Y21.301Z-0.338
X51.887Y21.221Z-0.354
X52.073Y21.147Z-0.37
X52.261Y21.079Z-0.384
X52.45Y21.016Z-0.398
X52.642Y20.958Z-0.411
X52.835Y20.906Z-0.423
X53.03Y20.86Z-0.434
X53.226Y20.82Z-0.444
X53.423Y20.785Z-0.453
X53.621Y20.757Z-0.461
X53.819Y20.734Z-0.467
X54.018Y20.717Z-0.474
X54.218Y20.705Z-0.477
X54.418Y20.7Z-0.474
X54.618Y20.701Z-0.468
X54.818Y20.707Z-0.462
X55.018Y20.719Z-0.454
X55.217Y20.737Z-0.445
X55.415Y20.761Z-0.436
X55.613Y20.791Z-0.424
X55.81Y20.827Z-0.412
X56.005Y20.868Z-0.399
X56.2Y20.916Z-0.385
X56.393Y20.968Z-0.37
X56.584Y21.027Z-0.354
X56.773Y21.091Z-0.337
X56.961Y21.161Z-0.319
X57.146Y21.236Z-0.3
X57.329Y21.316Z-0.28
X57.51Y21.402Z-0.259
X57.688Y21.493Z-0.238
X57.863Y21.59Z-0.215
X58.036Y21.691Z-0.192
X58.205Y21.798Z-0.169
X58.371Y21.909Z-0.144
X58.534Y22.025Z-0.12
X58.693Y22.146Z-0.094
X58.848Y22.272Z-0.068
X59Y22.402Z-0.042
X59.148Y22.537Z-0.015
G0Z2
X59.094Y32.513
G1Z-0.026F75
X58.944Y32.646Z-0.053F150
X58.791Y32.774Z-0.079
X58.634Y32.898Z-0.106
X58.473Y33.017Z-0.13
X58.31Y33.132Z-0.155
X58.142Y33.242Z-0.18
X57.972Y33.346Z-0.203
X57.798Y33.446Z-0.226
X57.622Y33.54Z-0.248
X57.443Y33.629Z-0.269
X57.262Y33.713Z-0.29
X57.078Y33.792Z-0.309
X56.891Y33.865Z-0.328
X56.703Y33.933Z-0.345
X56.513Y33.995Z-0.362
X56.321Y34.051Z-0.378
X56.128Y34.102Z-0.392
X55.933Y34.147Z-0.407
X55.737Y34.186Z-0.419
X55.54Y34.219Z-0.431
X55.342Y34.247Z-0.441
X55.143Y34.269Z-0.45
X54.943Y34.285Z-0.46
X54.744Y34.295Z-0.466
X54.544Y34.299Z-0.473
X54.344Y34.298Z-0.478
X54.144Y34.29Z-0.478
X53.944Y34.277Z-0.473
X53.745Y34.258Z-0.467
X53.547Y34.232Z-0.46
X53.349Y34.202Z-0.452
X53.153Y34.165Z-0.442
X52.957Y34.122Z-0.432
X52.763Y34.074Z-0.421
X52.571Y34.02Z-0.409
X52.38Y33.961Z-0.395
X52.191Y33.896Z-0.381
X52.003Y33.825Z-0.366
X51.819Y33.749Z-0.35
X51.636Y33.667Z-0.334
X51.456Y33.58Z-0.315
X51.278Y33.488Z-0.297
X51.104Y33.391Z-0.278
X50.932Y33.288Z-0.258
X50.763Y33.181Z-0.238
X50.598Y33.069Z-0.216
X50.436Y32.952Z-0.194
X50.277Y32.83Z-0.173
X50.122Y32.703Z-0.15
X49.971Y32.572Z-0.127
X49.824Y32.437Z-0.104
X49.681Y32.297Z-0.08
X49.542Y32.153Z-0.056
X49.407Y32.006Z-0.032
X49.277Y31.854Z-0.008
G0Z2
X49.37Y22.447
G1Z-0.024F75
X49.512Y22.307Z-0.049F150
X49.658Y22.17Z-0.074
X49.808Y22.038Z-0.099
X49.962Y21.91Z-0.123
X50.119Y21.786Z-0.147
X50.279Y21.666Z-0.171
X50.443Y21.551Z-0.193
X50.609Y21.441Z-0.215
X50.779Y21.335Z-0.238
X50.952Y21.234Z-0.258
X51.127Y21.138Z-0.278
X51.305Y21.047Z-0.298
X51.486Y20.961Z-0.316
X51.668Y20.879Z-0.334
X51.853Y20.803Z-0.351
X52.04Y20.732Z-0.367
X52.229Y20.667Z-0.382
X52.42Y20.606Z-0.396
X52.612Y20.551Z-0.409
X52.806Y20.502Z-0.421
X53.001Y20.457Z-0.432
X53.197Y20.418Z-0.442
X53.394Y20.385Z-0.451
X53.592Y20.357Z-0.459
X53.791Y20.334Z-0.466
X53.99Y20.318Z-0.472
X54.19Y20.306Z-0.477
X54.39Y20.3Z-0.474
X54.59Y20.3Z-0.469
X54.79Y20.305Z-0.462
X54.989Y20.316Z-0.455
X55.189Y20.333Z-0.446
X55.388Y20.354Z-0.437
X55.586Y20.382Z-0.425
X55.783Y20.415Z-0.414
X55.979Y20.453Z-0.401
X56.174Y20.497Z-0.386
X56.368Y20.546Z-0.372
X56.561Y20.601Z-0.355
X56.751Y20.661Z-0.339
X56.94Y20.726Z-0.32
X57.128Y20.796Z-0.301
X57.313Y20.872Z-0.282
X57.496Y20.953Z-0.26
X57.676Y21.038Z-0.239
X57.855Y21.129Z-0.216
X58.03Y21.225Z-0.193
X58.203Y21.325Z-0.169
X58.373Y21.43Z-0.143
X58.54Y21.54Z-0.118
X58.704Y21.655Z-0.091
X58.865Y21.774Z-0.064
X59.022Y21.897Z-0.038
X59.176Y22.025Z-0.009
G0Z2
X59.206Y32.948
G1Z-0.005F75
X59.053Y33.077Z-0.034F150
X58.896Y33.201Z-0.061
X58.736Y33.321Z-0.088
X58.573Y33.437Z-0.115
X58.406Y33.548Z-0.14
X58.237Y33.654Z-0.166
X58.064Y33.755Z-0.19
X57.889Y33.852Z-0.214
X57.711Y33.943Z-0.237
X57.531Y34.03Z-0.258
X57.349Y34.112Z-0.28
X57.164Y34.188Z-0.3
X56.977Y34.26Z-0.319
X56.788Y34.326Z-0.338
X56.598Y34.387Z-0.354
X56.406Y34.443Z-0.371
X56.212Y34.493Z-0.386
X56.017Y34.538Z-0.4
X55.821Y34.577Z-0.414
X55.624Y34.611Z-0.425
X55.426Y34.64Z-0.437
X55.227Y34.663Z-0.446
X55.028Y34.68Z-0.456
X54.829Y34.692Z-0.463
X54.629Y34.698Z-0.47
X54.429Y34.699Z-0.476
X54.229Y34.694Z-0.48
X54.029Y34.684Z-0.476
X53.83Y34.668Z-0.469
X53.631Y34.647Z-0.463
X53.433Y34.62Z-0.455
X53.235Y34.588Z-0.446
X53.039Y34.55Z-0.437
X52.844Y34.507Z-0.425
X52.65Y34.458Z-0.414
X52.457Y34.404Z-0.401
X52.266Y34.344Z-0.387
X52.077Y34.28Z-0.372
X51.89Y34.21Z-0.356
X51.704Y34.135Z-0.34
X51.521Y34.055Z-0.322
X51.34Y33.969Z-0.303
X51.162Y33.879Z-0.285
X50.986Y33.784Z-0.264
X50.812Y33.684Z-0.244
X50.642Y33.579Z-0.222
X50.475Y33.47Z-0.2
X50.311Y33.355Z-0.178
X50.149Y33.237Z-0.153
X49.992Y33.114Z-0.13
X49.838Y32.986Z-0.106
X49.687Y32.855Z-0.08
X49.54Y32.719Z-0.056
X49.397Y32.579Z-0.03
X49.258Y32.436Z-0.004
G0Z2
X49.291Y21.965
G1Z-0.008F75
X49.439Y21.83Z-0.036F150
X49.59Y21.698Z-0.062
X49.744Y21.571Z-0.088
X49.902Y21.448Z-0.114
X50.062Y21.329Z-0.138
X50.226Y21.215Z-0.163
X50.393Y21.104Z-0.186
X50.563Y20.998Z-0.209
X50.735Y20.897Z-0.232
X50.91Y20.8Z-0.253
X51.088Y20.708Z-0.273
X51.268Y20.621Z-0.293
X51.45Y20.538Z-0.312
X51.634Y20.46Z-0.331
X51.82Y20.387Z-0.347
X52.008Y20.319Z-0.364
X52.198Y20.256Z-0.379
X52.39Y20.198Z-0.393
X52.582Y20.145Z-0.407
X52.777Y20.097Z-0.419
X52.972Y20.055Z-0.43
X53.168Y20.017Z-0.44
X53.366Y19.985Z-0.449
X53.564Y19.957Z-0.458
X53.763Y19.935Z-0.465
X53.962Y19.919Z-0.471
X54.162Y19.907Z-0.476
X54.361Y19.901Z-0.475
X54.561Y19.9Z-0.469
X54.761Y19.904Z-0.463
X54.961Y19.914Z-0.456
X55.161Y19.928Z-0.447
X55.36Y19.948Z-0.438
X55.558Y19.974Z-0.427
X55.756Y20.004Z-0.415
X55.952Y20.04Z-0.402
X56.148Y20.08Z-0.388
X56.343Y20.126Z-0.374
X56.536Y20.178Z-0.357
X56.728Y20.234Z-0.34
X56.919Y20.295Z-0.322
X57.107Y20.361Z-0.303
X57.294Y20.432Z-0.284
X57.479Y20.508Z-0.262
X57.662Y20.589Z-0.24
X57.843Y20.674Z-0.217
X58.021Y20.765Z-0.193
X58.197Y20.86Z-0.169
X58.371Y20.959Z-0.143
X58.542Y21.064Z-0.118
X58.71Y21.172Z-0.09
X58.875Y21.285Z-0.062
X59.037Y21.402Z-0.034
X59.195Y21.524Z-0.005
G0Z2
X59.158Y33.505
G1Z-0.014F75
X58.998Y33.625Z-0.044F150
X58.835Y33.741Z-0.071
X58.67Y33.853Z-0.099
X58.501Y33.961Z-0.126
X58.33Y34.064Z-0.152
X58.156Y34.162Z-0.178
X57.979Y34.256Z-0.201
X57.8Y34.345Z-0.225
X57.619Y34.43Z-0.248
X57.435Y34.51Z-0.269
X57.25Y34.584Z-0.291
X57.062Y34.654Z-0.31
X56.873Y34.719Z-0.329
X56.682Y34.779Z-0.347
X56.49Y34.834Z-0.364
X56.296Y34.884Z-0.38
X56.102Y34.929Z-0.394
X55.906Y34.968Z-0.408
X55.708Y35.003Z-0.42
X55.511Y35.032Z-0.432
X55.312Y35.056Z-0.442
X55.113Y35.075Z-0.452
X54.913Y35.088Z-0.46
X54.714Y35.096Z-0.467
X54.514Y35.099Z-0.473
X54.314Y35.097Z-0.478
X54.114Y35.09Z-0.477
X53.914Y35.077Z-0.472
X53.715Y35.059Z-0.466
X53.516Y35.036Z-0.459
X53.318Y35.007Z-0.45
X53.121Y34.973Z-0.441
X52.925Y34.935Z-0.43
X52.73Y34.891Z-0.418
X52.536Y34.842Z-0.406
X52.344Y34.787Z-0.392
X52.153Y34.728Z-0.378
X51.963Y34.664Z-0.362
X51.776Y34.595Z-0.346
X51.59Y34.52Z-0.329
X51.406Y34.441Z-0.31
X51.225Y34.358Z-0.291
X51.045Y34.269Z-0.271
X50.868Y34.176Z-0.25
X50.694Y34.078Z-0.229
X50.522Y33.976Z-0.206
X50.353Y33.869Z-0.183
X50.187Y33.757Z-0.159
X50.024Y33.642Z-0.134
X49.864Y33.522Z-0.11
X49.707Y33.398Z-0.084
X49.553Y33.27Z-0.058
X49.403Y33.138Z-0.031
X49.257Y33.001Z-0.004
G0Z2
X49.372Y21.359
G1Z-0.023F75
X49.527Y21.233Z-0.051F150
X49.685Y21.111Z-0.077
X49.846Y20.992Z-0.104
X50.01Y20.878Z-0.13
X50.177Y20.768Z-0.155
X50.347Y20.662Z-0.18
X50.519Y20.56Z-0.203
X50.694Y20.463Z-0.226
X50.871Y20.37Z-0.247
X51.05Y20.281Z-0.269
X51.232Y20.197Z-0.289
X51.415Y20.118Z-0.308
X51.601Y20.043Z-0.327
X51.788Y19.973Z-0.344
X51.977Y19.908Z-0.361
X52.167Y19.847Z-0.376
X52.36Y19.791Z-0.391
X52.553Y19.74Z-0.405
X52.747Y19.694Z-0.417
X52.943Y19.652Z-0.428
X53.14Y19.616Z-0.439
X53.337Y19.584Z-0.448
X53.535Y19.558Z-0.457
X53.734Y19.536Z-0.463
X53.934Y19.52Z-0.47
X54.133Y19.508Z-0.475
X54.333Y19.501Z-0.475
X54.533Y19.5Z-0.47
X54.733Y19.503Z-0.463
X54.933Y19.511Z-0.457
X55.132Y19.525Z-0.448
X55.332Y19.543Z-0.439
X55.53Y19.566Z-0.428
X55.728Y19.594Z-0.416
X55.925Y19.628Z-0.404
X56.122Y19.666Z-0.39
X56.317Y19.709Z-0.375
X56.511Y19.757Z-0.359
X56.704Y19.809Z-0.342
X56.896Y19.867Z-0.324
X57.086Y19.929Z-0.305
X57.274Y19.996Z-0.285
X57.461Y20.068Z-0.264
X57.646Y20.144Z-0.242
X57.829Y20.225Z-0.219
X58.009Y20.311Z-0.195
X58.188Y20.401Z-0.17
X58.364Y20.495Z-0.144
X58.538Y20.594Z-0.118
X58.71Y20.697Z-0.09
X58.878Y20.804Z-0.061
X59.044Y20.916Z-0.033
X59.208Y21.032Z-0.002
G0Z2
X59.098Y34.046
G1Z-0.025F75
X58.933Y34.159Z-0.055F150
X58.765Y34.267Z-0.083
X58.595Y34.372Z-0.112
X58.422Y34.472Z-0.138
X58.246Y34.568Z-0.164
X58.068Y34.659Z-0.189
X57.888Y34.746Z-0.213
X57.706Y34.829Z-0.237
X57.522Y34.907Z-0.259
X57.336Y34.98Z-0.281
X57.148Y35.048Z-0.301
X56.958Y35.112Z-0.32
X56.767Y35.171Z-0.339
X56.575Y35.226Z-0.356
X56.381Y35.275Z-0.373
X56.186Y35.32Z-0.388
X55.99Y35.359Z-0.402
X55.793Y35.394Z-0.415
X55.595Y35.424Z-0.427
X55.397Y35.449Z-0.438
X55.198Y35.469Z-0.447
X54.998Y35.484Z-0.457
X54.799Y35.494Z-0.464
X54.599Y35.499Z-0.471
X54.399Y35.499Z-0.476
X54.199Y35.494Z-0.479
X53.999Y35.484Z-0.475
X53.8Y35.469Z-0.468
X53.601Y35.449Z-0.462
X53.402Y35.424Z-0.453
X53.204Y35.394Z-0.444
X53.007Y35.359Z-0.435
X52.811Y35.319Z-0.423
X52.616Y35.275Z-0.411
X52.423Y35.225Z-0.398
X52.23Y35.171Z-0.384
X52.039Y35.112Z-0.369
X51.85Y35.048Z-0.352
X51.662Y34.979Z-0.336
X51.476Y34.906Z-0.317
X51.291Y34.828Z-0.298
X51.109Y34.746Z-0.278
X50.929Y34.659Z-0.257
X50.751Y34.567Z-0.236
X50.576Y34.471Z-0.213
X50.403Y34.371Z-0.189
X50.232Y34.266Z-0.166
X50.065Y34.158Z-0.14
X49.899Y34.045Z-0.115
X49.737Y33.928Z-0.088
X49.578Y33.807Z-0.062
X49.422Y33.682Z-0.035
X49.269Y33.553Z-0.006
G0Z2
X49.309Y20.895
G1Z-0.011F75
X49.468Y20.773Z-0.04F150
X49.63Y20.655Z-0.068
X49.794Y20.541Z-0.095
X49.961Y20.431Z-0.122
X50.131Y20.325Z-0.147
X50.303Y20.223Z-0.173
X50.477Y20.125Z-0.197
X50.654Y20.032Z-0.22
X50.833Y19.942Z-0.243
X51.014Y19.857Z-0.264
X51.196Y19.776Z-0.285
X51.381Y19.7Z-0.304
X51.568Y19.628Z-0.323
X51.756Y19.56Z-0.341
X51.946Y19.497Z-0.358
X52.137Y19.439Z-0.374
X52.33Y19.385Z-0.388
X52.524Y19.335Z-0.402
X52.718Y19.29Z-0.415
X52.914Y19.25Z-0.426
X53.111Y19.215Z-0.437
X53.309Y19.184Z-0.446
X53.507Y19.158Z-0.455
X53.706Y19.137Z-0.462
X53.905Y19.121Z-0.469
X54.105Y19.109Z-0.474
X54.305Y19.102Z-0.475
X54.505Y19.099Z-0.471
X54.705Y19.102Z-0.464
X54.905Y19.109Z-0.458
X55.104Y19.121Z-0.449
X55.304Y19.138Z-0.44
X55.502Y19.16Z-0.429
X55.701Y19.186Z-0.418
X55.898Y19.217Z-0.406
X56.095Y19.252Z-0.391
X56.291Y19.293Z-0.377
X56.486Y19.338Z-0.361
X56.68Y19.387Z-0.344
X56.872Y19.442Z-0.326
X57.063Y19.5Z-0.307
X57.253Y19.564Z-0.287
X57.441Y19.631Z-0.266
X57.628Y19.704Z-0.244
X57.812Y19.78Z-0.22
X57.995Y19.861Z-0.196
X58.176Y19.947Z-0.172
X58.355Y20.036Z-0.145
X58.531Y20.13Z-0.118
X58.706Y20.228Z-0.09
X58.878Y20.331Z-0.061
X59.047Y20.437Z-0.032
X59.214Y20.547Z-0
G0Z2
X59.196Y34.464
G1Z-0.006F75
X59.029Y34.574Z-0.038F150
X58.859Y34.679Z-0.067
X58.687Y34.781Z-0.096
X58.513Y34.879Z-0.124
X58.336Y34.972Z-0.15
X58.157Y35.062Z-0.177
X57.976Y35.146Z-0.201
X57.793Y35.227Z-0.226
X57.608Y35.303Z-0.249
X57.421Y35.375Z-0.271
X57.233Y35.442Z-0.292
X57.043Y35.505Z-0.312
X56.852Y35.563Z-0.331
X56.659Y35.617Z-0.348
X56.465Y35.666Z-0.365
X56.27Y35.711Z-0.381
X56.074Y35.751Z-0.396
X55.877Y35.786Z-0.41
X55.68Y35.816Z-0.422
X55.481Y35.842Z-0.433
X55.282Y35.863Z-0.443
X55.083Y35.879Z-0.453
X54.883Y35.891Z-0.461
X54.684Y35.898Z-0.468
X54.484Y35.9Z-0.474
X54.284Y35.897Z-0.478
X54.084Y35.889Z-0.476
X53.884Y35.877Z-0.471
X53.685Y35.86Z-0.464
X53.486Y35.838Z-0.457
X53.288Y35.812Z-0.448
X53.09Y35.78Z-0.439
X52.894Y35.745Z-0.428
X52.698Y35.704Z-0.416
X52.503Y35.659Z-0.404
X52.309Y35.609Z-0.389
X52.117Y35.554Z-0.375
X51.926Y35.495Z-0.359
X51.736Y35.432Z-0.342
X51.548Y35.364Z-0.324
X51.362Y35.291Z-0.305
X51.177Y35.214Z-0.286
X50.994Y35.133Z-0.264
X50.813Y35.048Z-0.243
X50.635Y34.958Z-0.22
X50.458Y34.864Z-0.197
X50.284Y34.765Z-0.173
X50.112Y34.663Z-0.147
X49.943Y34.556Z-0.122
X49.776Y34.446Z-0.095
X49.612Y34.331Z-0.067
X49.451Y34.213Z-0.04
X49.293Y34.091Z-0.01
G0Z2
X49.413Y20.318
G1Z-0.03F75
X49.578Y20.205Z-0.058F150
X49.745Y20.095Z-0.086
X49.914Y19.988Z-0.114
X50.086Y19.886Z-0.14
X50.26Y19.788Z-0.166
X50.437Y19.693Z-0.191
X50.615Y19.603Z-0.215
X50.796Y19.517Z-0.238
X50.978Y19.435Z-0.259
X51.162Y19.357Z-0.281
X51.348Y19.283Z-0.301
X51.536Y19.214Z-0.32
X51.725Y19.148Z-0.338
X51.915Y19.088Z-0.355
X52.107Y19.031Z-0.371
X52.3Y18.979Z-0.386
X52.494Y18.931Z-0.4
X52.69Y18.888Z-0.413
X52.886Y18.849Z-0.424
X53.083Y18.814Z-0.436
X53.28Y18.784Z-0.445
X53.479Y18.759Z-0.454
X53.678Y18.738Z-0.461
X53.877Y18.722Z-0.467
X54.077Y18.71Z-0.473
X54.277Y18.702Z-0.475
X54.476Y18.7Z-0.471
X54.676Y18.701Z-0.465
X54.876Y18.708Z-0.458
X55.076Y18.718Z-0.45
X55.275Y18.734Z-0.441
X55.474Y18.754Z-0.431
X55.673Y18.778Z-0.419
X55.871Y18.807Z-0.407
X56.068Y18.84Z-0.393
X56.264Y18.878Z-0.379
X56.46Y18.921Z-0.363
X56.654Y18.967Z-0.346
X56.848Y19.019Z-0.328
X57.04Y19.074Z-0.309
X57.231Y19.134Z-0.289
X57.42Y19.198Z-0.268
X57.608Y19.267Z-0.246
X57.794Y19.34Z-0.223
X57.979Y19.417Z-0.198
X58.162Y19.498Z-0.173
X58.342Y19.583Z-0.146
X58.521Y19.672Z-0.119
X58.698Y19.766Z-0.091
X58.873Y19.863Z-0.061
X59.045Y19.965Z-0.031
X59.215Y20.07Z0
G0Z2
X59.124Y34.986
G1Z-0.02F75
X58.953Y35.09Z-0.051F150
X58.779Y35.189Z-0.08
X58.603Y35.284Z-0.11
X58.425Y35.375Z-0.137
X58.245Y35.463Z-0.164
X58.063Y35.546Z-0.19
X57.879Y35.625Z-0.214
X57.694Y35.699Z-0.238
X57.507Y35.77Z-0.26
X57.318Y35.836Z-0.283
X57.128Y35.898Z-0.303
X56.936Y35.955Z-0.322
X56.743Y36.009Z-0.341
X56.55Y36.057Z-0.358
X56.354Y36.102Z-0.375
X56.159Y36.142Z-0.389
X55.962Y36.177Z-0.404
X55.764Y36.208Z-0.416
X55.566Y36.235Z-0.428
X55.367Y36.257Z-0.439
X55.168Y36.274Z-0.449
X54.968Y36.287Z-0.458
X54.768Y36.295Z-0.465
X54.569Y36.299Z-0.471
X54.369Y36.298Z-0.477
X54.169Y36.293Z-0.478
X53.969Y36.283Z-0.473
X53.769Y36.269Z-0.467
X53.57Y36.25Z-0.46
X53.372Y36.227Z-0.452
X53.174Y36.199Z-0.443
X52.976Y36.167Z-0.433
X52.78Y36.13Z-0.421
X52.584Y36.088Z-0.409
X52.389Y36.043Z-0.395
X52.196Y35.993Z-0.381
X52.003Y35.938Z-0.365
X51.812Y35.879Z-0.348
X51.622Y35.816Z-0.332
X51.434Y35.748Z-0.312
X51.248Y35.677Z-0.293
X51.063Y35.601Z-0.272
X50.879Y35.52Z-0.251
X50.698Y35.436Z-0.229
X50.519Y35.348Z-0.205
X50.341Y35.255Z-0.181
X50.166Y35.159Z-0.155
X49.993Y35.058Z-0.129
X49.823Y34.954Z-0.102
X49.654Y34.846Z-0.074
X49.489Y34.734Z-0.046
X49.326Y34.618Z-0.016
G0Z2
X49.362Y19.868
G1Z-0.02F75
X49.529Y19.758Z-0.05F150
X49.698Y19.652Z-0.078
X49.87Y19.549Z-0.107
X50.044Y19.45Z-0.133
X50.22Y19.356Z-0.16
X50.398Y19.264Z-0.185
X50.578Y19.177Z-0.209
X50.76Y19.094Z-0.233
X50.943Y19.015Z-0.255
X51.129Y18.939Z-0.277
X51.315Y18.868Z-0.297
X51.504Y18.801Z-0.316
X51.694Y18.738Z-0.335
X51.885Y18.679Z-0.352
X52.077Y18.624Z-0.368
X52.271Y18.574Z-0.383
X52.465Y18.527Z-0.397
X52.661Y18.485Z-0.411
X52.857Y18.447Z-0.422
X53.054Y18.414Z-0.434
X53.252Y18.384Z-0.443
X53.45Y18.359Z-0.452
X53.649Y18.339Z-0.46
X53.849Y18.323Z-0.466
X54.048Y18.311Z-0.472
X54.248Y18.303Z-0.476
X54.448Y18.3Z-0.472
X54.648Y18.301Z-0.465
X54.848Y18.306Z-0.459
X55.048Y18.316Z-0.451
X55.247Y18.33Z-0.442
X55.446Y18.348Z-0.432
X55.645Y18.371Z-0.42
X55.843Y18.398Z-0.408
X56.041Y18.43Z-0.395
X56.238Y18.465Z-0.38
X56.434Y18.505Z-0.365
X56.629Y18.549Z-0.348
X56.823Y18.598Z-0.331
X57.016Y18.65Z-0.311
X57.207Y18.707Z-0.291
X57.398Y18.768Z-0.27
X57.587Y18.833Z-0.248
X57.775Y18.902Z-0.225
X57.961Y18.975Z-0.2
X58.145Y19.053Z-0.175
X58.328Y19.134Z-0.148
X58.509Y19.219Z-0.121
X58.688Y19.308Z-0.092
X58.865Y19.401Z-0.062
X59.04Y19.498Z-0.032
X59.213Y19.599Z0
G0Z2
X59.218Y35.398
G1Z-0.002F75
X59.045Y35.498Z-0.034F150
X58.87Y35.595Z-0.065
X58.693Y35.688Z-0.094
X58.514Y35.778Z-0.123
X58.333Y35.863Z-0.15
X58.15Y35.944Z-0.178
X57.966Y36.022Z-0.202
X57.78Y36.095Z-0.227
X57.592Y36.164Z-0.25
X57.403Y36.229Z-0.273
X57.213Y36.29Z-0.294
X57.021Y36.347Z-0.314
X56.828Y36.4Z-0.333
X56.634Y36.449Z-0.35
X56.439Y36.493Z-0.367
X56.243Y36.533Z-0.383
X56.046Y36.569Z-0.397
X55.849Y36.6Z-0.411
X55.65Y36.627Z-0.423
X55.452Y36.65Z-0.435
X55.253Y36.669Z-0.444
X55.053Y36.683Z-0.454
X54.853Y36.693Z-0.462
X54.653Y36.698Z-0.468
X54.453Y36.699Z-0.475
X54.254Y36.696Z-0.479
X54.054Y36.689Z-0.475
X53.854Y36.677Z-0.47
X53.655Y36.661Z-0.463
X53.456Y36.64Z-0.456
X53.257Y36.615Z-0.446
X53.059Y36.586Z-0.437
X52.862Y36.553Z-0.426
X52.666Y36.515Z-0.414
X52.47Y36.473Z-0.401
X52.276Y36.427Z-0.387
X52.082Y36.376Z-0.372
X51.89Y36.322Z-0.355
X51.699Y36.263Z-0.338
X51.509Y36.2Z-0.32
X51.32Y36.133Z-0.3
X51.133Y36.062Z-0.28
X50.948Y35.986Z-0.259
X50.765Y35.907Z-0.237
X50.583Y35.824Z-0.213
X50.403Y35.737Z-0.189
X50.225Y35.646Z-0.164
X50.048Y35.551Z-0.137
X49.874Y35.452Z-0.111
X49.703Y35.35Z-0.082
X49.533Y35.244Z-0.053
X49.366Y35.134Z-0.023
G0Z2
X49.313Y19.421
G1Z-0.01F75
X49.482Y19.315Z-0.041F150
X49.654Y19.212Z-0.07
X49.827Y19.113Z-0.1
X50.003Y19.018Z-0.127
X50.181Y18.926Z-0.154
X50.36Y18.838Z-0.18
X50.542Y18.753Z-0.204
X50.725Y18.673Z-0.229
X50.909Y18.596Z-0.251
X51.096Y18.523Z-0.273
X51.283Y18.454Z-0.293
X51.472Y18.389Z-0.313
X51.663Y18.328Z-0.332
X51.855Y18.271Z-0.349
X52.047Y18.218Z-0.366
X52.241Y18.169Z-0.381
X52.436Y18.124Z-0.395
X52.632Y18.083Z-0.409
X52.828Y18.046Z-0.42
X53.026Y18.013Z-0.432
X53.224Y17.985Z-0.441
X53.422Y17.96Z-0.451
X53.621Y17.94Z-0.459
X53.82Y17.924Z-0.465
X54.02Y17.911Z-0.471
X54.22Y17.904Z-0.475
X54.42Y17.9Z-0.472
X54.62Y17.9Z-0.466
X54.82Y17.905Z-0.459
X55.02Y17.914Z-0.452
X55.219Y17.927Z-0.443
X55.418Y17.944Z-0.433
X55.617Y17.965Z-0.422
X55.816Y17.99Z-0.41
X56.014Y18.02Z-0.396
X56.211Y18.053Z-0.382
X56.407Y18.091Z-0.367
X56.603Y18.133Z-0.35
X56.797Y18.179Z-0.333
X56.991Y18.228Z-0.313
X57.184Y18.282Z-0.293
X57.375Y18.34Z-0.272
X57.565Y18.402Z-0.25
X57.754Y18.468Z-0.227
X57.941Y18.538Z-0.202
X58.127Y18.611Z-0.177
X58.312Y18.689Z-0.15
X58.495Y18.77Z-0.123
X58.675Y18.855Z-0.094
X58.855Y18.944Z-0.064
X59.032Y19.037Z-0.033
X59.207Y19.133Z-0
G0Z2
X59.136Y35.906
G1Z-0.017F75
X58.96Y36Z-0.049F150
X58.782Y36.091Z-0.079
X58.602Y36.179Z-0.109
X58.42Y36.262Z-0.137
X58.237Y36.342Z-0.165
X58.052Y36.418Z-0.191
X57.865Y36.49Z-0.216
X57.677Y36.558Z-0.24
X57.488Y36.622Z-0.262
X57.297Y36.683Z-0.285
X57.105Y36.739Z-0.305
X56.912Y36.791Z-0.324
X56.718Y36.84Z-0.343
X56.523Y36.884Z-0.36
X56.327Y36.924Z-0.377
X56.13Y36.96Z-0.391
X55.933Y36.992Z-0.406
X55.735Y37.02Z-0.418
X55.536Y37.043Z-0.43
X55.337Y37.063Z-0.44
X55.138Y37.078Z-0.45
X54.938Y37.089Z-0.459
X54.738Y37.097Z-0.465
X54.538Y37.099Z-0.472
X54.338Y37.098Z-0.477
X54.139Y37.093Z-0.477
X53.939Y37.083Z-0.472
X53.739Y37.069Z-0.466
X53.54Y37.051Z-0.459
X53.341Y37.029Z-0.45
X53.143Y37.003Z-0.441
X52.945Y36.973Z-0.43
X52.748Y36.938Z-0.419
X52.552Y36.9Z-0.407
X52.357Y36.857Z-0.392
X52.162Y36.811Z-0.378
X51.969Y36.76Z-0.362
X51.776Y36.705Z-0.345
X51.585Y36.646Z-0.327
X51.395Y36.584Z-0.308
X51.207Y36.517Z-0.289
X51.02Y36.447Z-0.267
X50.834Y36.372Z-0.245
X50.65Y36.294Z-0.222
X50.468Y36.212Z-0.197
X50.287Y36.126Z-0.173
X50.108Y36.036Z-0.146
X49.931Y35.943Z-0.119
X49.756Y35.846Z-0.091
X49.583Y35.745Z-0.062
X49.413Y35.641Z-0.032
X49.244Y35.533Z-0
G0Z2
X49.266Y18.978
G1Z-0.001F75
X49.437Y18.875Z-0.033F150
X49.611Y18.776Z-0.063
X49.786Y18.68Z-0.092
X49.964Y18.587Z-0.121
X50.143Y18.498Z-0.148
X50.324Y18.413Z-0.175
X50.506Y18.331Z-0.199
X50.69Y18.253Z-0.224
X50.876Y18.179Z-0.246
X51.063Y18.108Z-0.268
X51.252Y18.042Z-0.29
X51.441Y17.979Z-0.309
X51.632Y17.919Z-0.329
X51.825Y17.864Z-0.346
X52.018Y17.812Z-0.363
X52.212Y17.765Z-0.378
X52.407Y17.721Z-0.392
X52.603Y17.681Z-0.406
X52.8Y17.645Z-0.418
X52.997Y17.613Z-0.43
X53.195Y17.585Z-0.44
X53.394Y17.561Z-0.449
X53.593Y17.541Z-0.457
X53.792Y17.525Z-0.464
X53.992Y17.512Z-0.47
X54.192Y17.504Z-0.475
X54.392Y17.5Z-0.472
X54.592Y17.5Z-0.467
X54.791Y17.504Z-0.46
X54.991Y17.512Z-0.453
X55.191Y17.523Z-0.444
X55.39Y17.539Z-0.434
X55.589Y17.559Z-0.423
X55.788Y17.583Z-0.411
X55.986Y17.611Z-0.398
X56.183Y17.642Z-0.384
X56.38Y17.678Z-0.369
X56.576Y17.718Z-0.352
X56.772Y17.761Z-0.334
X56.966Y17.808Z-0.315
X57.159Y17.86Z-0.296
X57.351Y17.915Z-0.275
X57.543Y17.974Z-0.252
X57.732Y18.036Z-0.23
X57.921Y18.103Z-0.205
X58.108Y18.173Z-0.179
X58.294Y18.247Z-0.152
X58.478Y18.325Z-0.125
X58.661Y18.407Z-0.096
X58.842Y18.492Z-0.065
X59.021Y18.58Z-0.035
X59.199Y18.672Z-0.001
G0Z2
X59.227Y36.312
G1Z0F75
X59.05Y36.404Z-0.033F150
X58.871Y36.494Z-0.064
X58.69Y36.579Z-0.094
X58.508Y36.661Z-0.124
X58.323Y36.74Z-0.151
X58.138Y36.814Z-0.179
X57.951Y36.885Z-0.204
X57.763Y36.952Z-0.229
X57.573Y37.016Z-0.252
X57.382Y37.075Z-0.275
X57.19Y37.131Z-0.296
X56.997Y37.183Z-0.316
X56.803Y37.231Z-0.335
X56.607Y37.275Z-0.352
X56.412Y37.315Z-0.37
X56.215Y37.351Z-0.385
X56.018Y37.384Z-0.399
X55.82Y37.412Z-0.413
X55.621Y37.436Z-0.425
X55.422Y37.457Z-0.436
X55.223Y37.473Z-0.446
X55.023Y37.486Z-0.455
X54.823Y37.494Z-0.462
X54.623Y37.499Z-0.469
X54.423Y37.499Z-0.475
X54.223Y37.496Z-0.479
X54.024Y37.488Z-0.475
X53.824Y37.477Z-0.468
X53.625Y37.461Z-0.462
X53.425Y37.442Z-0.454
X53.227Y37.418Z-0.445
X53.029Y37.391Z-0.435
X52.831Y37.359Z-0.423
X52.634Y37.324Z-0.412
X52.438Y37.285Z-0.398
X52.243Y37.242Z-0.384
X52.049Y37.195Z-0.369
X51.855Y37.144Z-0.352
X51.663Y37.089Z-0.335
X51.472Y37.03Z-0.316
X51.282Y36.968Z-0.296
X51.093Y36.901Z-0.275
X50.906Y36.831Z-0.253
X50.72Y36.758Z-0.231
X50.535Y36.68Z-0.206
X50.353Y36.599Z-0.182
X50.171Y36.514Z-0.155
X49.992Y36.426Z-0.128
X49.814Y36.334Z-0.1
X49.639Y36.239Z-0.071
X49.465Y36.14Z-0.041
X49.293Y36.037Z-0.009
G0Z2
X49.394Y18.439
G1Z-0.024F75
X49.569Y18.342Z-0.055F150
X49.746Y18.249Z-0.085
X49.925Y18.159Z-0.115
X50.106Y18.073Z-0.142
X50.288Y17.99Z-0.169
X50.471Y17.911Z-0.194
X50.657Y17.836Z-0.219
X50.843Y17.763Z-0.242
X51.031Y17.695Z-0.264
X51.22Y17.63Z-0.286
X51.411Y17.569Z-0.306
X51.602Y17.511Z-0.325
X51.795Y17.457Z-0.343
X51.988Y17.407Z-0.36
X52.183Y17.361Z-0.376
X52.378Y17.318Z-0.39
X52.574Y17.279Z-0.404
X52.771Y17.244Z-0.416
X52.969Y17.213Z-0.428
X53.167Y17.185Z-0.438
X53.365Y17.162Z-0.447
X53.564Y17.142Z-0.456
X53.764Y17.126Z-0.463
X53.963Y17.113Z-0.469
X54.163Y17.105Z-0.474
X54.363Y17.1Z-0.473
X54.563Y17.1Z-0.467
X54.763Y17.103Z-0.461
X54.963Y17.11Z-0.454
X55.163Y17.121Z-0.445
X55.362Y17.135Z-0.435
X55.561Y17.154Z-0.424
X55.76Y17.176Z-0.412
X55.958Y17.202Z-0.4
X56.156Y17.232Z-0.385
X56.353Y17.266Z-0.371
X56.55Y17.304Z-0.354
X56.745Y17.345Z-0.336
X56.94Y17.39Z-0.318
X57.134Y17.439Z-0.298
X57.327Y17.491Z-0.277
X57.519Y17.548Z-0.255
X57.71Y17.607Z-0.232
X57.9Y17.671Z-0.207
X58.088Y17.738Z-0.182
X58.275Y17.809Z-0.155
X58.461Y17.883Z-0.127
X58.645Y17.961Z-0.098
X58.827Y18.043Z-0.067
X59.008Y18.128Z-0.037
X59.188Y18.216Z-0.003
G0Z2
X59.139Y36.807
G1Z-0.016F75
X58.959Y36.895Z-0.049F150
X58.777Y36.979Z-0.08
X58.594Y37.059Z-0.11
X58.41Y37.136Z-0.138
X58.224Y37.21Z-0.166
X58.036Y37.28Z-0.192
X57.848Y37.346Z-0.218
X57.658Y37.408Z-0.242
X57.467Y37.467Z-0.265
X57.274Y37.523Z-0.287
X57.081Y37.574Z-0.307
X56.887Y37.622Z-0.327
X56.692Y37.666Z-0.345
X56.496Y37.706Z-0.362
X56.299Y37.743Z-0.378
X56.102Y37.775Z-0.393
X55.904Y37.804Z-0.407
X55.706Y37.829Z-0.419
X55.507Y37.851Z-0.431
X55.308Y37.868Z-0.442
X55.108Y37.882Z-0.451
X54.908Y37.891Z-0.459
X54.708Y37.897Z-0.466
X54.508Y37.9Z-0.473
X54.308Y37.898Z-0.477
X54.108Y37.892Z-0.476
X53.909Y37.883Z-0.471
X53.709Y37.869Z-0.464
X53.51Y37.852Z-0.458
X53.311Y37.831Z-0.448
X53.112Y37.807Z-0.439
X52.915Y37.778Z-0.428
X52.717Y37.746Z-0.417
X52.52Y37.71Z-0.404
X52.325Y37.67Z-0.39
X52.129Y37.626Z-0.375
X51.935Y37.578Z-0.359
X51.742Y37.527Z-0.342
X51.549Y37.472Z-0.323
X51.358Y37.414Z-0.304
X51.168Y37.352Z-0.284
X50.979Y37.286Z-0.262
X50.792Y37.216Z-0.24
X50.606Y37.143Z-0.216
X50.421Y37.066Z-0.191
X50.238Y36.986Z-0.165
X50.056Y36.902Z-0.138
X49.876Y36.815Z-0.111
X49.698Y36.725Z-0.081
X49.521Y36.631Z-0.051
X49.347Y36.533Z-0.019
G0Z2
X49.353Y18.005
G1Z-0.016F75
X49.53Y17.911Z-0.048F150
X49.708Y17.821Z-0.078
X49.888Y17.734Z-0.109
X50.07Y17.65Z-0.136
X50.253Y17.57Z-0.163
X50.437Y17.493Z-0.189
X50.623Y17.419Z-0.214
X50.811Y17.349Z-0.238
X50.999Y17.282Z-0.26
X51.189Y17.219Z-0.283
X51.38Y17.16Z-0.302
X51.572Y17.104Z-0.322
X51.765Y17.051Z-0.34
X51.959Y17.003Z-0.357
X52.154Y16.957Z-0.373
X52.349Y16.916Z-0.388
X52.546Y16.878Z-0.402
X52.743Y16.843Z-0.414
X52.94Y16.813Z-0.426
X53.139Y16.786Z-0.437
X53.337Y16.762Z-0.446
X53.536Y16.743Z-0.455
X53.736Y16.727Z-0.461
X53.935Y16.714Z-0.468
X54.135Y16.706Z-0.473
X54.335Y16.701Z-0.473
X54.535Y16.7Z-0.468
X54.735Y16.702Z-0.461
X54.935Y16.708Z-0.455
X55.135Y16.718Z-0.446
X55.334Y16.732Z-0.436
X55.533Y16.749Z-0.426
X55.732Y16.77Z-0.414
X55.931Y16.795Z-0.402
X56.129Y16.823Z-0.387
X56.326Y16.855Z-0.372
X56.523Y16.891Z-0.356
X56.719Y16.93Z-0.338
X56.914Y16.973Z-0.32
X57.109Y17.019Z-0.3
X57.302Y17.07Z-0.28
X57.495Y17.123Z-0.257
X57.687Y17.181Z-0.235
X57.877Y17.241Z-0.21
X58.067Y17.306Z-0.184
X58.255Y17.373Z-0.158
X58.442Y17.445Z-0.129
X58.627Y17.519Z-0.101
X58.811Y17.598Z-0.07
X58.994Y17.679Z-0.039
X59.175Y17.764Z-0.005
G0Z2
X59.047Y37.295
G1Z-0.033F75
X58.865Y37.378Z-0.065F150
X58.681Y37.457Z-0.096
X58.496Y37.533Z-0.125
X58.309Y37.605Z-0.153
X58.122Y37.674Z-0.181
X57.933Y37.739Z-0.206
X57.742Y37.801Z-0.232
X57.551Y37.859Z-0.254
X57.359Y37.914Z-0.277
X57.165Y37.965Z-0.298
X56.971Y38.013Z-0.318
X56.776Y38.057Z-0.337
X56.58Y38.097Z-0.354
X56.384Y38.134Z-0.372
X56.186Y38.167Z-0.386
X55.989Y38.196Z-0.401
X55.79Y38.222Z-0.414
X55.591Y38.244Z-0.426
X55.392Y38.262Z-0.437
X55.193Y38.277Z-0.447
X54.993Y38.288Z-0.456
X54.793Y38.295Z-0.463
X54.593Y38.299Z-0.47
X54.393Y38.299Z-0.475
X54.193Y38.295Z-0.478
X53.993Y38.288Z-0.473
X53.794Y38.276Z-0.467
X53.594Y38.261Z-0.46
X53.395Y38.243Z-0.452
X53.196Y38.221Z-0.443
X52.998Y38.195Z-0.433
X52.8Y38.165Z-0.421
X52.603Y38.132Z-0.41
X52.407Y38.095Z-0.396
X52.211Y38.054Z-0.381
X52.016Y38.01Z-0.366
X51.822Y37.962Z-0.348
X51.628Y37.911Z-0.331
X51.436Y37.856Z-0.312
X51.245Y37.797Z-0.292
X51.055Y37.735Z-0.27
X50.866Y37.67Z-0.248
X50.678Y37.601Z-0.225
X50.492Y37.528Z-0.2
X50.307Y37.452Z-0.175
X50.123Y37.373Z-0.148
X49.941Y37.29Z-0.12
X49.76Y37.204Z-0.091
X49.581Y37.115Z-0.061
X49.404Y37.022Z-0.03
G0Z2
X49.313Y17.573
G1Z-0.008F75
X49.491Y17.482Z-0.041F150
X49.67Y17.394Z-0.072
X49.852Y17.309Z-0.102
X50.034Y17.228Z-0.13
X50.218Y17.15Z-0.158
X50.404Y17.075Z-0.184
X50.591Y17.004Z-0.209
X50.779Y16.936Z-0.234
X50.968Y16.871Z-0.256
X51.158Y16.81Z-0.279
X51.35Y16.752Z-0.299
X51.542Y16.697Z-0.318
X51.735Y16.646Z-0.337
X51.93Y16.598Z-0.354
X52.125Y16.554Z-0.371
X52.321Y16.514Z-0.385
X52.517Y16.476Z-0.4
X52.714Y16.443Z-0.412
X52.912Y16.413Z-0.424
X53.11Y16.386Z-0.435
X53.309Y16.363Z-0.444
X53.508Y16.343Z-0.453
X53.707Y16.328Z-0.46
X53.907Y16.315Z-0.467
X54.107Y16.306Z-0.472
X54.307Y16.301Z-0.473
X54.507Y16.3Z-0.469
X54.707Y16.301Z-0.462
X54.906Y16.307Z-0.455
X55.106Y16.316Z-0.447
X55.306Y16.329Z-0.437
X55.505Y16.345Z-0.427
X55.704Y16.364Z-0.415
X55.903Y16.388Z-0.403
X56.101Y16.415Z-0.389
X56.299Y16.445Z-0.374
X56.496Y16.479Z-0.358
X56.692Y16.516Z-0.34
X56.888Y16.557Z-0.322
X57.083Y16.602Z-0.302
X57.277Y16.649Z-0.282
X57.471Y16.701Z-0.26
X57.663Y16.756Z-0.237
X57.854Y16.814Z-0.212
X58.045Y16.875Z-0.187
X58.234Y16.94Z-0.16
X58.422Y17.009Z-0.132
X58.608Y17.08Z-0.104
X58.794Y17.155Z-0.072
X58.978Y17.234Z-0.041
X59.16Y17.315Z-0.007
G0Z2
X59.135Y37.695
G1Z-0.016F75
X58.952Y37.777Z-0.05F150
X58.768Y37.854Z-0.081
X58.582Y37.929Z-0.112
X58.395Y38Z-0.14
X58.207Y38.068Z-0.168
X58.018Y38.133Z-0.195
X57.827Y38.194Z-0.22
X57.636Y38.251Z-0.244
X57.443Y38.306Z-0.267
X57.25Y38.357Z-0.289
X57.056Y38.404Z-0.309
X56.86Y38.448Z-0.329
X56.665Y38.488Z-0.347
X56.468Y38.525Z-0.364
X56.271Y38.559Z-0.38
X56.073Y38.588Z-0.395
X55.875Y38.615Z-0.409
X55.676Y38.638Z-0.421
X55.477Y38.657Z-0.433
X55.278Y38.672Z-0.443
X55.078Y38.685Z-0.452
X54.878Y38.693Z-0.46
X54.678Y38.698Z-0.467
X54.478Y38.699Z-0.473
X54.278Y38.697Z-0.477
X54.078Y38.692Z-0.475
X53.879Y38.682Z-0.47
X53.679Y38.669Z-0.463
X53.48Y38.653Z-0.456
X53.281Y38.633Z-0.447
X53.082Y38.609Z-0.438
X52.884Y38.582Z-0.426
X52.686Y38.552Z-0.414
X52.489Y38.518Z-0.401
X52.293Y38.48Z-0.387
X52.097Y38.439Z-0.372
X51.902Y38.394Z-0.355
X51.708Y38.346Z-0.338
X51.515Y38.294Z-0.319
X51.322Y38.239Z-0.3
X51.131Y38.181Z-0.279
X50.941Y38.119Z-0.257
X50.752Y38.054Z-0.235
X50.564Y37.985Z-0.21
X50.377Y37.913Z-0.185
X50.192Y37.838Z-0.158
X50.008Y37.76Z-0.13
X49.826Y37.678Z-0.102
X49.645Y37.593Z-0.071
X49.465Y37.504Z-0.041
X49.287Y37.413Z-0.008
G0Z2
X49.273Y17.143
G1Z-0.001F75
X49.453Y17.055Z-0.034F150
X49.634Y16.969Z-0.065
X49.816Y16.887Z-0.096
X50Y16.808Z-0.125
X50.185Y16.732Z-0.152
X50.371Y16.659Z-0.179
X50.558Y16.59Z-0.205
X50.747Y16.523Z-0.23
X50.937Y16.46Z-0.252
X51.128Y16.4Z-0.275
X51.32Y16.344Z-0.295
X51.512Y16.291Z-0.315
X51.706Y16.241Z-0.334
X51.901Y16.194Z-0.351
X52.096Y16.151Z-0.368
X52.292Y16.112Z-0.383
X52.488Y16.075Z-0.397
X52.686Y16.042Z-0.41
X52.884Y16.013Z-0.422
X53.082Y15.986Z-0.433
X53.281Y15.964Z-0.443
X53.48Y15.944Z-0.452
X53.679Y15.929Z-0.459
X53.879Y15.916Z-0.465
X54.078Y15.907Z-0.471
X54.278Y15.902Z-0.473
X54.478Y15.9Z-0.469
X54.678Y15.901Z-0.463
X54.878Y15.906Z-0.456
X55.078Y15.914Z-0.448
X55.278Y15.926Z-0.438
X55.477Y15.941Z-0.428
X55.676Y15.959Z-0.417
X55.875Y15.981Z-0.405
X56.073Y16.007Z-0.39
X56.271Y16.036Z-0.376
X56.469Y16.068Z-0.36
X56.665Y16.104Z-0.343
X56.862Y16.143Z-0.325
X57.057Y16.185Z-0.305
X57.252Y16.231Z-0.285
X57.446Y16.28Z-0.262
X57.639Y16.332Z-0.24
X57.831Y16.388Z-0.215
X58.022Y16.447Z-0.19
X58.212Y16.51Z-0.163
X58.401Y16.575Z-0.135
X58.588Y16.644Z-0.106
X58.775Y16.716Z-0.075
X58.96Y16.792Z-0.044
X59.144Y16.87Z-0.01
G0Z2
X59.222Y38.095
G1Z0F75
X59.039Y38.174Z-0.034F150
X58.854Y38.251Z-0.066
X58.668Y38.325Z-0.097
X58.481Y38.395Z-0.127
X58.292Y38.462Z-0.155
X58.103Y38.526Z-0.183
X57.912Y38.586Z-0.209
X57.72Y38.643Z-0.234
X57.528Y38.697Z-0.257
X57.334Y38.748Z-0.28
X57.14Y38.795Z-0.3
X56.945Y38.839Z-0.32
X56.749Y38.879Z-0.339
X56.552Y38.916Z-0.357
X56.355Y38.95Z-0.374
X56.158Y38.98Z-0.388
X55.959Y39.007Z-0.403
X55.761Y39.031Z-0.416
X55.562Y39.051Z-0.427
X55.362Y39.067Z-0.439
X55.163Y39.08Z-0.448
X54.963Y39.09Z-0.457
X54.763Y39.096Z-0.464
X54.563Y39.099Z-0.47
X54.363Y39.099Z-0.476
X54.163Y39.095Z-0.477
X53.963Y39.087Z-0.472
X53.764Y39.076Z-0.466
X53.564Y39.062Z-0.459
X53.365Y39.044Z-0.45
X53.166Y39.023Z-0.441
X52.968Y38.998Z-0.431
X52.77Y38.97Z-0.419
X52.572Y38.938Z-0.407
X52.375Y38.903Z-0.393
X52.179Y38.865Z-0.378
X51.983Y38.823Z-0.362
X51.789Y38.778Z-0.345
X51.594Y38.73Z-0.328
X51.401Y38.678Z-0.308
X51.209Y38.623Z-0.288
X51.018Y38.565Z-0.266
X50.828Y38.503Z-0.243
X50.638Y38.438Z-0.219
X50.45Y38.37Z-0.194
X50.264Y38.298Z-0.168
X50.078Y38.224Z-0.141
X49.894Y38.146Z-0.113
X49.711Y38.065Z-0.082
X49.529Y37.981Z-0.052
X49.349Y37.894Z-0.019
G0Z2
X49.416Y16.63
G1Z-0.027F75
X49.598Y16.546Z-0.059F150
X49.781Y16.466Z-0.089
X49.965Y16.389Z-0.119
X50.151Y16.315Z-0.147
X50.338Y16.244Z-0.175
X50.526Y16.176Z-0.2
X50.716Y16.112Z-0.225
X50.906Y16.05Z-0.248
X51.097Y15.992Z-0.271
X51.29Y15.937Z-0.292
X51.483Y15.885Z-0.312
X51.677Y15.836Z-0.331
X51.871Y15.791Z-0.348
X52.067Y15.749Z-0.365
X52.263Y15.71Z-0.38
X52.46Y15.674Z-0.395
X52.657Y15.642Z-0.408
X52.855Y15.613Z-0.42
X53.053Y15.587Z-0.432
X53.252Y15.564Z-0.441
X53.451Y15.545Z-0.45
X53.651Y15.53Z-0.458
X53.85Y15.517Z-0.464
X54.05Y15.508Z-0.47
X54.25Y15.502Z-0.474
X54.45Y15.5Z-0.47
X54.65Y15.5Z-0.463
X54.85Y15.505Z-0.457
X55.05Y15.512Z-0.449
X55.249Y15.523Z-0.439
X55.449Y15.537Z-0.43
X55.648Y15.555Z-0.418
X55.847Y15.575Z-0.406
X56.046Y15.6Z-0.392
X56.244Y15.627Z-0.378
X56.441Y15.658Z-0.362
X56.638Y15.692Z-0.345
X56.835Y15.729Z-0.327
X57.031Y15.77Z-0.307
X57.226Y15.813Z-0.287
X57.42Y15.86Z-0.265
X57.614Y15.911Z-0.242
X57.807Y15.964Z-0.218
X57.998Y16.021Z-0.192
X58.189Y16.081Z-0.166
X58.379Y16.144Z-0.138
X58.568Y16.21Z-0.109
X58.755Y16.279Z-0.078
X58.942Y16.352Z-0.047
X59.127Y16.428Z-0.013
G0Z2
X59.125Y38.572
G1Z-0.018F75
X58.94Y38.648Z-0.051F150
X58.754Y38.72Z-0.083
X58.566Y38.79Z-0.114
X58.377Y38.856Z-0.142
X58.188Y38.919Z-0.171
X57.997Y38.979Z-0.197
X57.805Y39.035Z-0.223
X57.612Y39.089Z-0.247
X57.419Y39.139Z-0.269
X57.224Y39.186Z-0.291
X57.029Y39.23Z-0.312
X56.833Y39.27Z-0.332
X56.637Y39.308Z-0.349
X56.44Y39.342Z-0.366
X56.242Y39.372Z-0.382
X56.044Y39.4Z-0.396
X55.845Y39.424Z-0.41
X55.646Y39.445Z-0.422
X55.447Y39.462Z-0.434
X55.248Y39.476Z-0.444
X55.048Y39.487Z-0.453
X54.848Y39.494Z-0.461
X54.648Y39.499Z-0.467
X54.448Y39.499Z-0.474
X54.248Y39.497Z-0.478
X54.048Y39.491Z-0.474
X53.848Y39.482Z-0.468
X53.649Y39.469Z-0.462
X53.45Y39.454Z-0.454
X53.25Y39.434Z-0.445
X53.052Y39.412Z-0.436
X52.853Y39.386Z-0.424
X52.655Y39.357Z-0.412
X52.458Y39.325Z-0.399
X52.261Y39.289Z-0.384
X52.065Y39.25Z-0.369
X51.87Y39.208Z-0.352
X51.675Y39.162Z-0.335
X51.481Y39.114Z-0.316
X51.288Y39.062Z-0.296
X51.096Y39.007Z-0.275
X50.904Y38.948Z-0.252
X50.714Y38.887Z-0.229
X50.525Y38.822Z-0.204
X50.337Y38.754Z-0.179
X50.15Y38.683Z-0.151
X49.964Y38.609Z-0.123
X49.779Y38.532Z-0.093
X49.596Y38.452Z-0.063
X49.414Y38.369Z-0.031
G0Z2
X49.38Y16.206
G1Z-0.02F75
X49.562Y16.125Z-0.052F150
X49.746Y16.047Z-0.083
X49.932Y15.971Z-0.114
X50.118Y15.899Z-0.142
X50.306Y15.83Z-0.17
X50.495Y15.764Z-0.195
X50.685Y15.701Z-0.221
X50.875Y15.641Z-0.244
X51.067Y15.584Z-0.267
X51.26Y15.53Z-0.288
X51.453Y15.48Z-0.308
X51.647Y15.432Z-0.328
X51.842Y15.388Z-0.345
X52.038Y15.346Z-0.362
X52.234Y15.308Z-0.378
X52.431Y15.273Z-0.392
X52.629Y15.241Z-0.406
X52.827Y15.213Z-0.418
X53.025Y15.187Z-0.43
X53.224Y15.165Z-0.439
X53.423Y15.146Z-0.449
X53.622Y15.131Z-0.456
X53.822Y15.118Z-0.463
X54.022Y15.109Z-0.469
X54.222Y15.103Z-0.473
X54.422Y15.1Z-0.47
X54.622Y15.1Z-0.464
X54.822Y15.104Z-0.457
X55.021Y15.11Z-0.45
X55.221Y15.121Z-0.44
X55.421Y15.134Z-0.431
X55.62Y15.15Z-0.419
X55.819Y15.17Z-0.407
X56.018Y15.193Z-0.394
X56.216Y15.219Z-0.379
X56.414Y15.248Z-0.364
X56.611Y15.281Z-0.347
X56.808Y15.316Z-0.329
X57.004Y15.355Z-0.309
X57.2Y15.397Z-0.289
X57.395Y15.442Z-0.268
X57.589Y15.49Z-0.245
X57.782Y15.542Z-0.221
X57.974Y15.596Z-0.195
X58.166Y15.654Z-0.17
X58.357Y15.715Z-0.141
X58.546Y15.778Z-0.112
X58.735Y15.845Z-0.081
X58.922Y15.915Z-0.05
X59.108Y15.988Z-0.016
G0Z2
X59.212Y38.969
G1Z-0.001F75
X59.026Y39.044Z-0.036F150
X58.839Y39.115Z-0.068
X58.651Y39.184Z-0.1
X58.462Y39.249Z-0.129
X58.272Y39.312Z-0.158
X58.081Y39.371Z-0.186
X57.889Y39.427Z-0.211
X57.697Y39.48Z-0.237
X57.503Y39.53Z-0.259
X57.309Y39.577Z-0.282
X57.113Y39.621Z-0.303
X56.918Y39.661Z-0.323
X56.721Y39.699Z-0.341
X56.524Y39.733Z-0.359
X56.326Y39.764Z-0.375
X56.128Y39.792Z-0.39
X55.93Y39.817Z-0.405
X55.731Y39.838Z-0.417
X55.532Y39.856Z-0.429
X55.333Y39.872Z-0.44
X55.133Y39.883Z-0.449
X54.933Y39.892Z-0.458
X54.733Y39.897Z-0.464
X54.533Y39.899Z-0.471
X54.333Y39.898Z-0.476
X54.133Y39.894Z-0.476
X53.933Y39.887Z-0.471
X53.734Y39.876Z-0.464
X53.534Y39.862Z-0.458
X53.335Y39.845Z-0.449
X53.136Y39.824Z-0.44
X52.937Y39.801Z-0.429
X52.739Y39.774Z-0.417
X52.541Y39.744Z-0.405
X52.344Y39.711Z-0.39
X52.147Y39.674Z-0.376
X51.951Y39.635Z-0.359
X51.756Y39.592Z-0.342
X51.561Y39.546Z-0.324
X51.367Y39.497Z-0.304
X51.174Y39.445Z-0.284
X50.982Y39.39Z-0.261
X50.791Y39.332Z-0.239
X50.6Y39.271Z-0.214
X50.411Y39.206Z-0.189
X50.223Y39.139Z-0.162
X50.036Y39.068Z-0.134
X49.85Y38.995Z-0.105
X49.665Y38.918Z-0.074
X49.481Y38.839Z-0.043
X49.299Y38.756Z-0.009
G0Z2
X49.344Y15.784
G1Z-0.013F75
X49.528Y15.705Z-0.046F150
X49.713Y15.628Z-0.077
X49.899Y15.555Z-0.108
X50.086Y15.485Z-0.136
X50.274Y15.417Z-0.165
X50.463Y15.353Z-0.191
X50.654Y15.291Z-0.216
X50.845Y15.232Z-0.24
X51.037Y15.177Z-0.263
X51.23Y15.124Z-0.285
X51.424Y15.075Z-0.305
X51.618Y15.028Z-0.325
X51.813Y14.985Z-0.342
X52.009Y14.944Z-0.36
X52.206Y14.907Z-0.375
X52.403Y14.872Z-0.39
X52.6Y14.841Z-0.404
X52.798Y14.813Z-0.416
X52.997Y14.788Z-0.428
X53.196Y14.766Z-0.438
X53.395Y14.747Z-0.447
X53.594Y14.732Z-0.455
X53.794Y14.719Z-0.462
X53.993Y14.71Z-0.468
X54.193Y14.703Z-0.472
X54.393Y14.7Z-0.47
X54.593Y14.7Z-0.465
X54.793Y14.703Z-0.458
X54.993Y14.709Z-0.451
X55.193Y14.718Z-0.441
X55.393Y14.731Z-0.432
X55.592Y14.746Z-0.421
X55.791Y14.765Z-0.409
X55.99Y14.787Z-0.396
X56.188Y14.811Z-0.381
X56.386Y14.839Z-0.366
X56.584Y14.87Z-0.349
X56.781Y14.904Z-0.331
X56.978Y14.942Z-0.312
X57.173Y14.982Z-0.292
X57.369Y15.025Z-0.27
X57.563Y15.072Z-0.247
X57.757Y15.121Z-0.224
X57.95Y15.173Z-0.198
X58.142Y15.229Z-0.173
X58.334Y15.287Z-0.144
X58.524Y15.349Z-0.115
X58.713Y15.413Z-0.084
X58.902Y15.48Z-0.053
X59.089Y15.551Z-0.019
G0Z2
X59.112Y39.44
G1Z-0.02F75
X58.925Y39.51Z-0.054F150
X58.737Y39.578Z-0.085
X58.547Y39.643Z-0.116
X58.357Y39.704Z-0.145
X58.166Y39.763Z-0.174
X57.974Y39.819Z-0.2
X57.781Y39.872Z-0.226
X57.587Y39.921Z-0.249
X57.393Y39.968Z-0.272
X57.198Y40.012Z-0.294
X57.002Y40.052Z-0.314
X56.805Y40.09Z-0.334
X56.608Y40.125Z-0.351
X56.411Y40.156Z-0.368
X56.213Y40.184Z-0.384
X56.015Y40.21Z-0.398
X55.816Y40.232Z-0.412
X55.617Y40.251Z-0.424
X55.417Y40.267Z-0.436
X55.218Y40.279Z-0.445
X55.018Y40.289Z-0.454
X54.818Y40.296Z-0.462
X54.618Y40.299Z-0.468
X54.418Y40.299Z-0.474
X54.218Y40.296Z-0.477
X54.018Y40.29Z-0.473
X53.818Y40.281Z-0.467
X53.619Y40.269Z-0.46
X53.419Y40.254Z-0.452
X53.22Y40.235Z-0.443
X53.021Y40.214Z-0.434
X52.823Y40.189Z-0.422
X52.625Y40.161Z-0.41
X52.427Y40.131Z-0.396
X52.23Y40.097Z-0.382
X52.034Y40.06Z-0.366
X51.838Y40.02Z-0.349
X51.642Y39.977Z-0.332
X51.448Y39.93Z-0.312
X51.254Y39.881Z-0.292
X51.061Y39.829Z-0.27
X50.869Y39.774Z-0.248
X50.677Y39.715Z-0.224
X50.487Y39.654Z-0.199
X50.297Y39.59Z-0.173
X50.109Y39.523Z-0.145
X49.922Y39.453Z-0.116
X49.736Y39.38Z-0.086
X49.551Y39.304Z-0.055
X49.367Y39.225Z-0.022
G0Z2
X49.309Y15.363
G1Z-0.006F75
X49.494Y15.286Z-0.04F150
X49.679Y15.211Z-0.071
X49.866Y15.14Z-0.103
X50.054Y15.071Z-0.131
X50.242Y15.005Z-0.16
X50.432Y14.942Z-0.186
X50.623Y14.882Z-0.212
X50.815Y14.824Z-0.236
X51.007Y14.77Z-0.259
X51.2Y14.718Z-0.282
X51.394Y14.67Z-0.302
X51.589Y14.624Z-0.322
X51.785Y14.582Z-0.34
X51.981Y14.542Z-0.357
X52.177Y14.505Z-0.373
X52.374Y14.472Z-0.388
X52.572Y14.441Z-0.402
X52.77Y14.413Z-0.414
X52.968Y14.389Z-0.426
X53.167Y14.367Z-0.436
X53.366Y14.348Z-0.445
X53.566Y14.333Z-0.454
X53.765Y14.32Z-0.461
X53.965Y14.31Z-0.467
X54.165Y14.304Z-0.472
X54.365Y14.3Z-0.47
X54.565Y14.3Z-0.465
X54.765Y14.302Z-0.459
X54.965Y14.308Z-0.452
X55.165Y14.316Z-0.442
X55.364Y14.328Z-0.433
X55.564Y14.343Z-0.422
X55.763Y14.36Z-0.41
X55.962Y14.381Z-0.397
X56.161Y14.404Z-0.383
X56.359Y14.431Z-0.368
X56.557Y14.461Z-0.351
X56.754Y14.493Z-0.333
X56.951Y14.529Z-0.314
X57.147Y14.568Z-0.294
X57.343Y14.609Z-0.273
X57.538Y14.654Z-0.25
X57.732Y14.701Z-0.227
X57.925Y14.752Z-0.201
X58.118Y14.805Z-0.175
X58.31Y14.861Z-0.147
X58.501Y14.921Z-0.118
X58.691Y14.983Z-0.088
X58.88Y15.048Z-0.056
X59.068Y15.115Z-0.023
G0Z2
X59.198Y39.835
G1Z-0.004F75
X59.01Y39.905Z-0.039F150
X58.822Y39.972Z-0.071
X58.632Y40.036Z-0.103
X58.442Y40.097Z-0.132
X58.251Y40.155Z-0.161
X58.058Y40.211Z-0.188
X57.865Y40.263Z-0.214
X57.672Y40.313Z-0.239
X57.477Y40.359Z-0.262
X57.282Y40.403Z-0.285
X57.086Y40.443Z-0.305
X56.89Y40.481Z-0.325
X56.693Y40.516Z-0.344
X56.495Y40.548Z-0.361
X56.297Y40.576Z-0.377
X56.099Y40.602Z-0.392
X55.9Y40.625Z-0.407
X55.701Y40.645Z-0.418
X55.502Y40.661Z-0.43
X55.303Y40.675Z-0.441
X55.103Y40.686Z-0.45
X54.903Y40.693Z-0.459
X54.703Y40.698Z-0.465
X54.503Y40.699Z-0.472
X54.303Y40.698Z-0.476
X54.103Y40.693Z-0.475
X53.903Y40.686Z-0.47
X53.704Y40.675Z-0.463
X53.504Y40.662Z-0.456
X53.305Y40.645Z-0.447
X53.106Y40.626Z-0.438
X52.907Y40.603Z-0.427
X52.709Y40.577Z-0.415
X52.511Y40.549Z-0.402
X52.313Y40.517Z-0.388
X52.116Y40.482Z-0.373
X51.92Y40.445Z-0.356
X51.724Y40.404Z-0.339
X51.529Y40.361Z-0.32
X51.334Y40.314Z-0.3
X51.14Y40.265Z-0.28
X50.947Y40.212Z-0.257
X50.755Y40.157Z-0.234
X50.564Y40.099Z-0.209
X50.373Y40.038Z-0.183
X50.184Y39.974Z-0.156
X49.995Y39.907Z-0.127
X49.808Y39.838Z-0.098
X49.622Y39.765Z-0.066
X49.436Y39.69Z-0.034
X49.252Y39.612Z0
G0Z2
X49.46Y14.868
G1Z-0.033F75
X49.646Y14.795Z-0.065F150
X49.833Y14.725Z-0.097
X50.022Y14.658Z-0.126
X50.211Y14.593Z-0.155
X50.401Y14.532Z-0.182
X50.593Y14.473Z-0.207
X50.784Y14.417Z-0.233
X50.977Y14.364Z-0.255
X51.171Y14.313Z-0.278
X51.365Y14.266Z-0.298
X51.56Y14.221Z-0.318
X51.756Y14.179Z-0.337
X51.952Y14.14Z-0.354
X52.149Y14.104Z-0.371
X52.346Y14.071Z-0.385
X52.543Y14.041Z-0.4
X52.742Y14.014Z-0.412
X52.94Y13.989Z-0.424
X53.139Y13.968Z-0.435
X53.338Y13.949Z-0.444
X53.537Y13.934Z-0.453
X53.737Y13.921Z-0.459
X53.937Y13.911Z-0.466
X54.137Y13.904Z-0.471
X54.337Y13.9Z-0.471
X54.537Y13.9Z-0.466
X54.737Y13.902Z-0.459
X54.937Y13.907Z-0.453
X55.136Y13.914Z-0.443
X55.336Y13.925Z-0.434
X55.536Y13.939Z-0.423
X55.735Y13.956Z-0.412
X55.934Y13.975Z-0.399
X56.133Y13.998Z-0.384
X56.331Y14.023Z-0.37
X56.529Y14.052Z-0.353
X56.727Y14.083Z-0.336
X56.924Y14.117Z-0.317
X57.12Y14.154Z-0.297
X57.316Y14.194Z-0.276
X57.511Y14.237Z-0.253
X57.706Y14.283Z-0.23
X57.9Y14.332Z-0.204
X58.093Y14.383Z-0.178
X58.286Y14.437Z-0.15
X58.478Y14.494Z-0.122
X58.668Y14.554Z-0.091
X58.858Y14.617Z-0.059
X59.047Y14.682Z-0.026
G0Z2
X59.096Y40.299
G1Z-0.023F75
X58.907Y40.366Z-0.056F150
X58.717Y40.429Z-0.088
X58.527Y40.49Z-0.119
X58.335Y40.547Z-0.148
X58.143Y40.602Z-0.177
X57.95Y40.655Z-0.203
X57.756Y40.704Z-0.229
X57.562Y40.75Z-0.252
X57.366Y40.794Z-0.275
X57.171Y40.835Z-0.296
X56.974Y40.872Z-0.317
X56.777Y40.907Z-0.336
X56.58Y40.939Z-0.353
X56.382Y40.969Z-0.371
X56.184Y40.995Z-0.386
X55.985Y41.018Z-0.4
X55.786Y41.039Z-0.413
X55.587Y41.056Z-0.425
X55.387Y41.071Z-0.436
X55.188Y41.082Z-0.446
X54.988Y41.091Z-0.455
X54.788Y41.096Z-0.462
X54.588Y41.099Z-0.469
X54.388Y41.099Z-0.474
X54.188Y41.096Z-0.476
X53.988Y41.09Z-0.472
X53.788Y41.081Z-0.466
X53.589Y41.069Z-0.459
X53.389Y41.054Z-0.451
X53.19Y41.036Z-0.442
X52.991Y41.016Z-0.432
X52.793Y40.992Z-0.42
X52.594Y40.965Z-0.408
X52.396Y40.936Z-0.394
X52.199Y40.904Z-0.379
X52.002Y40.868Z-0.363
X51.806Y40.83Z-0.346
X51.61Y40.789Z-0.328
X51.415Y40.745Z-0.308
X51.221Y40.698Z-0.288
X51.027Y40.649Z-0.266
X50.834Y40.596Z-0.243
X50.642Y40.541Z-0.219
X50.45Y40.483Z-0.193
X50.26Y40.422Z-0.167
X50.07Y40.358Z-0.138
X49.882Y40.292Z-0.11
X49.694Y40.222Z-0.078
X49.507Y40.15Z-0.047
X49.322Y40.075Z-0.013
G0Z2
X49.426Y14.451
G1Z-0.027F75
X49.613Y14.38Z-0.059F150
X49.801Y14.311Z-0.091
X49.99Y14.246Z-0.121
X50.18Y14.183Z-0.15
X50.371Y14.122Z-0.177
X50.562Y14.065Z-0.203
X50.755Y14.01Z-0.229
X50.948Y13.958Z-0.251
X51.141Y13.908Z-0.274
X51.336Y13.862Z-0.295
X51.531Y13.818Z-0.315
X51.727Y13.777Z-0.334
X51.923Y13.739Z-0.351
X52.12Y13.703Z-0.368
X52.317Y13.671Z-0.383
X52.515Y13.641Z-0.397
X52.713Y13.614Z-0.41
X52.912Y13.59Z-0.422
X53.111Y13.569Z-0.433
X53.31Y13.55Z-0.442
X53.509Y13.535Z-0.451
X53.709Y13.522Z-0.458
X53.909Y13.512Z-0.465
X54.108Y13.505Z-0.47
X54.308Y13.501Z-0.471
X54.508Y13.5Z-0.466
X54.708Y13.501Z-0.46
X54.908Y13.505Z-0.453
X55.108Y13.513Z-0.444
X55.308Y13.523Z-0.435
X55.507Y13.536Z-0.425
X55.707Y13.552Z-0.413
X55.906Y13.57Z-0.401
X56.105Y13.592Z-0.386
X56.303Y13.616Z-0.372
X56.501Y13.643Z-0.355
X56.699Y13.673Z-0.338
X56.896Y13.706Z-0.319
X57.093Y13.742Z-0.299
X57.29Y13.78Z-0.279
X57.485Y13.822Z-0.256
X57.68Y13.866Z-0.233
X57.875Y13.912Z-0.207
X58.069Y13.962Z-0.181
X58.262Y14.014Z-0.154
X58.454Y14.07Z-0.125
X58.645Y14.127Z-0.095
X58.836Y14.188Z-0.063
X59.026Y14.251Z-0.03
G0Z2
X59.181Y40.694
G1Z-0.006F75
X58.992Y40.759Z-0.042F150
X58.802Y40.822Z-0.074
X58.611Y40.882Z-0.106
X58.42Y40.939Z-0.135
X58.227Y40.994Z-0.164
X58.034Y41.046Z-0.191
X57.84Y41.095Z-0.217
X57.646Y41.141Z-0.242
X57.451Y41.185Z-0.265
X57.255Y41.226Z-0.287
X57.058Y41.264Z-0.307
X56.862Y41.299Z-0.327
X56.664Y41.331Z-0.345
X56.466Y41.361Z-0.363
X56.268Y41.387Z-0.378
X56.07Y41.411Z-0.393
X55.871Y41.432Z-0.407
X55.672Y41.45Z-0.419
X55.472Y41.466Z-0.431
X55.273Y41.478Z-0.441
X55.073Y41.488Z-0.45
X54.873Y41.495Z-0.458
X54.673Y41.498Z-0.465
X54.473Y41.499Z-0.472
X54.273Y41.498Z-0.476
X54.073Y41.493Z-0.473
X53.873Y41.485Z-0.468
X53.673Y41.475Z-0.461
X53.474Y41.462Z-0.454
X53.275Y41.446Z-0.445
X53.075Y41.427Z-0.435
X52.877Y41.405Z-0.424
X52.678Y41.38Z-0.412
X52.48Y41.353Z-0.399
X52.282Y41.323Z-0.385
X52.085Y41.29Z-0.37
X51.888Y41.254Z-0.353
X51.692Y41.215Z-0.335
X51.496Y41.174Z-0.316
X51.301Y41.129Z-0.296
X51.107Y41.082Z-0.275
X50.913Y41.032Z-0.252
X50.72Y40.98Z-0.229
X50.528Y40.924Z-0.204
X50.337Y40.866Z-0.178
X50.146Y40.805Z-0.15
X49.957Y40.742Z-0.121
X49.768Y40.676Z-0.091
X49.58Y40.607Z-0.059
X49.394Y40.535Z-0.026
G0Z2
X49.394Y14.035
G1Z-0.02F75
X49.581Y13.965Z-0.053F150
X49.77Y13.898Z-0.085
X49.959Y13.834Z-0.116
X50.149Y13.772Z-0.145
X50.34Y13.713Z-0.173
X50.532Y13.657Z-0.199
X50.725Y13.603Z-0.224
X50.918Y13.552Z-0.248
X51.112Y13.504Z-0.27
X51.307Y13.458Z-0.292
X51.502Y13.415Z-0.312
X51.698Y13.375Z-0.331
X51.894Y13.337Z-0.348
X52.091Y13.302Z-0.366
X52.289Y13.27Z-0.38
X52.487Y13.241Z-0.395
X52.685Y13.214Z-0.408
X52.883Y13.19Z-0.419
X53.082Y13.169Z-0.431
X53.281Y13.151Z-0.44
X53.481Y13.136Z-0.449
X53.68Y13.123Z-0.456
X53.88Y13.113Z-0.462
X54.08Y13.106Z-0.468
X54.28Y13.101Z-0.47
X54.48Y13.099Z-0.466
X54.68Y13.101Z-0.459
X54.88Y13.105Z-0.453
X55.08Y13.111Z-0.445
X55.28Y13.121Z-0.435
X55.479Y13.133Z-0.425
X55.679Y13.148Z-0.414
X55.878Y13.166Z-0.402
X56.077Y13.186Z-0.387
X56.276Y13.209Z-0.373
X56.474Y13.235Z-0.357
X56.672Y13.264Z-0.34
X56.869Y13.296Z-0.322
X57.066Y13.33Z-0.302
X57.263Y13.367Z-0.281
X57.459Y13.407Z-0.258
X57.654Y13.449Z-0.235
X57.849Y13.494Z-0.21
X58.043Y13.542Z-0.184
X58.237Y13.593Z-0.157
X58.43Y13.646Z-0.128
X58.622Y13.702Z-0.098
X58.813Y13.761Z-0.066
X59.003Y13.822Z-0.034
G0Z2
X59.077Y41.153
G1Z-0.025F75
X58.887Y41.215Z-0.059F150
X58.696Y41.274Z-0.091
X58.504Y41.331Z-0.122
X58.312Y41.386Z-0.151
X58.119Y41.437Z-0.179
X57.925Y41.486Z-0.205
X57.73Y41.532Z-0.231
X57.535Y41.576Z-0.254
X57.339Y41.617Z-0.277
X57.143Y41.655Z-0.298
X56.946Y41.69Z-0.318
X56.749Y41.723Z-0.337
X56.551Y41.753Z-0.354
X56.353Y41.78Z-0.371
X56.154Y41.804Z-0.386
X55.955Y41.826Z-0.401
X55.756Y41.845Z-0.413
X55.557Y41.861Z-0.425
X55.357Y41.874Z-0.436
X55.158Y41.885Z-0.445
X54.958Y41.892Z-0.455
X54.758Y41.897Z-0.461
X54.558Y41.899Z-0.468
X54.358Y41.899Z-0.473
X54.158Y41.896Z-0.474
X53.958Y41.889Z-0.469
X53.758Y41.88Z-0.463
X53.559Y41.869Z-0.456
X53.359Y41.854Z-0.448
X53.16Y41.837Z-0.438
X52.961Y41.817Z-0.428
X52.762Y41.794Z-0.416
X52.564Y41.769Z-0.404
X52.366Y41.741Z-0.39
X52.168Y41.71Z-0.375
X51.971Y41.676Z-0.359
X51.774Y41.639Z-0.342
X51.578Y41.6Z-0.324
X51.383Y41.558Z-0.304
X51.188Y41.514Z-0.284
X50.993Y41.466Z-0.261
X50.8Y41.416Z-0.238
X50.607Y41.363Z-0.213
X50.415Y41.308Z-0.188
X50.223Y41.25Z-0.161
X50.033Y41.189Z-0.132
X49.843Y41.126Z-0.103
X49.654Y41.06Z-0.071
X49.466Y40.991Z-0.04
X49.28Y40.92Z-0.005
G0Z2
X49.361Y13.62
G1Z-0.014F75
X49.549Y13.552Z-0.048F150
X49.738Y13.486Z-0.08
X49.928Y13.423Z-0.111
X50.118Y13.363Z-0.14
X50.31Y13.305Z-0.168
X50.502Y13.25Z-0.194
X50.695Y13.197Z-0.22
X50.889Y13.147Z-0.243
X51.083Y13.099Z-0.266
X51.278Y13.054Z-0.287
X51.473Y13.012Z-0.307
X51.669Y12.973Z-0.327
X51.866Y12.936Z-0.344
X52.063Y12.901Z-0.361
X52.26Y12.87Z-0.376
X52.458Y12.841Z-0.39
X52.657Y12.815Z-0.404
X52.855Y12.791Z-0.416
X53.054Y12.77Z-0.427
X53.253Y12.752Z-0.436
X53.453Y12.737Z-0.445
X53.652Y12.724Z-0.453
X53.852Y12.714Z-0.459
X54.052Y12.706Z-0.465
X54.252Y12.702Z-0.468
X54.452Y12.7Z-0.465
X54.652Y12.7Z-0.458
X54.852Y12.704Z-0.452
X55.052Y12.71Z-0.444
X55.251Y12.719Z-0.435
X55.451Y12.73Z-0.425
X55.651Y12.744Z-0.413
X55.85Y12.761Z-0.401
X56.049Y12.781Z-0.387
X56.248Y12.803Z-0.373
X56.446Y12.828Z-0.357
X56.644Y12.856Z-0.34
X56.842Y12.886Z-0.322
X57.039Y12.919Z-0.302
X57.236Y12.955Z-0.282
X57.432Y12.993Z-0.26
X57.628Y13.034Z-0.237
X57.823Y13.078Z-0.213
X58.018Y13.124Z-0.187
X58.212Y13.173Z-0.16
X58.405Y13.224Z-0.131
X58.597Y13.278Z-0.102
X58.789Y13.335Z-0.07
X58.98Y13.394Z-0.038
X59.17Y13.456Z-0.002
G0Z2
X59.162Y41.546
G1Z-0.008F75
X58.972Y41.608Z-0.044F150
X58.781Y41.667Z-0.076
X58.589Y41.723Z-0.108
X58.396Y41.777Z-0.137
X58.203Y41.829Z-0.166
X58.009Y41.877Z-0.193
X57.814Y41.923Z-0.219
X57.619Y41.967Z-0.243
X57.423Y42.008Z-0.266
X57.227Y42.046Z-0.288
X57.03Y42.081Z-0.308
X56.833Y42.114Z-0.329
X56.635Y42.145Z-0.346
X56.437Y42.172Z-0.363
X56.239Y42.197Z-0.379
X56.04Y42.219Z-0.394
X55.841Y42.239Z-0.407
X55.642Y42.255Z-0.419
X55.442Y42.269Z-0.431
X55.243Y42.281Z-0.441
X55.043Y42.289Z-0.45
X54.843Y42.295Z-0.458
X54.643Y42.299Z-0.464
X54.443Y42.299Z-0.471
X54.243Y42.297Z-0.475
X54.043Y42.292Z-0.471
X53.843Y42.285Z-0.465
X53.643Y42.275Z-0.458
X53.444Y42.262Z-0.451
X53.244Y42.246Z-0.442
X53.045Y42.228Z-0.432
X52.846Y42.207Z-0.42
X52.648Y42.183Z-0.409
X52.449Y42.157Z-0.395
X52.252Y42.128Z-0.381
X52.054Y42.096Z-0.365
X51.857Y42.062Z-0.348
X51.661Y42.025Z-0.331
X51.465Y41.985Z-0.311
X51.269Y41.943Z-0.291
X51.074Y41.898Z-0.269
X50.88Y41.85Z-0.247
X50.686Y41.8Z-0.223
X50.493Y41.747Z-0.197
X50.301Y41.692Z-0.171
X50.11Y41.634Z-0.143
X49.919Y41.573Z-0.114
X49.73Y41.51Z-0.083
X49.541Y41.444Z-0.051
X49.353Y41.376Z-0.017
G0Z2
X49.329Y13.206
G1Z-0.007F75
X49.517Y13.139Z-0.041F150
X49.707Y13.075Z-0.073
X49.897Y13.013Z-0.104
X50.088Y12.954Z-0.133
X50.28Y12.897Z-0.162
X50.472Y12.843Z-0.188
X50.665Y12.791Z-0.213
X50.859Y12.742Z-0.237
X51.054Y12.695Z-0.26
X51.249Y12.651Z-0.282
X51.444Y12.61Z-0.302
X51.641Y12.571Z-0.322
X51.837Y12.534Z-0.339
X52.034Y12.501Z-0.356
X52.232Y12.47Z-0.372
X52.43Y12.441Z-0.386
X52.628Y12.415Z-0.4
X52.827Y12.392Z-0.412
X53.026Y12.371Z-0.424
X53.225Y12.353Z-0.433
X53.424Y12.338Z-0.442
X53.624Y12.325Z-0.45
X53.824Y12.315Z-0.456
X54.023Y12.307Z-0.463
X54.223Y12.302Z-0.467
X54.423Y12.3Z-0.463
X54.623Y12.3Z-0.457
X54.823Y12.303Z-0.451
X55.023Y12.308Z-0.443
X55.223Y12.317Z-0.434
X55.423Y12.328Z-0.425
X55.622Y12.341Z-0.413
X55.822Y12.357Z-0.401
X56.021Y12.376Z-0.387
X56.22Y12.397Z-0.373
X56.418Y12.421Z-0.357
X56.617Y12.448Z-0.34
X56.814Y12.477Z-0.323
X57.012Y12.509Z-0.303
X57.209Y12.543Z-0.283
X57.405Y12.58Z-0.261
X57.601Y12.619Z-0.238
X57.797Y12.661Z-0.214
X57.992Y12.706Z-0.188
X58.186Y12.753Z-0.161
X58.38Y12.803Z-0.132
X58.573Y12.855Z-0.104
X58.765Y12.91Z-0.071
X58.957Y12.968Z-0.04
X59.148Y13.028Z-0.005
G0Z2
X59.057Y42
G1Z-0.027F75
X58.865Y42.059Z-0.06F150
X58.674Y42.115Z-0.093
X58.481Y42.169Z-0.123
X58.287Y42.22Z-0.152
X58.093Y42.269Z-0.18
X57.899Y42.315Z-0.206
X57.704Y42.358Z-0.232
X57.508Y42.399Z-0.255
X57.312Y42.437Z-0.278
X57.115Y42.473Z-0.299
X56.918Y42.506Z-0.319
X56.72Y42.537Z-0.338
X56.522Y42.564Z-0.355
X56.323Y42.59Z-0.372
X56.125Y42.612Z-0.386
X55.926Y42.633Z-0.401
X55.726Y42.65Z-0.413
X55.527Y42.665Z-0.425
X55.327Y42.677Z-0.436
X55.128Y42.687Z-0.445
X54.928Y42.694Z-0.454
X54.728Y42.698Z-0.461
X54.528Y42.7Z-0.467
X54.328Y42.699Z-0.472
X54.128Y42.695Z-0.472
X53.928Y42.689Z-0.467
X53.728Y42.68Z-0.46
X53.528Y42.669Z-0.454
X53.329Y42.654Z-0.445
X53.13Y42.638Z-0.435
X52.931Y42.618Z-0.425
X52.732Y42.596Z-0.413
X52.533Y42.572Z-0.4
X52.335Y42.545Z-0.386
X52.137Y42.515Z-0.371
X51.94Y42.483Z-0.354
X51.743Y42.448Z-0.337
X51.547Y42.41Z-0.319
X51.351Y42.37Z-0.299
X51.155Y42.327Z-0.278
X50.961Y42.282Z-0.255
X50.766Y42.234Z-0.232
X50.573Y42.184Z-0.207
X50.38Y42.131Z-0.181
X50.188Y42.075Z-0.153
X49.996Y42.017Z-0.125
X49.806Y41.957Z-0.095
X49.616Y41.894Z-0.063
X49.427Y41.828Z-0.03
G0Z2
X49.486Y12.727
G1Z-0.033F75
X49.675Y12.664Z-0.065F150
X49.866Y12.604Z-0.097
X50.057Y12.545Z-0.126
X50.249Y12.49Z-0.155
X50.442Y12.436Z-0.181
X50.636Y12.386Z-0.207
X50.83Y12.337Z-0.232
X51.024Y12.291Z-0.254
X51.22Y12.248Z-0.277
X51.416Y12.207Z-0.297
X51.612Y12.169Z-0.317
X51.809Y12.133Z-0.334
X52.006Y12.1Z-0.352
X52.203Y12.069Z-0.367
X52.401Y12.041Z-0.382
X52.6Y12.016Z-0.396
X52.798Y11.993Z-0.408
X52.997Y11.972Z-0.42
X53.197Y11.954Z-0.43
X53.396Y11.939Z-0.439
X53.596Y11.926Z-0.446
X53.795Y11.915Z-0.453
X53.995Y11.908Z-0.458
X54.195Y11.902Z-0.462
X54.395Y11.9Z-0.46
X54.595Y11.9Z-0.455
X54.795Y11.902Z-0.449
X54.995Y11.907Z-0.442
X55.195Y11.915Z-0.433
X55.395Y11.925Z-0.424
X55.594Y11.938Z-0.412
X55.794Y11.953Z-0.4
X55.993Y11.971Z-0.387
X56.192Y11.992Z-0.373
X56.39Y12.015Z-0.358
X56.589Y12.04Z-0.34
X56.787Y12.068Z-0.323
X56.984Y12.099Z-0.303
X57.182Y12.132Z-0.283
X57.378Y12.167Z-0.261
X57.575Y12.206Z-0.239
X57.771Y12.246Z-0.215
X57.966Y12.29Z-0.189
X58.161Y12.335Z-0.163
X58.355Y12.383Z-0.134
X58.548Y12.434Z-0.105
X58.741Y12.487Z-0.073
X58.933Y12.543Z-0.041
X59.124Y12.601Z-0.006
G0Z2
X59.141Y42.393
G1Z-0.01F75
X58.95Y42.451Z-0.045F150
X58.758Y42.507Z-0.077
X58.565Y42.56Z-0.11
X58.372Y42.611Z-0.139
X58.178Y42.66Z-0.168
X57.983Y42.705Z-0.194
X57.788Y42.749Z-0.22
X57.592Y42.79Z-0.244
X57.396Y42.828Z-0.267
X57.199Y42.864Z-0.289
X57.002Y42.897Z-0.309
X56.804Y42.928Z-0.329
X56.606Y42.957Z-0.347
X56.408Y42.982Z-0.364
X56.209Y43.005Z-0.379
X56.01Y43.026Z-0.394
X55.811Y43.044Z-0.407
X55.612Y43.06Z-0.419
X55.412Y43.073Z-0.431
X55.213Y43.083Z-0.44
X55.013Y43.091Z-0.45
X54.813Y43.096Z-0.457
X54.613Y43.099Z-0.464
X54.413Y43.099Z-0.47
X54.213Y43.097Z-0.473
X54.013Y43.092Z-0.469
X53.813Y43.084Z-0.462
X53.613Y43.074Z-0.456
X53.414Y43.062Z-0.448
X53.214Y43.046Z-0.438
X53.015Y43.029Z-0.429
X52.816Y43.008Z-0.417
X52.617Y42.985Z-0.405
X52.419Y42.96Z-0.391
X52.221Y42.932Z-0.377
X52.023Y42.902Z-0.361
X51.826Y42.869Z-0.344
X51.629Y42.833Z-0.326
X51.433Y42.795Z-0.306
X51.237Y42.754Z-0.286
X51.042Y42.711Z-0.264
X50.847Y42.666Z-0.241
X50.653Y42.618Z-0.217
X50.459Y42.567Z-0.191
X50.267Y42.514Z-0.164
X50.074Y42.459Z-0.135
X49.883Y42.401Z-0.107
X49.692Y42.34Z-0.075
X49.502Y42.277Z-0.043
X49.313Y42.212Z-0.008
G0Z2
X49.454Y12.316
G1Z-0.025F75
X49.645Y12.254Z-0.057F150
X49.835Y12.194Z-0.089
X50.027Y12.137Z-0.119
X50.22Y12.083Z-0.148
X50.413Y12.03Z-0.175
X50.606Y11.98Z-0.201
X50.801Y11.933Z-0.226
X50.995Y11.888Z-0.249
X51.191Y11.845Z-0.271
X51.387Y11.805Z-0.291
X51.583Y11.768Z-0.311
X51.78Y11.732Z-0.328
X51.977Y11.7Z-0.345
X52.175Y11.669Z-0.361
X52.373Y11.641Z-0.376
X52.571Y11.616Z-0.39
X52.77Y11.593Z-0.401
X52.969Y11.573Z-0.413
X53.168Y11.555Z-0.423
X53.368Y11.54Z-0.432
X53.567Y11.527Z-0.44
X53.767Y11.516Z-0.446
X53.967Y11.508Z-0.452
X54.167Y11.503Z-0.454
X54.367Y11.5Z-0.453
X54.567Y11.5Z-0.45
X54.767Y11.502Z-0.444
X54.967Y11.506Z-0.438
X55.167Y11.513Z-0.429
X55.366Y11.523Z-0.419
X55.566Y11.535Z-0.409
X55.765Y11.55Z-0.397
X55.965Y11.567Z-0.384
X56.164Y11.586Z-0.37
X56.363Y11.608Z-0.355
X56.561Y11.633Z-0.338
X56.759Y11.66Z-0.321
X56.957Y11.689Z-0.302
X57.154Y11.721Z-0.282
X57.351Y11.756Z-0.261
X57.548Y11.793Z-0.239
X57.744Y11.832Z-0.216
X57.94Y11.874Z-0.19
X58.135Y11.918Z-0.164
X58.329Y11.965Z-0.135
X58.523Y12.014Z-0.106
X58.716Y12.065Z-0.075
X58.909Y12.119Z-0.042
X59.101Y12.175Z-0.008
G0Z2
X59.035Y42.843
G1Z-0.029F75
X58.843Y42.899Z-0.062F150
X58.65Y42.952Z-0.095
X58.456Y43.002Z-0.125
X58.262Y43.051Z-0.154
X58.067Y43.097Z-0.182
X57.872Y43.14Z-0.208
X57.676Y43.181Z-0.233
X57.48Y43.219Z-0.256
X57.283Y43.255Z-0.28
X57.086Y43.289Z-0.3
X56.889Y43.32Z-0.32
X56.691Y43.349Z-0.338
X56.493Y43.375Z-0.356
X56.294Y43.398Z-0.372
X56.095Y43.42Z-0.387
X55.896Y43.438Z-0.402
X55.697Y43.455Z-0.413
X55.497Y43.468Z-0.425
X55.297Y43.48Z-0.436
X55.098Y43.488Z-0.445
X54.898Y43.494Z-0.453
X54.698Y43.498Z-0.46
X54.498Y43.499Z-0.466
X54.298Y43.498Z-0.471
X54.098Y43.494Z-0.469
X53.898Y43.488Z-0.464
X53.698Y43.479Z-0.458
X53.498Y43.468Z-0.451
X53.299Y43.454Z-0.442
X53.1Y43.438Z-0.432
X52.9Y43.419Z-0.421
X52.702Y43.398Z-0.409
X52.503Y43.374Z-0.396
X52.305Y43.348Z-0.382
X52.107Y43.319Z-0.367
X51.909Y43.288Z-0.35
X51.712Y43.255Z-0.333
X51.515Y43.219Z-0.314
X51.319Y43.18Z-0.294
X51.123Y43.139Z-0.272
X50.928Y43.096Z-0.249
X50.733Y43.05Z-0.226
X50.539Y43.002Z-0.2
X50.346Y42.951Z-0.175
X50.153Y42.898Z-0.146
X49.961Y42.842Z-0.117
X49.77Y42.784Z-0.086
X49.579Y42.724Z-0.054
X49.389Y42.661Z-0.021
G0Z2
X49.423Y11.905
G1Z-0.016F75
X49.614Y11.844Z-0.05F150
X49.805Y11.786Z-0.081
X49.997Y11.73Z-0.111
X50.19Y11.676Z-0.139
X50.383Y11.625Z-0.167
X50.577Y11.576Z-0.192
X50.771Y11.529Z-0.217
X50.966Y11.485Z-0.239
X51.162Y11.443Z-0.262
X51.358Y11.403Z-0.282
X51.555Y11.366Z-0.302
X51.751Y11.331Z-0.32
X51.949Y11.299Z-0.337
X52.147Y11.269Z-0.354
X52.345Y11.242Z-0.368
X52.543Y11.217Z-0.382
X52.742Y11.194Z-0.393
X52.941Y11.174Z-0.404
X53.14Y11.156Z-0.413
X53.339Y11.141Z-0.422
X53.539Y11.128Z-0.428
X53.739Y11.117Z-0.433
X53.939Y11.109Z-0.436
X54.138Y11.104Z-0.438
X54.338Y11.1Z-0.438
X54.538Y11.1Z-0.436
X54.738Y11.101Z-0.432
X54.938Y11.105Z-0.427
X55.138Y11.112Z-0.42
X55.338Y11.121Z-0.411
X55.538Y11.132Z-0.402
X55.737Y11.146Z-0.391
X55.937Y11.163Z-0.379
X56.136Y11.181Z-0.365
X56.335Y11.203Z-0.352
X56.533Y11.226Z-0.335
X56.731Y11.252Z-0.318
X56.929Y11.281Z-0.299
X57.127Y11.311Z-0.279
X57.324Y11.345Z-0.259
X57.521Y11.38Z-0.236
X57.717Y11.418Z-0.213
X57.913Y11.459Z-0.187
X58.109Y11.502Z-0.162
X58.303Y11.547Z-0.134
X58.498Y11.594Z-0.105
X58.691Y11.644Z-0.074
X58.884Y11.697Z-0.043
X59.077Y11.751Z-0.009
G0Z2
X59.119Y43.235
G1Z-0.012F75
X58.927Y43.29Z-0.047F150
X58.734Y43.343Z-0.079
X58.541Y43.394Z-0.111
X58.346Y43.442Z-0.14
X58.152Y43.487Z-0.17
X57.957Y43.531Z-0.196
X57.761Y43.572Z-0.222
X57.565Y43.61Z-0.245
X57.368Y43.647Z-0.268
X57.171Y43.68Z-0.29
X56.973Y43.712Z-0.31
X56.775Y43.741Z-0.329
X56.577Y43.767Z-0.347
X56.379Y43.791Z-0.364
X56.18Y43.813Z-0.379
X55.981Y43.832Z-0.393
X55.781Y43.849Z-0.406
X55.582Y43.864Z-0.418
X55.382Y43.876Z-0.43
X55.182Y43.885Z-0.439
X54.983Y43.892Z-0.448
X54.783Y43.897Z-0.455
X54.583Y43.899Z-0.462
X54.383Y43.899Z-0.467
X54.183Y43.896Z-0.469
X53.983Y43.891Z-0.465
X53.783Y43.884Z-0.458
X53.583Y43.874Z-0.452
X53.384Y43.861Z-0.443
X53.184Y43.846Z-0.434
X52.985Y43.829Z-0.424
X52.786Y43.81Z-0.412
X52.587Y43.787Z-0.401
X52.389Y43.763Z-0.386
X52.19Y43.736Z-0.372
X51.993Y43.707Z-0.356
X51.795Y43.675Z-0.339
X51.598Y43.641Z-0.321
X51.401Y43.604Z-0.301
X51.205Y43.565Z-0.281
X51.01Y43.524Z-0.258
X50.814Y43.48Z-0.235
X50.62Y43.434Z-0.21
X50.426Y43.385Z-0.184
X50.232Y43.334Z-0.157
X50.04Y43.281Z-0.128
X49.848Y43.226Z-0.099
X49.656Y43.168Z-0.066
X49.465Y43.108Z-0.034
G0Z2
X49.392Y11.495
G1Z-0.005F75
X49.583Y11.435Z-0.038F150
X49.775Y11.378Z-0.069
X49.967Y11.322Z-0.1
X50.16Y11.27Z-0.128
X50.353Y11.219Z-0.156
X50.548Y11.171Z-0.182
X50.742Y11.125Z-0.207
X50.937Y11.081Z-0.229
X51.133Y11.04Z-0.25
X51.329Y11.001Z-0.27
X51.526Y10.965Z-0.289
X51.723Y10.931Z-0.307
X51.92Y10.899Z-0.323
X52.118Y10.869Z-0.338
X52.316Y10.842Z-0.352
X52.515Y10.817Z-0.364
X52.714Y10.795Z-0.375
X52.912Y10.775Z-0.386
X53.112Y10.757Z-0.394
X53.311Y10.742Z-0.402
X53.511Y10.729Z-0.407
X53.71Y10.718Z-0.412
X53.91Y10.71Z-0.415
X54.11Y10.704Z-0.416
X54.31Y10.701Z-0.416
X54.51Y10.7Z-0.415
X54.71Y10.701Z-0.412
X54.91Y10.705Z-0.408
X55.11Y10.711Z-0.401
X55.31Y10.719Z-0.394
X55.51Y10.73Z-0.386
X55.709Y10.743Z-0.376
X55.908Y10.759Z-0.364
X56.108Y10.777Z-0.352
X56.307Y10.797Z-0.338
X56.505Y10.82Z-0.324
X56.704Y10.845Z-0.307
X56.902Y10.872Z-0.29
X57.1Y10.902Z-0.271
X57.297Y10.934Z-0.251
X57.494Y10.969Z-0.229
X57.691Y11.005Z-0.207
X57.887Y11.045Z-0.183
X58.082Y11.086Z-0.158
X58.278Y11.13Z-0.131
X58.472Y11.176Z-0.102
X58.666Y11.224Z-0.072
X58.86Y11.275Z-0.04
X59.052Y11.328Z-0.007
G0Z2
X59.012Y43.682
G1Z-0.031F75
X58.819Y43.735Z-0.063F150
X58.625Y43.785Z-0.096
X58.431Y43.833Z-0.126
X58.236Y43.879Z-0.155
X58.041Y43.922Z-0.182
X57.845Y43.963Z-0.208
X57.649Y44.002Z-0.233
X57.452Y44.038Z-0.256
X57.255Y44.072Z-0.279
X57.058Y44.104Z-0.299
X56.86Y44.133Z-0.319
X56.662Y44.16Z-0.337
X56.463Y44.184Z-0.354
X56.264Y44.206Z-0.37
X56.065Y44.226Z-0.385
X55.866Y44.244Z-0.399
X55.667Y44.259Z-0.411
X55.467Y44.272Z-0.423
X55.267Y44.282Z-0.433
X55.068Y44.29Z-0.442
X54.868Y44.295Z-0.45
X54.668Y44.299Z-0.457
X54.468Y44.299Z-0.463
X54.268Y44.298Z-0.467
X54.068Y44.294Z-0.464
X53.868Y44.288Z-0.459
X53.668Y44.279Z-0.452
X53.468Y44.268Z-0.445
X53.269Y44.254Z-0.436
X53.069Y44.238Z-0.427
X52.87Y44.22Z-0.415
X52.671Y44.2Z-0.403
X52.473Y44.177Z-0.39
X52.274Y44.151Z-0.376
X52.076Y44.124Z-0.361
X51.878Y44.094Z-0.344
X51.681Y44.061Z-0.326
X51.484Y44.027Z-0.307
X51.288Y43.99Z-0.287
X51.091Y43.95Z-0.265
X50.896Y43.908Z-0.242
X50.701Y43.864Z-0.219
X50.506Y43.818Z-0.193
X50.312Y43.769Z-0.167
X50.119Y43.718Z-0.138
X49.926Y43.665Z-0.11
X49.734Y43.609Z-0.078
X49.543Y43.552Z-0.046
X49.352Y43.491Z-0.012
G0Z2
X49.553Y11.026
G1Z-0.024F75
X49.745Y10.97Z-0.055F150
X49.937Y10.916Z-0.085
X50.13Y10.864Z-0.112
X50.324Y10.814Z-0.139
X50.518Y10.767Z-0.164
X50.713Y10.721Z-0.187
X50.908Y10.679Z-0.209
X51.104Y10.638Z-0.23
X51.301Y10.6Z-0.249
X51.497Y10.564Z-0.268
X51.694Y10.53Z-0.285
X51.892Y10.498Z-0.3
X52.09Y10.469Z-0.315
X52.288Y10.442Z-0.328
X52.486Y10.418Z-0.341
X52.685Y10.395Z-0.351
X52.884Y10.375Z-0.361
X53.083Y10.358Z-0.369
X53.283Y10.343Z-0.376
X53.482Y10.33Z-0.382
X53.682Y10.319Z-0.386
X53.882Y10.311Z-0.389
X54.082Y10.305Z-0.39
X54.282Y10.301Z-0.391
X54.482Y10.299Z-0.389
X54.682Y10.3Z-0.387
X54.882Y10.304Z-0.383
X55.082Y10.309Z-0.377
X55.282Y10.317Z-0.371
X55.481Y10.328Z-0.363
X55.681Y10.34Z-0.354
X55.88Y10.355Z-0.343
X56.08Y10.372Z-0.331
X56.279Y10.392Z-0.318
X56.477Y10.414Z-0.304
X56.676Y10.438Z-0.288
X56.874Y10.464Z-0.272
X57.072Y10.493Z-0.254
X57.27Y10.524Z-0.235
X57.467Y10.557Z-0.214
X57.664Y10.593Z-0.192
X57.86Y10.631Z-0.169
X58.056Y10.671Z-0.145
X58.251Y10.714Z-0.119
X58.446Y10.758Z-0.092
X58.641Y10.805Z-0.063
X58.835Y10.855Z-0.032
X59.028Y10.906Z0
G0Z2
X59.096Y44.074
G1Z-0.012F75
X58.903Y44.126Z-0.047F150
X58.709Y44.176Z-0.079
X58.515Y44.224Z-0.111
X58.32Y44.27Z-0.14
X58.125Y44.313Z-0.169
X57.929Y44.354Z-0.195
X57.733Y44.393Z-0.221
X57.537Y44.429Z-0.244
X57.34Y44.463Z-0.267
X57.142Y44.495Z-0.288
X56.944Y44.525Z-0.308
X56.746Y44.552Z-0.328
X56.548Y44.577Z-0.345
X56.349Y44.6Z-0.362
X56.15Y44.62Z-0.377
X55.951Y44.638Z-0.391
X55.751Y44.654Z-0.404
X55.552Y44.667Z-0.416
X55.352Y44.678Z-0.427
X55.152Y44.687Z-0.436
X54.953Y44.694Z-0.445
X54.753Y44.698Z-0.452
X54.553Y44.699Z-0.458
X54.353Y44.699Z-0.463
X54.153Y44.696Z-0.464
X53.953Y44.691Z-0.46
X53.753Y44.683Z-0.453
X53.553Y44.674Z-0.447
X53.353Y44.661Z-0.438
X53.154Y44.647Z-0.429
X52.955Y44.63Z-0.418
X52.756Y44.611Z-0.406
X52.557Y44.589Z-0.394
X52.358Y44.566Z-0.38
X52.16Y44.54Z-0.365
X51.962Y44.511Z-0.349
X51.764Y44.481Z-0.331
X51.567Y44.448Z-0.313
X51.37Y44.412Z-0.293
X51.174Y44.375Z-0.273
X50.978Y44.335Z-0.25
X50.782Y44.293Z-0.227
X50.587Y44.249Z-0.201
X50.393Y44.202Z-0.176
X50.199Y44.153Z-0.148
X50.005Y44.102Z-0.119
X49.813Y44.049Z-0.089
X49.62Y43.993Z-0.057
X49.429Y43.935Z-0.024
G0Z2
X49.522Y10.618
G1Z-0.001F75
X49.714Y10.562Z-0.031F150
X49.907Y10.509Z-0.06
X50.101Y10.458Z-0.087
X50.295Y10.409Z-0.113
X50.489Y10.362Z-0.137
X50.684Y10.318Z-0.16
X50.88Y10.276Z-0.182
X51.075Y10.236Z-0.203
X51.272Y10.198Z-0.222
X51.469Y10.162Z-0.24
X51.666Y10.129Z-0.256
X51.863Y10.098Z-0.272
X52.061Y10.069Z-0.286
X52.26Y10.043Z-0.299
X52.458Y10.018Z-0.311
X52.657Y9.996Z-0.322
X52.856Y9.976Z-0.331
X53.055Y9.959Z-0.339
X53.255Y9.944Z-0.345
X53.454Y9.931Z-0.351
X53.654Y9.92Z-0.355
X53.854Y9.911Z-0.358
X54.054Y9.905Z-0.36
X54.253Y9.901Z-0.36
X54.453Y9.9Z-0.359
X54.653Y9.9Z-0.357
X54.853Y9.903Z-0.353
X55.053Y9.908Z-0.348
X55.253Y9.916Z-0.342
X55.453Y9.925Z-0.334
X55.653Y9.937Z-0.326
X55.852Y9.952Z-0.316
X56.051Y9.968Z-0.305
X56.251Y9.987Z-0.292
X56.449Y10.008Z-0.279
X56.648Y10.031Z-0.263
X56.846Y10.057Z-0.247
X57.045Y10.084Z-0.23
X57.242Y10.114Z-0.211
X57.44Y10.147Z-0.191
X57.637Y10.181Z-0.171
X57.833Y10.218Z-0.147
X58.029Y10.257Z-0.124
X58.225Y10.298Z-0.098
X58.42Y10.342Z-0.072
X58.615Y10.387Z-0.044
X58.809Y10.435Z-0.014
G0Z2
X58.987Y44.518
G1Z-0.03F75
X58.794Y44.568Z-0.062F150
X58.6Y44.615Z-0.095
X58.405Y44.661Z-0.125
X58.21Y44.704Z-0.154
X58.014Y44.745Z-0.181
X57.818Y44.784Z-0.207
X57.621Y44.821Z-0.232
X57.424Y44.855Z-0.255
X57.227Y44.887Z-0.277
X57.029Y44.917Z-0.297
X56.831Y44.945Z-0.318
X56.632Y44.97Z-0.335
X56.434Y44.993Z-0.352
X56.235Y45.014Z-0.367
X56.036Y45.032Z-0.382
X55.836Y45.049Z-0.395
X55.637Y45.063Z-0.407
X55.437Y45.075Z-0.419
X55.237Y45.084Z-0.428
X55.037Y45.091Z-0.437
X54.838Y45.096Z-0.444
X54.638Y45.099Z-0.451
X54.438Y45.099Z-0.456
X54.238Y45.098Z-0.46
X54.038Y45.094Z-0.456
X53.838Y45.087Z-0.451
X53.638Y45.078Z-0.445
X53.438Y45.068Z-0.438
X53.239Y45.054Z-0.429
X53.039Y45.039Z-0.42
X52.84Y45.021Z-0.408
X52.641Y45.001Z-0.397
X52.442Y44.979Z-0.383
X52.244Y44.954Z-0.369
X52.046Y44.928Z-0.354
X51.848Y44.899Z-0.336
X51.65Y44.867Z-0.319
X51.453Y44.834Z-0.299
X51.256Y44.798Z-0.279
X51.06Y44.76Z-0.257
X50.864Y44.72Z-0.234
X50.668Y44.678Z-0.21
X50.473Y44.633Z-0.184
X50.279Y44.586Z-0.157
X50.085Y44.537Z-0.128
X49.892Y44.486Z-0.099
X49.699Y44.432Z-0.067
X49.507Y44.377Z-0.035
X49.316Y44.319Z0
G0Z2
X49.878Y10.103
G1Z-0.028F75
X50.071Y10.053Z-0.055F150
X50.265Y10.005Z-0.08
X50.46Y9.959Z-0.105
X50.655Y9.915Z-0.127
X50.851Y9.873Z-0.149
X51.047Y9.834Z-0.169
X51.243Y9.797Z-0.188
X51.44Y9.761Z-0.206
X51.637Y9.729Z-0.223
X51.835Y9.698Z-0.237
X52.033Y9.669Z-0.252
X52.231Y9.643Z-0.264
X52.43Y9.619Z-0.276
X52.629Y9.597Z-0.286
X52.828Y9.577Z-0.296
X53.027Y9.56Z-0.303
X53.226Y9.545Z-0.31
X53.426Y9.532Z-0.315
X53.626Y9.521Z-0.319
X53.825Y9.512Z-0.323
X54.025Y9.506Z-0.324
X54.225Y9.502Z-0.325
X54.425Y9.5Z-0.324
X54.625Y9.5Z-0.322
X54.825Y9.503Z-0.318
X55.025Y9.507Z-0.314
X55.225Y9.514Z-0.308
X55.425Y9.523Z-0.301
X55.624Y9.535Z-0.292
X55.824Y9.548Z-0.283
X56.023Y9.564Z-0.272
X56.223Y9.582Z-0.26
X56.421Y9.602Z-0.247
X56.62Y9.625Z-0.232
X56.819Y9.65Z-0.217
X57.017Y9.676Z-0.2
X57.215Y9.706Z-0.182
X57.412Y9.737Z-0.162
X57.609Y9.77Z-0.142
X57.806Y9.806Z-0.12
X58.003Y9.844Z-0.097
X58.199Y9.884Z-0.072
X58.394Y9.926Z-0.045
X58.589Y9.97Z-0.018
G0Z2
X59.072Y44.909
G1Z-0.012F75
X58.878Y44.959Z-0.046F150
X58.684Y45.006Z-0.078
X58.489Y45.052Z-0.109
X58.294Y45.095Z-0.138
X58.098Y45.136Z-0.166
X57.902Y45.175Z-0.191
X57.705Y45.212Z-0.217
X57.508Y45.246Z-0.24
X57.311Y45.278Z-0.263
X57.113Y45.309Z-0.283
X56.915Y45.336Z-0.303
X56.717Y45.362Z-0.322
X56.518Y45.386Z-0.339
X56.319Y45.407Z-0.356
X56.12Y45.426Z-0.37
X55.921Y45.443Z-0.384
X55.722Y45.458Z-0.397
X55.522Y45.47Z-0.408
X55.322Y45.481Z-0.419
X55.122Y45.489Z-0.428
X54.922Y45.494Z-0.434
X54.722Y45.498Z-0.441
X54.522Y45.499Z-0.444
X54.322Y45.498Z-0.447
X54.123Y45.495Z-0.447
X53.923Y45.49Z-0.444
X53.723Y45.483Z-0.44
X53.523Y45.473Z-0.434
X53.323Y45.461Z-0.427
X53.124Y45.447Z-0.418
X52.925Y45.43Z-0.407
X52.725Y45.412Z-0.396
X52.526Y45.391Z-0.384
X52.328Y45.368Z-0.369
X52.129Y45.343Z-0.355
X51.931Y45.315Z-0.338
X51.734Y45.286Z-0.321
X51.536Y45.254Z-0.303
X51.339Y45.22Z-0.283
X51.142Y45.183Z-0.262
X50.946Y45.145Z-0.24
X50.75Y45.104Z-0.217
X50.555Y45.062Z-0.191
X50.36Y45.017Z-0.166
X50.166Y44.97Z-0.138
X49.972Y44.921Z-0.109
X49.778Y44.869Z-0.078
X49.586Y44.816Z-0.046
X49.394Y44.76Z-0.012
G0Z2
X50.042Y9.648
G1Z-0.016F75
X50.236Y9.6Z-0.041F150
X50.431Y9.555Z-0.066
X50.626Y9.512Z-0.088
X50.822Y9.471Z-0.11
X51.018Y9.432Z-0.13
X51.215Y9.395Z-0.149
X51.412Y9.36Z-0.166
X51.609Y9.328Z-0.183
X51.807Y9.298Z-0.197
X52.005Y9.269Z-0.212
X52.203Y9.243Z-0.224
X52.401Y9.219Z-0.236
X52.6Y9.198Z-0.245
X52.799Y9.178Z-0.255
X52.999Y9.161Z-0.262
X53.198Y9.146Z-0.269
X53.398Y9.133Z-0.274
X53.597Y9.122Z-0.279
X53.797Y9.113Z-0.282
X53.997Y9.106Z-0.283
X54.197Y9.102Z-0.284
X54.397Y9.1Z-0.283
X54.597Y9.1Z-0.282
X54.797Y9.102Z-0.278
X54.997Y9.106Z-0.274
X55.197Y9.113Z-0.268
X55.396Y9.121Z-0.261
X55.596Y9.132Z-0.253
X55.796Y9.145Z-0.244
X55.995Y9.16Z-0.234
X56.194Y9.178Z-0.222
X56.393Y9.197Z-0.21
X56.592Y9.219Z-0.196
X56.791Y9.243Z-0.181
X56.989Y9.269Z-0.164
X57.187Y9.297Z-0.146
X57.385Y9.327Z-0.127
X57.582Y9.36Z-0.107
X57.779Y9.394Z-0.085
X57.976Y9.431Z-0.063
X58.172Y9.47Z-0.038
X58.368Y9.511Z-0.013
G0Z2
X58.963Y45.35
G1Z-0.025F75
X58.768Y45.398Z-0.057F150
X58.573Y45.443Z-0.089
X58.378Y45.486Z-0.119
X58.182Y45.527Z-0.148
X57.986Y45.566Z-0.174
X57.79Y45.603Z-0.2
X57.593Y45.638Z-0.224
X57.395Y45.67Z-0.247
X57.198Y45.701Z-0.268
X57Y45.729Z-0.287
X56.801Y45.755Z-0.306
X56.603Y45.779Z-0.323
X56.404Y45.801Z-0.339
X56.205Y45.82Z-0.354
X56.006Y45.838Z-0.368
X55.806Y45.853Z-0.38
X55.607Y45.866Z-0.391
X55.407Y45.877Z-0.4
X55.207Y45.886Z-0.409
X55.007Y45.893Z-0.415
X54.807Y45.897Z-0.421
X54.607Y45.899Z-0.425
X54.407Y45.899Z-0.427
X54.207Y45.897Z-0.428
X54.008Y45.893Z-0.427
X53.808Y45.887Z-0.424
X53.608Y45.878Z-0.421
X53.408Y45.867Z-0.415
X53.209Y45.854Z-0.408
X53.009Y45.839Z-0.399
X52.81Y45.822Z-0.39
X52.611Y45.802Z-0.378
X52.412Y45.781Z-0.366
X52.213Y45.757Z-0.352
X52.015Y45.731Z-0.337
X51.817Y45.703Z-0.321
X51.619Y45.673Z-0.304
X51.422Y45.64Z-0.285
X51.225Y45.606Z-0.265
X51.028Y45.569Z-0.243
X50.832Y45.53Z-0.22
X50.636Y45.489Z-0.196
X50.441Y45.446Z-0.17
X50.246Y45.401Z-0.143
X50.052Y45.354Z-0.115
X49.858Y45.305Z-0.085
X49.665Y45.253Z-0.053
X49.472Y45.199Z-0.021
G0Z2
X50.402Y9.151
G1Z-0.021F75
