(Created with grbl post processor 2023/09/09 00:28)
G21
(G-code generated with BlenderCAM and NC library)
G17G90
(Tool: D = 1.5 mm  type END flutes 2)
S12000M03
G00 Z10.0

G0X0Y0Z10
X16.995Y28.393
G1Z-3.437F50
X16.998Y28.392F100
X17.001Y28.392
X17.004Y28.393
X17.006Y28.395
X17.007Y28.398
X17.007Y28.401
X17.006Y28.404
X17.004Y28.406
X17.001Y28.407
X16.998Y28.407
X16.995Y28.406
X16.993Y28.404
X16.992Y28.401
X16.992Y28.398
X16.993Y28.395
X16.995Y28.393
G0Z10
 
