(Created with grbl post processor 2023/09/09 00:28)
G21
(G-code generated with BlenderCAM and NC library)
G17G90
(Tool: D = 1.5 mm  type END flutes 2)
S12000M03
G00 Z10.0

G0X0Y0Z10
X-0.527Y-0.533
G1Z-2F75
X-0.54Y-0.52F150
X-0.553Y-0.507
X-0.565Y-0.493
X-0.578Y-0.479
X-0.589Y-0.464
X-0.601Y-0.45
X-0.611Y-0.435
X-0.622Y-0.419
X-0.632Y-0.404
X-0.642Y-0.388
X-0.651Y-0.372
X-0.66Y-0.356
X-0.669Y-0.339
X-0.677Y-0.323
X-0.685Y-0.306
X-0.692Y-0.289
X-0.699Y-0.272
X-0.706Y-0.254
X-0.712Y-0.237
X-0.718Y-0.219
X-0.723Y-0.201
X-0.728Y-0.183
X-0.732Y-0.165
X-0.736Y-0.147
X-0.739Y-0.129
X-0.742Y-0.11
X-0.745Y-0.092
X-0.747Y-0.074
X-0.748Y-0.055
X-0.75Y-0.037
X-0.75Y-0.018
X-0.75Y0
Y56.8
X-0.75Y56.818
X-0.75Y56.837
X-0.748Y56.858
X-0.746Y56.878
X-0.744Y56.896
X-0.742Y56.915
X-0.739Y56.933
X-0.735Y56.951
X-0.731Y56.969
X-0.727Y56.987
X-0.722Y57.004
X-0.717Y57.022
X-0.711Y57.039
X-0.705Y57.057
X-0.699Y57.074
X-0.692Y57.091
X-0.684Y57.108
X-0.676Y57.125
X-0.668Y57.141
X-0.66Y57.157
X-0.651Y57.173
X-0.641Y57.189
X-0.632Y57.205
X-0.622Y57.22
X-0.611Y57.235
X-0.6Y57.25
X-0.589Y57.265
X-0.577Y57.279
X-0.566Y57.293
X-0.553Y57.307
X-0.541Y57.32
X-0.528Y57.333
X-0.515Y57.346
X-0.501Y57.358
X-0.486Y57.371
X-0.472Y57.383
X-0.458Y57.394
X-0.443Y57.405
X-0.428Y57.416
X-0.413Y57.426
X-0.398Y57.436
X-0.382Y57.445
X-0.367Y57.455
X-0.35Y57.463
X-0.334Y57.472
X-0.318Y57.48
X-0.301Y57.487
X-0.284Y57.494
X-0.267Y57.501
X-0.25Y57.507
X-0.233Y57.513
X-0.216Y57.519
X-0.198Y57.524
X-0.18Y57.528
X-0.163Y57.533
X-0.145Y57.536
X-0.127Y57.54
X-0.109Y57.543
X-0.091Y57.545
X-0.072Y57.547
X-0.054Y57.549
X-0.036Y57.55
X-0.018Y57.55
X0Y57.551
X64.5
X64.518Y57.55
X64.535Y57.55
X64.553Y57.549
X64.571Y57.547
X64.589Y57.545
X64.607Y57.543
X64.625Y57.54
X64.643Y57.537
X64.66Y57.533
X64.678Y57.529
X64.695Y57.524
X64.713Y57.52
X64.73Y57.514
X64.747Y57.509
X64.764Y57.502
X64.781Y57.496
X64.797Y57.489
X64.814Y57.482
X64.831Y57.473
X64.847Y57.465
X64.863Y57.456
X64.879Y57.447
X64.895Y57.438
X64.91Y57.428
X64.925Y57.418
X64.94Y57.407
X64.955Y57.396
X64.97Y57.385
X64.984Y57.374
X64.998Y57.362
X65.011Y57.349
X65.024Y57.337
X65.037Y57.324
X65.05Y57.31
X65.062Y57.297
X65.074Y57.283
X65.086Y57.269
X65.097Y57.254
X65.108Y57.24
X65.119Y57.225
X65.129Y57.209
X65.139Y57.194
X65.148Y57.178
X65.157Y57.162
X65.166Y57.146
X65.174Y57.129
X65.182Y57.113
X65.189Y57.096
X65.196Y57.08
X65.203Y57.063
X65.209Y57.045
X65.215Y57.028
X65.22Y57.011
X65.225Y56.993
X65.23Y56.976
X65.234Y56.958
X65.237Y56.94
X65.24Y56.922
X65.243Y56.904
X65.246Y56.886
X65.249Y56.851
X65.25Y56.834
X65.251Y56.8
Y4.999
X65.25Y4.981
X65.25Y4.963
X65.249Y4.945
X65.247Y4.927
X65.245Y4.909
X65.243Y4.891
X65.24Y4.874
X65.237Y4.855
X65.233Y4.838
X65.229Y4.82
X65.224Y4.802
X65.219Y4.784
X65.214Y4.767
X65.208Y4.749
X65.201Y4.732
X65.195Y4.715
X65.187Y4.698
X65.18Y4.681
X65.172Y4.665
X65.163Y4.649
X65.155Y4.632
X65.145Y4.616
X65.136Y4.601
X65.126Y4.585
X65.116Y4.57
X65.105Y4.555
X65.094Y4.541
X65.083Y4.526
X65.071Y4.512
X65.059Y4.498
X65.046Y4.485
X65.033Y4.471
X65.02Y4.458
X65.007Y4.446
X64.994Y4.434
X64.98Y4.422
X64.966Y4.411
X64.951Y4.4
X64.937Y4.389
X64.922Y4.379
X64.907Y4.369
X64.892Y4.359
X64.876Y4.35
X64.86Y4.341
X64.845Y4.332
X64.828Y4.324
X64.812Y4.317
X64.796Y4.309
X64.779Y4.302
X64.762Y4.296
X64.745Y4.29
X64.728Y4.284
X64.711Y4.279
X64.693Y4.274
X64.676Y4.269
X64.658Y4.265
X64.64Y4.262
X64.623Y4.259
X64.605Y4.256
X64.588Y4.254
X64.57Y4.252
X64.553Y4.25
X64.535Y4.249
X64.517Y4.249
X64.5Y4.248
X62.55
Y0
X62.55Y-0.019
X62.549Y-0.038
X62.548Y-0.058
X62.546Y-0.077
X62.544Y-0.097
X62.541Y-0.116
X62.538Y-0.135
X62.534Y-0.154
X62.53Y-0.172
X62.526Y-0.189
X62.521Y-0.207
X62.516Y-0.224
X62.511Y-0.241
X62.505Y-0.258
X62.498Y-0.275
X62.491Y-0.291
X62.484Y-0.308
X62.477Y-0.324
X62.469Y-0.34
X62.46Y-0.356
X62.452Y-0.372
X62.443Y-0.387
X62.433Y-0.402
X62.424Y-0.417
X62.414Y-0.432
X62.403Y-0.446
X62.392Y-0.46
X62.381Y-0.474
X62.37Y-0.488
X62.358Y-0.502
X62.345Y-0.515
X62.332Y-0.529
X62.319Y-0.542
X62.305Y-0.554
X62.292Y-0.567
X62.277Y-0.579
X62.263Y-0.591
X62.248Y-0.602
X62.233Y-0.613
X62.218Y-0.623
X62.202Y-0.634
X62.186Y-0.643
X62.17Y-0.653
X62.154Y-0.662
X62.137Y-0.67
X62.12Y-0.678
X62.103Y-0.686
X62.086Y-0.694
X62.069Y-0.7
X62.052Y-0.707
X62.034Y-0.713
X62.016Y-0.719
X61.998Y-0.724
X61.98Y-0.728
X61.962Y-0.733
X61.944Y-0.736
X61.926Y-0.74
X61.908Y-0.743
X61.89Y-0.745
X61.872Y-0.747
X61.853Y-0.749
X61.835Y-0.75
X61.817Y-0.75
X61.8Y-0.751
X0
X-0.018Y-0.75
X-0.036Y-0.75
X-0.054Y-0.749
X-0.072Y-0.747
X-0.091Y-0.745
X-0.109Y-0.743
X-0.127Y-0.74
X-0.145Y-0.736
X-0.162Y-0.733
X-0.18Y-0.728
X-0.198Y-0.724
X-0.215Y-0.719
X-0.233Y-0.713
X-0.25Y-0.707
X-0.267Y-0.701
X-0.284Y-0.694
X-0.301Y-0.687
X-0.318Y-0.68
X-0.334Y-0.672
X-0.35Y-0.663
X-0.366Y-0.655
X-0.382Y-0.646
X-0.398Y-0.636
X-0.413Y-0.626
X-0.428Y-0.616
X-0.443Y-0.605
X-0.458Y-0.594
X-0.472Y-0.583
X-0.486Y-0.571
X-0.5Y-0.559
X-0.513Y-0.547
X-0.527Y-0.533
Z-4F75
X-0.54Y-0.52F150
X-0.553Y-0.507
X-0.565Y-0.493
X-0.578Y-0.479
X-0.589Y-0.464
X-0.601Y-0.45
X-0.611Y-0.435
X-0.622Y-0.419
X-0.632Y-0.404
X-0.642Y-0.388
X-0.651Y-0.372
X-0.66Y-0.356
X-0.669Y-0.339
X-0.677Y-0.323
X-0.685Y-0.306
X-0.692Y-0.289
X-0.699Y-0.272
X-0.706Y-0.254
X-0.712Y-0.237
X-0.718Y-0.219
X-0.723Y-0.201
X-0.728Y-0.183
X-0.732Y-0.165
X-0.736Y-0.147
X-0.739Y-0.129
X-0.742Y-0.11
X-0.745Y-0.092
X-0.747Y-0.074
X-0.748Y-0.055
X-0.75Y-0.037
X-0.75Y-0.018
X-0.75Y0
Y56.8
X-0.75Y56.818
X-0.75Y56.837
X-0.748Y56.858
X-0.746Y56.878
X-0.744Y56.896
X-0.742Y56.915
X-0.739Y56.933
X-0.735Y56.951
X-0.731Y56.969
X-0.727Y56.987
X-0.722Y57.004
X-0.717Y57.022
X-0.711Y57.039
X-0.705Y57.057
X-0.699Y57.074
X-0.692Y57.091
X-0.684Y57.108
X-0.676Y57.125
X-0.668Y57.141
X-0.66Y57.157
X-0.651Y57.173
X-0.641Y57.189
X-0.632Y57.205
X-0.622Y57.22
X-0.611Y57.235
X-0.6Y57.25
X-0.589Y57.265
X-0.577Y57.279
X-0.566Y57.293
X-0.553Y57.307
X-0.541Y57.32
X-0.528Y57.333
X-0.515Y57.346
X-0.501Y57.358
X-0.486Y57.371
X-0.472Y57.383
X-0.458Y57.394
X-0.443Y57.405
X-0.428Y57.416
X-0.413Y57.426
X-0.398Y57.436
X-0.382Y57.445
X-0.367Y57.455
X-0.35Y57.463
X-0.334Y57.472
X-0.318Y57.48
X-0.301Y57.487
X-0.284Y57.494
X-0.267Y57.501
X-0.25Y57.507
X-0.233Y57.513
X-0.216Y57.519
X-0.198Y57.524
X-0.18Y57.528
X-0.163Y57.533
X-0.145Y57.536
X-0.127Y57.54
X-0.109Y57.543
X-0.091Y57.545
X-0.072Y57.547
X-0.054Y57.549
X-0.036Y57.55
X-0.018Y57.55
X0Y57.551
X64.5
X64.518Y57.55
X64.535Y57.55
X64.553Y57.549
X64.571Y57.547
X64.589Y57.545
X64.607Y57.543
X64.625Y57.54
X64.643Y57.537
X64.66Y57.533
X64.678Y57.529
X64.695Y57.524
X64.713Y57.52
X64.73Y57.514
X64.747Y57.509
X64.764Y57.502
X64.781Y57.496
X64.797Y57.489
X64.814Y57.482
X64.831Y57.473
X64.847Y57.465
X64.863Y57.456
X64.879Y57.447
X64.895Y57.438
X64.91Y57.428
X64.925Y57.418
X64.94Y57.407
X64.955Y57.396
X64.97Y57.385
X64.984Y57.374
X64.998Y57.362
X65.011Y57.349
X65.024Y57.337
X65.037Y57.324
X65.05Y57.31
X65.062Y57.297
X65.074Y57.283
X65.086Y57.269
X65.097Y57.254
X65.108Y57.24
X65.119Y57.225
X65.129Y57.209
X65.139Y57.194
X65.148Y57.178
X65.157Y57.162
X65.166Y57.146
X65.174Y57.129
X65.182Y57.113
X65.189Y57.096
X65.196Y57.08
X65.203Y57.063
X65.209Y57.045
X65.215Y57.028
X65.22Y57.011
X65.225Y56.993
X65.23Y56.976
X65.234Y56.958
X65.237Y56.94
X65.24Y56.922
X65.243Y56.904
X65.246Y56.886
X65.249Y56.851
X65.25Y56.834
X65.251Y56.8
Y4.999
X65.25Y4.981
X65.25Y4.963
X65.249Y4.945
X65.247Y4.927
X65.245Y4.909
X65.243Y4.891
X65.24Y4.874
X65.237Y4.855
X65.233Y4.838
X65.229Y4.82
X65.224Y4.802
X65.219Y4.784
X65.214Y4.767
X65.208Y4.749
X65.201Y4.732
X65.195Y4.715
X65.187Y4.698
X65.18Y4.681
X65.172Y4.665
X65.163Y4.649
X65.155Y4.632
X65.145Y4.616
X65.136Y4.601
X65.126Y4.585
X65.116Y4.57
X65.105Y4.555
X65.094Y4.541
X65.083Y4.526
X65.071Y4.512
X65.059Y4.498
X65.046Y4.485
X65.033Y4.471
X65.02Y4.458
X65.007Y4.446
X64.994Y4.434
X64.98Y4.422
X64.966Y4.411
X64.951Y4.4
X64.937Y4.389
X64.922Y4.379
X64.907Y4.369
X64.892Y4.359
X64.876Y4.35
X64.86Y4.341
X64.845Y4.332
X64.828Y4.324
X64.812Y4.317
X64.796Y4.309
X64.779Y4.302
X64.762Y4.296
X64.745Y4.29
X64.728Y4.284
X64.711Y4.279
X64.693Y4.274
X64.676Y4.269
X64.658Y4.265
X64.64Y4.262
X64.623Y4.259
X64.605Y4.256
X64.588Y4.254
X64.57Y4.252
X64.553Y4.25
X64.535Y4.249
X64.517Y4.249
X64.5Y4.248
X62.55
Y0
X62.55Y-0.019
X62.549Y-0.038
X62.548Y-0.058
X62.546Y-0.077
X62.544Y-0.097
X62.541Y-0.116
X62.538Y-0.135
X62.534Y-0.154
X62.53Y-0.172
X62.526Y-0.189
X62.521Y-0.207
X62.516Y-0.224
X62.511Y-0.241
X62.505Y-0.258
X62.498Y-0.275
X62.491Y-0.291
X62.484Y-0.308
X62.477Y-0.324
X62.469Y-0.34
X62.46Y-0.356
X62.452Y-0.372
X62.443Y-0.387
X62.433Y-0.402
X62.424Y-0.417
X62.414Y-0.432
X62.403Y-0.446
X62.392Y-0.46
X62.381Y-0.474
X62.37Y-0.488
X62.358Y-0.502
X62.345Y-0.515
X62.332Y-0.529
X62.319Y-0.542
X62.305Y-0.554
X62.292Y-0.567
X62.277Y-0.579
X62.263Y-0.591
X62.248Y-0.602
X62.233Y-0.613
X62.218Y-0.623
X62.202Y-0.634
X62.186Y-0.643
X62.17Y-0.653
X62.154Y-0.662
X62.137Y-0.67
X62.12Y-0.678
X62.103Y-0.686
X62.086Y-0.694
X62.069Y-0.7
X62.052Y-0.707
X62.034Y-0.713
X62.016Y-0.719
X61.998Y-0.724
X61.98Y-0.728
X61.962Y-0.733
X61.944Y-0.736
X61.926Y-0.74
X61.908Y-0.743
X61.89Y-0.745
X61.872Y-0.747
X61.853Y-0.749
X61.835Y-0.75
X61.817Y-0.75
X61.8Y-0.751
X0
X-0.018Y-0.75
X-0.036Y-0.75
X-0.054Y-0.749
X-0.072Y-0.747
X-0.091Y-0.745
X-0.109Y-0.743
X-0.127Y-0.74
X-0.145Y-0.736
X-0.162Y-0.733
X-0.18Y-0.728
X-0.198Y-0.724
X-0.215Y-0.719
X-0.233Y-0.713
X-0.25Y-0.707
X-0.267Y-0.701
X-0.284Y-0.694
X-0.301Y-0.687
X-0.318Y-0.68
X-0.334Y-0.672
X-0.35Y-0.663
X-0.366Y-0.655
X-0.382Y-0.646
X-0.398Y-0.636
X-0.413Y-0.626
X-0.428Y-0.616
X-0.443Y-0.605
X-0.458Y-0.594
X-0.472Y-0.583
X-0.486Y-0.571
X-0.5Y-0.559
X-0.513Y-0.547
X-0.527Y-0.533
Z-6F75
X-0.54Y-0.52F150
X-0.553Y-0.507
X-0.565Y-0.493
X-0.578Y-0.479
X-0.589Y-0.464
X-0.601Y-0.45
X-0.611Y-0.435
X-0.622Y-0.419
X-0.632Y-0.404
X-0.642Y-0.388
X-0.651Y-0.372
X-0.66Y-0.356
X-0.669Y-0.339
X-0.677Y-0.323
X-0.685Y-0.306
X-0.692Y-0.289
X-0.699Y-0.272
X-0.706Y-0.254
X-0.712Y-0.237
X-0.718Y-0.219
X-0.723Y-0.201
X-0.728Y-0.183
X-0.732Y-0.165
X-0.736Y-0.147
X-0.739Y-0.129
X-0.742Y-0.11
X-0.745Y-0.092
X-0.747Y-0.074
X-0.748Y-0.055
X-0.75Y-0.037
X-0.75Y-0.018
X-0.75Y0
Y56.8
X-0.75Y56.818
X-0.75Y56.837
X-0.748Y56.858
X-0.746Y56.878
X-0.744Y56.896
X-0.742Y56.915
X-0.739Y56.933
X-0.735Y56.951
X-0.731Y56.969
X-0.727Y56.987
X-0.722Y57.004
X-0.717Y57.022
X-0.711Y57.039
X-0.705Y57.057
X-0.699Y57.074
X-0.692Y57.091
X-0.684Y57.108
X-0.676Y57.125
X-0.668Y57.141
X-0.66Y57.157
X-0.651Y57.173
X-0.641Y57.189
X-0.632Y57.205
X-0.622Y57.22
X-0.611Y57.235
X-0.6Y57.25
X-0.589Y57.265
X-0.577Y57.279
X-0.566Y57.293
X-0.553Y57.307
X-0.541Y57.32
X-0.528Y57.333
X-0.515Y57.346
X-0.501Y57.358
X-0.486Y57.371
X-0.472Y57.383
X-0.458Y57.394
X-0.443Y57.405
X-0.428Y57.416
X-0.413Y57.426
X-0.398Y57.436
X-0.382Y57.445
X-0.367Y57.455
X-0.35Y57.463
X-0.334Y57.472
X-0.318Y57.48
X-0.301Y57.487
X-0.284Y57.494
X-0.267Y57.501
X-0.25Y57.507
X-0.233Y57.513
X-0.216Y57.519
X-0.198Y57.524
X-0.18Y57.528
X-0.163Y57.533
X-0.145Y57.536
X-0.127Y57.54
X-0.109Y57.543
X-0.091Y57.545
X-0.072Y57.547
X-0.054Y57.549
X-0.036Y57.55
X-0.018Y57.55
X0Y57.551
X64.5
X64.518Y57.55
X64.535Y57.55
X64.553Y57.549
X64.571Y57.547
X64.589Y57.545
X64.607Y57.543
X64.625Y57.54
X64.643Y57.537
X64.66Y57.533
X64.678Y57.529
X64.695Y57.524
X64.713Y57.52
X64.73Y57.514
X64.747Y57.509
X64.764Y57.502
X64.781Y57.496
X64.797Y57.489
X64.814Y57.482
X64.831Y57.473
X64.847Y57.465
X64.863Y57.456
X64.879Y57.447
X64.895Y57.438
X64.91Y57.428
X64.925Y57.418
X64.94Y57.407
X64.955Y57.396
X64.97Y57.385
X64.984Y57.374
X64.998Y57.362
X65.011Y57.349
X65.024Y57.337
X65.037Y57.324
X65.05Y57.31
X65.062Y57.297
X65.074Y57.283
X65.086Y57.269
X65.097Y57.254
X65.108Y57.24
X65.119Y57.225
X65.129Y57.209
X65.139Y57.194
X65.148Y57.178
X65.157Y57.162
X65.166Y57.146
X65.174Y57.129
X65.182Y57.113
X65.189Y57.096
X65.196Y57.08
X65.203Y57.063
X65.209Y57.045
X65.215Y57.028
X65.22Y57.011
X65.225Y56.993
X65.23Y56.976
X65.234Y56.958
X65.237Y56.94
X65.24Y56.922
X65.243Y56.904
X65.246Y56.886
X65.249Y56.851
X65.25Y56.834
X65.251Y56.8
Y4.999
X65.25Y4.981
X65.25Y4.963
X65.249Y4.945
X65.247Y4.927
X65.245Y4.909
X65.243Y4.891
X65.24Y4.874
X65.237Y4.855
X65.233Y4.838
X65.229Y4.82
X65.224Y4.802
X65.219Y4.784
X65.214Y4.767
X65.208Y4.749
X65.201Y4.732
X65.195Y4.715
X65.187Y4.698
X65.18Y4.681
X65.172Y4.665
X65.163Y4.649
X65.155Y4.632
X65.145Y4.616
X65.136Y4.601
X65.126Y4.585
X65.116Y4.57
X65.105Y4.555
X65.094Y4.541
X65.083Y4.526
X65.071Y4.512
X65.059Y4.498
X65.046Y4.485
X65.033Y4.471
X65.02Y4.458
X65.007Y4.446
X64.994Y4.434
X64.98Y4.422
X64.966Y4.411
X64.951Y4.4
X64.937Y4.389
X64.922Y4.379
X64.907Y4.369
X64.892Y4.359
X64.876Y4.35
X64.86Y4.341
X64.845Y4.332
X64.828Y4.324
X64.812Y4.317
X64.796Y4.309
X64.779Y4.302
X64.762Y4.296
X64.745Y4.29
X64.728Y4.284
X64.711Y4.279
X64.693Y4.274
X64.676Y4.269
X64.658Y4.265
X64.64Y4.262
X64.623Y4.259
X64.605Y4.256
X64.588Y4.254
X64.57Y4.252
X64.553Y4.25
X64.535Y4.249
X64.517Y4.249
X64.5Y4.248
X62.55
Y0
X62.55Y-0.019
X62.549Y-0.038
X62.548Y-0.058
X62.546Y-0.077
X62.544Y-0.097
X62.541Y-0.116
X62.538Y-0.135
X62.534Y-0.154
X62.53Y-0.172
X62.526Y-0.189
X62.521Y-0.207
X62.516Y-0.224
X62.511Y-0.241
X62.505Y-0.258
X62.498Y-0.275
X62.491Y-0.291
X62.484Y-0.308
X62.477Y-0.324
X62.469Y-0.34
X62.46Y-0.356
X62.452Y-0.372
X62.443Y-0.387
X62.433Y-0.402
X62.424Y-0.417
X62.414Y-0.432
X62.403Y-0.446
X62.392Y-0.46
X62.381Y-0.474
X62.37Y-0.488
X62.358Y-0.502
X62.345Y-0.515
X62.332Y-0.529
X62.319Y-0.542
X62.305Y-0.554
X62.292Y-0.567
X62.277Y-0.579
X62.263Y-0.591
X62.248Y-0.602
X62.233Y-0.613
X62.218Y-0.623
X62.202Y-0.634
X62.186Y-0.643
X62.17Y-0.653
X62.154Y-0.662
X62.137Y-0.67
X62.12Y-0.678
X62.103Y-0.686
X62.086Y-0.694
X62.069Y-0.7
X62.052Y-0.707
X62.034Y-0.713
X62.016Y-0.719
X61.998Y-0.724
X61.98Y-0.728
X61.962Y-0.733
X61.944Y-0.736
X61.926Y-0.74
X61.908Y-0.743
X61.89Y-0.745
X61.872Y-0.747
X61.853Y-0.749
X61.835Y-0.75
X61.817Y-0.75
X61.8Y-0.751
X0
X-0.018Y-0.75
X-0.036Y-0.75
X-0.054Y-0.749
X-0.072Y-0.747
X-0.091Y-0.745
X-0.109Y-0.743
X-0.127Y-0.74
X-0.145Y-0.736
X-0.162Y-0.733
X-0.18Y-0.728
X-0.198Y-0.724
X-0.215Y-0.719
X-0.233Y-0.713
X-0.25Y-0.707
X-0.267Y-0.701
X-0.284Y-0.694
X-0.301Y-0.687
X-0.318Y-0.68
X-0.334Y-0.672
X-0.35Y-0.663
X-0.366Y-0.655
X-0.382Y-0.646
X-0.398Y-0.636
X-0.413Y-0.626
X-0.428Y-0.616
X-0.443Y-0.605
X-0.458Y-0.594
X-0.472Y-0.583
X-0.486Y-0.571
X-0.5Y-0.559
X-0.513Y-0.547
X-0.527Y-0.533
G0Z10
 
