(Created with grbl post processor 2023/09/09 13:12)
G21
(G-code generated with BlenderCAM and NC library)
G17G90
(Tool: D = 6.0 mm  type VCARVE flutes 4)
S12000M03
G00 Z2.0

G0X0Y0Z2
X53.515Y12.511
G1Z-0.461F150
X53.472Y12.58Z-0.542
X53.442Y12.635Z-0.605
X53.439Y12.64Z-0.608F300
X53.418Y12.683Z-0.609
X53.396Y12.732Z-0.609
X53.38Y12.772Z-0.61
X53.365Y12.814Z-0.61
X53.352Y12.856Z-0.611
X53.337Y12.911Z-0.612
X53.321Y12.993Z-0.613
X53.313Y13.05Z-0.614
X53.309Y13.098Z-0.615
X53.306Y13.136Z-0.616
X53.306Y13.161Z-0.616
X53.306Y13.187Z-0.616
X53.306Y13.219Z-0.617
X53.306Y13.223Z-0.617
X53.307Y13.244Z-0.617
X53.307Y13.247Z-0.618
X53.309Y13.271Z-0.618
X53.311Y13.294Z-0.619
X53.314Y13.319Z-0.619
X53.317Y13.341Z-0.62
X53.317Y13.343Z-0.62
X53.321Y13.364Z-0.621
X53.321Y13.367Z-0.62
X53.325Y13.387Z-0.621
X53.326Y13.391Z-0.621
X53.33Y13.41Z-0.622
X53.331Y13.415Z-0.622
X53.336Y13.432Z-0.622
X53.337Y13.438Z-0.622
X53.341Y13.454Z-0.623
X53.343Y13.461Z-0.623
X53.348Y13.476Z-0.624
X53.35Y13.483Z-0.624
X53.355Y13.498Z-0.625
X53.357Y13.506Z-0.625
X53.362Y13.52Z-0.625
X53.365Y13.528Z-0.625
X53.37Y13.541Z-0.626
X53.373Y13.549Z-0.626
X53.379Y13.562Z-0.627
X53.382Y13.57Z-0.627
X53.388Y13.583Z-0.627
X53.391Y13.591Z-0.628
X53.398Y13.604Z-0.628
X53.401Y13.612Z-0.628
X53.408Y13.624Z-0.629
X53.411Y13.632Z-0.629
X53.418Y13.644Z-0.63
X53.422Y13.652Z-0.63
X53.43Y13.664Z-0.631
X53.433Y13.671Z-0.631
X53.441Y13.684Z-0.631
X53.445Y13.69Z-0.632
X53.453Y13.703Z-0.632
X53.457Y13.709Z-0.632
X53.466Y13.722Z-0.633
X53.47Y13.728Z-0.633
X53.479Y13.74Z-0.634
X53.483Y13.746Z-0.634
X53.493Y13.758Z-0.635
X53.496Y13.763Z-0.635
X53.507Y13.776Z-0.635
X53.51Y13.781Z-0.635
X53.522Y13.794Z-0.636
X53.525Y13.798Z-0.636
X53.537Y13.811Z-0.637
X53.54Y13.814Z-0.637
X53.553Y13.828Z-0.638
X53.555Y13.83Z-0.638
X53.569Y13.844Z-0.638
X53.571Y13.846Z-0.638
X53.587Y13.862Z-0.639
X53.604Y13.877Z-0.64
X53.621Y13.892Z-0.64
X53.638Y13.906Z-0.641
X53.656Y13.92Z-0.642
X53.675Y13.934Z-0.642
X53.694Y13.947Z-0.643
X53.714Y13.96Z-0.644
X53.734Y13.972Z-0.644
X53.754Y13.984Z-0.645
X53.775Y13.996Z-0.645
X53.796Y14.007Z-0.646
X53.818Y14.018Z-0.646
X53.839Y14.028Z-0.646
X53.862Y14.038Z-0.647
X53.884Y14.047Z-0.647
X53.908Y14.056Z-0.648
X53.932Y14.065Z-0.648
X53.953Y14.072Z-0.648
X53.957Y14.073Z-0.648
X53.977Y14.079Z-0.649
X53.982Y14.081Z-0.649
X54.001Y14.086Z-0.649
X54.007Y14.088Z-0.649
X54.025Y14.092Z-0.649
X54.033Y14.094Z-0.649
X54.05Y14.098Z-0.65
X54.06Y14.101Z-0.649
X54.075Y14.103Z-0.65
X54.087Y14.106Z-0.65
X54.1Y14.108Z-0.65
X54.114Y14.111Z-0.65
X54.125Y14.113Z-0.65
X54.142Y14.116Z-0.65
X54.151Y14.117Z-0.651
X54.171Y14.12Z-0.65
X54.177Y14.12Z-0.651
X54.2Y14.123Z-0.651
X54.203Y14.123Z-0.651
X54.23Y14.126Z-0.651
X54.256Y14.128Z-0.651
X54.26Y14.128Z-0.651
X54.291Y14.13Z-0.652
X54.322Y14.128Z-0.655
X54.354Y14.124Z-0.66
X54.385Y14.116Z-0.667
X54.416Y14.106Z-0.677
X54.42Y13.841Z-0.598
X54.417Y13.837
X54.42Y13.641
X54.417Y13.637
X54.419Y13.516Z-0.599
X54.406Y13.437Z-0.586
X54.418Y13.416Z-0.598
X54.419Y13.316Z-0.599
X54.406Y13.237Z-0.586
X54.432Y13.19
X54.408Y13.05Z-0.589
X54.436Y12.99Z-0.583
X54.402Y12.863Z-0.583
X54.436Y12.79
X54.402Y12.663Z-0.583
X54.462Y12.532Z-0.642
X54.464Y12.532Z-0.644F150
X54.498Y12.524Z-0.637F300
X54.517Y12.52Z-0.634
X54.545Y12.518Z-0.631
X54.573Y12.519Z-0.631
X54.595Y12.52Z-0.63
X54.6Y12.52Z-0.63
X54.619Y12.521Z-0.63
X54.627Y12.521Z-0.63
X54.643Y12.522Z-0.63
X54.654Y12.523Z-0.629
X54.667Y12.524Z-0.629
X54.68Y12.525Z-0.629
X54.69Y12.526Z-0.629
X54.706Y12.527Z-0.628
X54.713Y12.529Z-0.628
X54.731Y12.531Z-0.628
X54.736Y12.531Z-0.628
X54.756Y12.534Z-0.628
X54.78Y12.538Z-0.627
X54.804Y12.542Z-0.627
X54.824Y12.546Z-0.627
X54.828Y12.547Z-0.626
X54.845Y12.551Z-0.626
X54.851Y12.552Z-0.626
X54.866Y12.556Z-0.626
X54.874Y12.558Z-0.626
X54.887Y12.561Z-0.626
X54.896Y12.564Z-0.625
X54.907Y12.567Z-0.625
X54.918Y12.57Z-0.625
X54.927Y12.573Z-0.625
X54.939Y12.577Z-0.625
X54.947Y12.58Z-0.625
X54.96Y12.584Z-0.625
X54.967Y12.586Z-0.625
X54.98Y12.591Z-0.624
X54.986Y12.594Z-0.624
X55Y12.599Z-0.624
X55.006Y12.601Z-0.624
X55.02Y12.607Z-0.624
X55.024Y12.609Z-0.624
X55.039Y12.616Z-0.624
X55.043Y12.618Z-0.624
X55.058Y12.625Z-0.623
X55.061Y12.626Z-0.624
X55.076Y12.634Z-0.623
X55.079Y12.636Z-0.623
X55.093Y12.643Z-0.623
X55.096Y12.645Z-0.623
X55.111Y12.653Z-0.623
X55.113Y12.655Z-0.623
X55.127Y12.663Z-0.623
X55.13Y12.665Z-0.623
X55.144Y12.674Z-0.622
X55.147Y12.676Z-0.623
X55.16Y12.685Z-0.622
X55.163Y12.688Z-0.622
X55.175Y12.696Z-0.622
X55.179Y12.699Z-0.622
X55.19Y12.708Z-0.622
X55.194Y12.711Z-0.622
X55.204Y12.719Z-0.622
X55.209Y12.724Z-0.622
X55.219Y12.731Z-0.621
X55.224Y12.736Z-0.622
X55.232Y12.744Z-0.621
X55.238Y12.75Z-0.621
X55.245Y12.757Z-0.621
X55.252Y12.763Z-0.621
X55.258Y12.77Z-0.621
X55.265Y12.777Z-0.621
X55.271Y12.783Z-0.621
X55.278Y12.792Z-0.621
X55.283Y12.797Z-0.62
X55.29Y12.806Z-0.62
X55.294Y12.811Z-0.62
X55.302Y12.821Z-0.62
X55.305Y12.826Z-0.62
X55.314Y12.837Z-0.62
X55.316Y12.84Z-0.62
X55.325Y12.853Z-0.62
X55.327Y12.855Z-0.619
X55.337Y12.871Z-0.619
X55.346Y12.887Z-0.619
X55.355Y12.903Z-0.619
X55.364Y12.92Z-0.619
X55.372Y12.937Z-0.618
X55.38Y12.954Z-0.618
X55.388Y12.972Z-0.618
X55.395Y12.99Z-0.618
X55.401Y13.009Z-0.617
X55.408Y13.028Z-0.617
X55.413Y13.047Z-0.617
X55.417Y13.063Z-0.617
X55.418Y13.067Z-0.617
X55.422Y13.082Z-0.617
X55.423Y13.088Z-0.616
X55.426Y13.102Z-0.617
X55.427Y13.108Z-0.616
X55.429Y13.121Z-0.616
X55.431Y13.13Z-0.616
X55.433Y13.14Z-0.616
X55.434Y13.151Z-0.616
X55.435Y13.16Z-0.616
X55.437Y13.174Z-0.616
X55.438Y13.18Z-0.616
X55.439Y13.196Z-0.616
X55.439Y13.2Z-0.616
X55.441Y13.22Z-0.616
X55.442Y13.24Z-0.616
X55.442Y13.243Z-0.616
X55.442Y13.26Z-0.616
X55.443Y13.267Z-0.616
X55.442Y13.28Z-0.616
X55.442Y13.29Z-0.616
X55.442Y13.3Z-0.616
X55.442Y13.31Z-0.616
X55.441Y13.319Z-0.617
X55.44Y13.331Z-0.616
X55.44Y13.338Z-0.617
X55.439Y13.351Z-0.617
X55.438Y13.357Z-0.617
X55.436Y13.372Z-0.617
X55.435Y13.377Z-0.617
X55.433Y13.392Z-0.617
X55.433Y13.396Z-0.617
X55.429Y13.415Z-0.617
X55.426Y13.433Z-0.617
X55.421Y13.453Z-0.617
X55.417Y13.471Z-0.617
X55.416Y13.474Z-0.617
X55.412Y13.489Z-0.617
X55.411Y13.494Z-0.617
X55.406Y13.507Z-0.618
X55.404Y13.514Z-0.617
X55.4Y13.526Z-0.618
X55.398Y13.534Z-0.618
X55.394Y13.544Z-0.618
X55.39Y13.553Z-0.618
X55.387Y13.562Z-0.618
X55.382Y13.573Z-0.618
X55.379Y13.579Z-0.618
X55.374Y13.592Z-0.618
X55.371Y13.597Z-0.618
X55.365Y13.611Z-0.618
X55.363Y13.615Z-0.619
X55.355Y13.632Z-0.619
X55.345Y13.649Z-0.619
X55.335Y13.668Z-0.619
X55.326Y13.682Z-0.62
X55.324Y13.686Z-0.619
X55.315Y13.699Z-0.62
X55.312Y13.705Z-0.62
X55.305Y13.715Z-0.62
X55.3Y13.723Z-0.62
X55.293Y13.731Z-0.621
X55.287Y13.74Z-0.621
X55.282Y13.747Z-0.621
X55.274Y13.758Z-0.621
X55.27Y13.763Z-0.621
X55.26Y13.775Z-0.621
X55.257Y13.778Z-0.622
X55.244Y13.793Z-0.622
X55.231Y13.808Z-0.622
X55.217Y13.823Z-0.623
X55.215Y13.825Z-0.623
X55.203Y13.837Z-0.624
X55.2Y13.841Z-0.623
X55.189Y13.851Z-0.624
X55.183Y13.857Z-0.624
X55.174Y13.865Z-0.625
X55.167Y13.872Z-0.625
X55.159Y13.878Z-0.625
X55.149Y13.887Z-0.625
X55.143Y13.892Z-0.626
X55.131Y13.902Z-0.626
X55.127Y13.905Z-0.626
X55.113Y13.916Z-0.627
X55.094Y13.93Z-0.627
X55.075Y13.944Z-0.628
X55.06Y13.954Z-0.629
X55.055Y13.957Z-0.629
X55.042Y13.965Z-0.629
X55.035Y13.97Z-0.629
X55.024Y13.976Z-0.63
X55.015Y13.982Z-0.63
X55.005Y13.987Z-0.631
X54.993Y13.994Z-0.631
X54.986Y13.997Z-0.631
X54.972Y14.005Z-0.632
X54.967Y14.008Z-0.632
X54.95Y14.017Z-0.632
X54.927Y14.027Z-0.633
X54.907Y14.036Z-0.634
X54.904Y14.037Z-0.634
X54.887Y14.045Z-0.635
X54.881Y14.047Z-0.635
X54.866Y14.053Z-0.635
X54.857Y14.057Z-0.635
X54.844Y14.061Z-0.636
X54.833Y14.066Z-0.636
X54.823Y14.069Z-0.637
X54.808Y14.074Z-0.637
X54.801Y14.076Z-0.638
X54.783Y14.082Z-0.638
X54.779Y14.083Z-0.638
X54.756Y14.089Z-0.639
X54.732Y14.096Z-0.639
X54.71Y14.101Z-0.64
X54.705Y14.102Z-0.64
X54.687Y14.106Z-0.641
X54.678Y14.108Z-0.641
X54.663Y14.111Z-0.641
X54.651Y14.114Z-0.642
X54.639Y14.115Z-0.642
X54.623Y14.118Z-0.642
X54.614Y14.119Z-0.643
X54.595Y14.123Z-0.643
X54.59Y14.123Z-0.643
X54.416Y14.106Z-0.677
X54.446Y14.115Z-0.666
X54.477Y14.122Z-0.657
X54.507Y14.126Z-0.651
X54.537Y14.128Z-0.646
X54.566Y14.126Z-0.644
X54.59Y14.123Z-0.643
G0Z2
X54.42Y13.841
G1Z-0.598F150
X54.559Z-0.46F300
X54.59Y14.123Z-0.643F150
G0Z2
X54.295Y12.463
G1Z-0.475
X54.324Y12.466Z-0.504
X54.352Y12.472Z-0.532
X54.378Y12.481Z-0.558
X54.405Y12.494Z-0.585
X54.432Y12.51Z-0.613
X54.462Y12.532Z-0.642
G0Z2
X55.216Y16.294
G1Z-0.589
X55.386Y16.428Z-0.461F300
X55.382Y16.442Z-0.475F150
X55.379Y16.457Z-0.49
X55.382Y16.442Z-0.475F300
X55.377Y16.474Z-0.506F150
X55.379Y16.457Z-0.49F300
X55.376Y16.491Z-0.523F150
X55.377Y16.474Z-0.506F300
X55.376Y16.508Z-0.541F150
X55.376Y16.491Z-0.523F300
X55.376Y16.508Z-0.541F150
X55.38Y16.608Z-0.641
X55.489Y16.621Z-0.648F300
X55.527Y16.627Z-0.642
X55.589Y16.605Z-0.646
X55.689Y16.616Z-0.652
X55.727Y16.622Z-0.646
X55.79Y16.601
X55.927Y16.622
X55.99Y16.601
X56.127Y16.622
X56.158Y16.611Z-0.657
X56.258
X56.327Y16.622Z-0.646
X56.358Y16.611Z-0.657
X56.429
X56.527Y16.511Z-0.557
X56.429Y16.611Z-0.657F150
X56.527Y16.711Z-0.557F300
G0Z2
X55.209Y16.304
G1Z-0.589F150
X55.216Y16.294Z-0.589F300
X55.209Y16.304Z-0.589
X55.382Y16.442Z-0.475
G0Z2
X55.201Y16.314
G1Z-0.589F150
X55.209Y16.304Z-0.589F300
X55.201Y16.314Z-0.589
X55.379Y16.457Z-0.49
G0Z2
X55.194Y16.324
G1Z-0.588F150
X55.201Y16.314Z-0.589F300
X55.194Y16.324Z-0.588
X55.377Y16.474Z-0.506
G0Z2
X55.186Y16.334
G1Z-0.588F150
X55.194Y16.324Z-0.588F300
X55.186Y16.334Z-0.588
X55.376Y16.491Z-0.523
G0Z2
X55.178Y16.344
G1Z-0.588F150
X55.186Y16.334Z-0.588F300
X55.178Y16.344Z-0.588
X55.376Y16.508Z-0.541
G0Z2
X55.102Y16.589
G1Z-0.679F150
X55.104Y16.548Z-0.664F300
X55.106Y16.529Z-0.653
X55.108Y16.511Z-0.642
X55.111Y16.493Z-0.632
X55.115Y16.476Z-0.624
X55.119Y16.46Z-0.616
X55.123Y16.445Z-0.609
X55.128Y16.43Z-0.604
X55.134Y16.416Z-0.599
X55.14Y16.403Z-0.595
X55.146Y16.39Z-0.592
X55.153Y16.378Z-0.59
X55.161Y16.366Z-0.588
X55.169Y16.355Z-0.588
X55.178Y16.344Z-0.588
G0Z2
X55.102Y16.589
G1Z-0.679F150
X55.127Y16.605Z-0.663F300
X55.327Y16.629Z-0.639
X55.38Y16.608Z-0.641
G0Z2
X53.61Y16.596
G1Z-0.673F150
X53.704Y16.624Z-0.645F300
X53.82Y16.599
X53.904Y16.624
X54.02Y16.599
X54.104Y16.624
X54.22Y16.599
X54.304Y16.624Z-0.645
X54.335Y16.617Z-0.652
X54.435Y16.603Z-0.649
X54.504Y16.624Z-0.645
X54.535Y16.617Z-0.652
X54.65Y16.601Z-0.647
X54.704Y16.621
X54.816Y16.606Z-0.652
X54.85Y16.599Z-0.645
X54.927Y16.623
X55.102Y16.589Z-0.679
G0Z2
X53.514Y16.341
G1Z-0.58F150
X53.537Y16.371Z-0.577F300
X53.545Y16.381Z-0.577
X53.552Y16.392Z-0.578
X53.558Y16.404Z-0.579
X53.564Y16.416Z-0.582
X53.57Y16.428Z-0.585
X53.575Y16.442Z-0.589
X53.584Y16.469Z-0.599
X53.589Y16.484Z-0.605
X53.593Y16.499Z-0.612
X53.596Y16.515Z-0.62
X53.61Y16.596Z-0.673F150
G0Z2
X53.383Y16.63
G1Z-0.618
X53.504Y16.644Z-0.624F300
X53.61Y16.596Z-0.673
G0Z2
X53.507Y16.332
G1Z-0.581F150
X53.481Y16.294Z-0.584F300
X53.462Y16.265Z-0.587
X53.445Y16.236Z-0.589
X53.423Y16.197Z-0.593
X53.394Y16.139Z-0.598
X53.377Y16.101Z-0.602
X53.363Y16.062Z-0.605
X53.35Y16.024Z-0.609
X53.333Y15.959Z-0.614
X53.326Y15.924Z-0.617
X53.317Y15.864Z-0.622
X53.316Y15.839Z-0.623
X53.315Y15.8Z-0.625
X53.316Y15.771Z-0.627
X53.316Y15.767Z-0.627
X53.317Y15.751Z-0.627
X53.318Y15.744Z-0.628
X53.319Y15.731Z-0.628
X53.32Y15.722Z-0.629
X53.321Y15.711Z-0.629
X53.323Y15.7Z-0.63
X53.324Y15.691Z-0.63
X53.327Y15.678Z-0.63
X53.328Y15.671Z-0.631
X53.331Y15.656Z-0.631
X53.332Y15.651Z-0.631
X53.336Y15.632Z-0.632
X53.342Y15.612Z-0.633
X53.347Y15.593Z-0.634
X53.348Y15.591Z-0.634
X53.353Y15.574Z-0.634
X53.355Y15.569Z-0.635
X53.36Y15.556Z-0.635
X53.363Y15.548Z-0.636
X53.367Y15.537Z-0.636
X53.371Y15.527Z-0.637
X53.374Y15.519Z-0.637
X53.38Y15.507Z-0.637
X53.382Y15.5Z-0.637
X53.389Y15.486Z-0.638
X53.391Y15.482Z-0.638
X53.4Y15.465Z-0.639
X53.41Y15.446Z-0.64
X53.42Y15.43Z-0.641
X53.421Y15.427Z-0.641
X53.43Y15.412Z-0.641
X53.433Y15.408Z-0.642
X53.441Y15.395Z-0.642
X53.446Y15.389Z-0.642
X53.453Y15.379Z-0.643
X53.459Y15.37Z-0.643
X53.465Y15.362Z-0.643
X53.473Y15.352Z-0.644
X53.477Y15.346Z-0.644
X53.487Y15.334Z-0.645
X53.49Y15.33Z-0.645
X53.502Y15.317Z-0.646
X53.504Y15.314Z-0.646
X53.518Y15.299Z-0.646
X53.533Y15.283Z-0.647
X53.547Y15.268Z-0.648
X53.563Y15.254Z-0.649
X53.566Y15.251Z-0.649
X53.579Y15.239Z-0.649
X53.584Y15.235Z-0.65
X53.595Y15.225Z-0.65
X53.602Y15.22Z-0.65
X53.612Y15.211Z-0.651
X53.62Y15.205Z-0.651
X53.63Y15.198Z-0.651
X53.639Y15.191Z-0.652
X53.648Y15.185Z-0.652
X53.659Y15.177Z-0.652
X53.666Y15.172Z-0.653
X53.678Y15.164Z-0.653
X53.685Y15.159Z-0.653
X53.699Y15.151Z-0.654
X53.704Y15.147Z-0.654
X53.719Y15.138Z-0.654
X53.724Y15.135Z-0.654
X53.74Y15.126Z-0.655
X53.745Y15.123Z-0.655
X53.762Y15.114Z-0.656
X53.766Y15.112Z-0.656
X53.784Y15.103Z-0.656
X53.787Y15.101Z-0.656
X53.806Y15.092Z-0.657
X53.809Y15.091Z-0.657
X53.829Y15.082Z-0.657
X53.832Y15.08Z-0.657
X53.852Y15.072Z-0.658
X53.855Y15.071Z-0.658
X53.878Y15.061Z-0.658
X53.9Y15.053Z-0.659
X53.902Y15.052Z-0.659
X53.924Y15.045Z-0.659
X53.927Y15.044Z-0.659
X53.949Y15.037Z-0.66
X53.952Y15.036Z-0.66
X53.974Y15.029Z-0.66
X53.977Y15.028Z-0.66
X53.999Y15.022Z-0.661
X54.003Y15.021Z-0.661
X54.025Y15.015Z-0.661
X54.03Y15.014Z-0.661
X54.051Y15.009Z-0.661
X54.057Y15.007Z-0.661
X54.077Y15.003Z-0.662
X54.085Y15.001Z-0.662
X54.104Y14.998Z-0.662
X54.113Y14.996Z-0.662
X54.131Y14.993Z-0.662
X54.142Y14.991Z-0.662
X54.159Y14.989Z-0.662
X54.171Y14.987Z-0.662
X54.186Y14.985Z-0.663
X54.201Y14.983Z-0.662
X54.214Y14.982Z-0.663
X54.231Y14.979Z-0.663
X54.243Y14.979Z-0.663
X54.262Y14.977Z-0.663
X54.271Y14.976Z-0.663
X54.294Y14.974Z-0.663
X54.3Y14.974Z-0.663
X54.326Y14.973Z-0.663
X54.33Y14.973Z-0.664
X54.359Y14.972Z-0.663
X54.389Y14.971Z-0.664
X54.392Y14.971Z-0.663
X54.417Y14.971Z-0.664
X54.424Y14.971Z-0.663
X54.443Y14.972Z-0.664
X54.454Y14.971Z-0.663
X54.47Y14.972Z-0.664
X54.484Y14.972Z-0.663
X54.495Y14.973Z-0.664
X54.514Y14.973Z-0.663
X54.521Y14.974Z-0.664
X54.543Y14.975Z-0.663
X54.547Y14.976Z-0.664
X54.572Y14.977Z-0.663
X54.597Y14.98Z-0.663
X54.6Y14.98Z-0.663
X54.622Y14.982Z-0.663
X54.628Y14.982Z-0.663
X54.647Y14.985Z-0.663
X54.655Y14.986Z-0.663
X54.671Y14.988Z-0.663
X54.682Y14.989Z-0.663
X54.695Y14.992Z-0.663
X54.709Y14.993Z-0.662
X54.719Y14.995Z-0.663
X54.735Y14.998Z-0.662
X54.743Y15Z-0.662
X54.76Y15.002Z-0.662
X54.767Y15.004Z-0.662
X54.785Y15.008Z-0.662
X54.79Y15.009Z-0.662
X54.81Y15.013Z-0.662
X54.813Y15.014Z-0.662
X54.834Y15.019Z-0.661
X54.881Y15.032Z-0.661
X54.926Y15.046Z-0.661
X54.969Y15.062Z-0.66
X54.987Y15.07Z-0.66
X55.007Y15.078Z-0.66
X55.011Y15.08Z-0.66
X55.026Y15.087Z-0.659
X55.032Y15.09Z-0.659
X55.045Y15.096Z-0.659
X55.052Y15.1Z-0.659
X55.064Y15.106Z-0.659
X55.072Y15.111Z-0.659
X55.081Y15.116Z-0.658
X55.092Y15.122Z-0.658
X55.099Y15.126Z-0.658
X55.111Y15.133Z-0.658
X55.116Y15.136Z-0.658
X55.132Y15.147Z-0.657
X55.163Y15.168Z-0.657
X55.167Y15.172Z-0.657
X55.178Y15.18Z-0.656
X55.185Y15.185Z-0.656
X55.193Y15.191Z-0.656
X55.202Y15.2Z-0.655
X55.206Y15.203Z-0.655
X55.22Y15.216Z-0.655
X55.233Y15.228Z-0.654
X55.246Y15.241Z-0.653
X55.251Y15.247Z-0.653
X55.258Y15.254Z-0.653
X55.266Y15.263Z-0.653
X55.27Y15.267Z-0.652
X55.292Y15.295Z-0.651
X55.295Y15.298Z-0.651
X55.303Y15.309Z-0.65
X55.308Y15.317Z-0.65
X55.313Y15.323Z-0.649
X55.321Y15.335Z-0.649
X55.323Y15.338Z-0.648
X55.342Y15.369Z-0.647
X55.345Y15.374Z-0.646
X55.351Y15.385Z-0.646
X55.355Y15.395Z-0.645
X55.359Y15.402Z-0.645
X55.365Y15.415Z-0.644
X55.367Y15.419Z-0.644
X55.375Y15.436Z-0.643
X55.382Y15.454Z-0.641
X55.383Y15.457Z-0.641
X55.389Y15.472Z-0.64
X55.391Y15.479Z-0.64
X55.395Y15.491Z-0.639
X55.398Y15.501Z-0.639
X55.401Y15.51Z-0.638
X55.404Y15.523Z-0.637
X55.406Y15.53Z-0.637
X55.41Y15.545Z-0.636
X55.411Y15.55Z-0.635
X55.415Y15.568Z-0.635
X55.416Y15.571Z-0.634
X55.42Y15.593Z-0.633
X55.423Y15.615Z-0.632
X55.426Y15.637Z-0.63
X55.429Y15.661Z-0.629
X55.431Y15.685Z-0.628
X55.431Y15.7Z-0.627
X55.432Y15.729Z-0.626
X55.432Y15.748Z-0.624
X55.431Y15.777Z-0.622
X55.43Y15.782Z-0.622
X55.428Y15.807Z-0.62
X55.424Y15.837Z-0.617
X55.417Y15.878Z-0.614
X55.41Y15.909Z-0.611
X55.394Y15.964Z-0.607
X55.384Y15.993Z-0.605
X55.372Y16.025Z-0.603
X55.358Y16.056Z-0.6
X55.343Y16.088Z-0.599
X55.327Y16.12Z-0.597
X55.297Y16.173Z-0.594
X55.265Y16.224Z-0.592
X55.245Y16.254Z-0.591
X55.223Y16.284Z-0.59
X55.216Y16.294Z-0.589
G0Z2
X53.507Y16.332
G1Z-0.581F150
X53.514Y16.341Z-0.58F300
G0Z2
X53.327Y16.496
G1Z-0.478F150
X53.351Y16.483Z-0.468F300
X53.514Y16.341Z-0.58
G0Z2
X53.327Y16.496
G1Z-0.478F150
X53.324Y16.488Z-0.469F300
X53.507Y16.332Z-0.581
G0Z2
X53.327Y16.496
G1Z-0.478F150
X53.335Y16.552Z-0.534
X53.383Y16.63Z-0.618
X53.304Y16.752Z-0.516F300
X53.361Y16.652Z-0.616F150
X53.383Y16.63Z-0.618F300
G0Z2
X53.417Y17.79
G1Z-0.723F150
X53.431Y17.803Z-0.742
X53.446Y17.802Z-0.743F300
X53.465Y17.803Z-0.741
X53.472Y17.798Z-0.734
X53.471Y17.798Z-0.734
X53.486Y17.793Z-0.718
X53.473Y17.797Z-0.732F150
X53.474Y17.796Z-0.73F300
X53.473Y17.797Z-0.732F150
X53.48Y17.793Z-0.724F300
X53.473Y17.797Z-0.732F150
X53.474Y17.796Z-0.731F300
X53.472Y17.798Z-0.733F150
X53.474Y17.797Z-0.73F300
X53.471Y17.798Z-0.734F150
X53.474Y17.796Z-0.73F300
X53.47Y17.799Z-0.735F150
X53.465Y17.803Z-0.741
X53.479Y17.813Z-0.725F300
X53.478Y17.813Z-0.725F150
X53.479Y17.813Z-0.725F300
X53.478Y17.813Z-0.725F150
X53.48Y17.814Z-0.724F300
X53.478Y17.812Z-0.726F150
X53.481Y17.814Z-0.723F300
X53.477Y17.812Z-0.728F150
X53.478Y17.813Z-0.725F300
X53.475Y17.811Z-0.729F150
X53.484Y17.814Z-0.72F300
X53.424Y17.798Z-0.735
X53.423Y17.797Z-0.733
X53.423Y17.796Z-0.733
X53.426Y17.799Z-0.736F150
X53.423Y17.796Z-0.732F300
X53.425Y17.798Z-0.735F150
X53.423Y17.797Z-0.733F300
X53.424Y17.798Z-0.735F150
X53.421Y17.798Z-0.732F300
X53.426Y17.799Z-0.736F150
X53.423Y17.797Z-0.733F300
X53.421Y17.795Z-0.73
X53.424Y17.798Z-0.734F150
X53.423Y17.797Z-0.733F300
X53.417Y17.796Z-0.727
X53.425Y17.799Z-0.736F150
X53.416Y17.795Z-0.726F300
X53.425Y17.798Z-0.735F150
X53.421Y17.81Z-0.731F300
X53.431Y17.803Z-0.742F150
X53.418Y17.813Z-0.727F300
X53.416Y17.813Z-0.725
X53.419Y17.812Z-0.728F150
X53.416Y17.812Z-0.726F300
X53.421Y17.81Z-0.731F150
X53.417Y17.813Z-0.726F300
X53.415Y17.815Z-0.724
X53.419Y17.812Z-0.728F150
X53.414Y17.813Z-0.724F300
X53.42Y17.811Z-0.73F150
X53.417Y17.813Z-0.726F300
X53.411Y17.82Z-0.717
X53.419Y17.812Z-0.728F150
G0Z2
X53.304Y18.805
G1Z-0.521
X53.366Y18.905Z-0.621
X53.394Y18.934Z-0.615F300
X53.504Y18.909Z-0.625
X53.647Y18.957Z-0.673
X53.704Y18.933Z-0.648
X53.872Y18.947
X53.904Y18.933
X53.997Y18.94Z-0.654
X54.022Y18.939Z-0.655
X54.121Y18.944Z-0.651
X54.14Y18.935
X54.321Y18.944
X54.34Y18.935
X54.54Y18.945Z-0.661
X54.552Y18.952Z-0.667
X54.653Y18.941Z-0.656
X54.677Y18.94Z-0.655
X54.691Y18.94Z-0.655
X54.701Y18.94Z-0.654
X54.708Y18.94Z-0.655
X54.725Y18.941Z-0.654
X54.74Y18.942Z-0.654
X54.748Y18.942Z-0.654
X54.756Y18.942Z-0.654
X54.793Y18.945Z-0.654
X54.805Y18.946Z-0.654
X54.815Y18.947Z-0.654
X54.822Y18.948Z-0.654
X54.838Y18.949Z-0.654
X54.858Y18.952Z-0.653
X54.871Y18.954Z-0.653
X54.879Y18.955Z-0.653
X54.887Y18.956Z-0.653
X54.899Y18.958Z-0.653
X54.939Y18.966Z-0.653
X54.952Y18.969Z-0.653
X54.958Y18.97Z-0.653
X54.968Y18.973Z-0.653
X54.976Y18.975Z-0.653
X54.985Y18.977Z-0.653
X54.994Y18.98Z-0.653
X55.001Y18.982Z-0.653
X55.012Y18.985Z-0.653
X55.017Y18.987Z-0.653
X55.029Y18.99Z-0.653
X55.062Y19.002Z-0.653
X55.094Y19.014Z-0.654
X55.108Y19.021Z-0.654
X55.123Y19.028Z-0.654
X55.137Y19.035Z-0.653
X55.151Y19.042Z-0.653
X55.164Y19.05Z-0.653
X55.19Y19.066Z-0.653
X55.201Y19.073Z-0.653
X55.213Y19.082Z-0.653
X55.224Y19.09Z-0.652
X55.248Y19.11Z-0.652
X55.256Y19.117Z-0.651
X55.266Y19.126Z-0.651
X55.287Y19.148Z-0.65
X55.295Y19.156Z-0.649
X55.304Y19.167Z-0.649
X55.321Y19.189Z-0.647
X55.329Y19.2Z-0.646
X55.337Y19.212Z-0.645
X55.354Y19.239Z-0.644
X55.36Y19.251Z-0.643
X55.363Y19.256Z-0.642
X55.367Y19.264Z-0.641
X55.371Y19.273Z-0.641
X55.374Y19.279Z-0.64
X55.381Y19.294Z-0.639
X55.387Y19.309Z-0.638
X55.399Y19.341Z-0.636
X55.4Y19.345Z-0.636
X55.404Y19.359Z-0.634
X55.406Y19.364Z-0.634
X55.409Y19.376Z-0.633
X55.411Y19.383Z-0.633
X55.414Y19.395Z-0.632
X55.415Y19.402Z-0.632
X55.418Y19.414Z-0.631
X55.42Y19.421Z-0.63
X55.422Y19.433Z-0.63
X55.423Y19.441Z-0.629
X55.426Y19.453Z-0.628
X55.426Y19.461Z-0.628
X55.429Y19.474Z-0.627
X55.429Y19.481Z-0.627
X55.431Y19.496Z-0.626
X55.431Y19.501Z-0.626
X55.433Y19.518Z-0.625
X55.433Y19.522Z-0.625
X55.434Y19.542Z-0.624
X55.435Y19.575Z-0.623
X55.434Y19.639Z-0.621
X55.431Y19.684Z-0.62
X55.426Y19.727Z-0.619
X55.422Y19.757Z-0.618
X55.417Y19.786Z-0.618
X55.412Y19.816Z-0.617
X55.406Y19.844Z-0.617
X55.399Y19.873Z-0.616
X55.391Y19.901Z-0.616
X55.379Y19.943Z-0.615
X55.355Y20.013Z-0.615
X55.341Y20.051Z-0.614
X55.325Y20.09Z-0.614
X55.308Y20.127Z-0.614
X55.285Y20.176Z-0.614
X55.241Y20.259Z-0.614
X55.237Y20.266Z-0.609
X55.246Y20.288Z-0.594
X55.252Y20.306Z-0.581
X55.256Y20.323Z-0.568
X55.26Y20.339Z-0.555
X55.262Y20.355Z-0.543
X55.263Y20.37Z-0.53
X55.263Y20.384Z-0.518
X55.261Y20.398Z-0.505
X55.259Y20.41Z-0.493
X55.255Y20.422Z-0.481
X55.251Y20.433Z-0.469
G0Z2
X55.071Y20.344
G1Z-0.46F150
X55.078Y20.335Z-0.471
X55.085Y20.326Z-0.482
X55.093Y20.319Z-0.492
X55.102Y20.311Z-0.503
X55.112Y20.304Z-0.514
X55.123Y20.298Z-0.525
X55.135Y20.292Z-0.536
X55.148Y20.287Z-0.547
X55.163Y20.282Z-0.558
X55.178Y20.278Z-0.569
X55.196Y20.275Z-0.581
X55.214Y20.272Z-0.593
X55.227Y20.27Z-0.6
X55.237Y20.266Z-0.609
G0Z2
X55.28Y21.05
G1Z-0.519
X55.38Y21.109Z-0.619
X55.48Y21.05Z-0.519F300
G0Z2
X55.38Y21.771
G1Z-0.703F150
Y21.486Z-0.619F300
Y21.368
X55.389Y21.286Z-0.609
X55.371Y21.25
X55.38Y21.168Z-0.619
Y21.109
G0Z2
Y21.771
G1Z-0.703F150
X55.627Z-0.638F300
X55.639Y21.764Z-0.638
X55.768Y21.764Z-0.636
X55.828Y21.774Z-0.622
X55.897Y21.746Z-0.619
X55.957Y21.756Z-0.629
X56.027Y21.756Z-0.627
X56.033Y21.749Z-0.623
X56.097Y21.649Z-0.523
X56.027Y21.756Z-0.627F150
X56.093Y21.849Z-0.53F300
G0Z2
X55.367Y21.782
G1Z-0.704F150
X55.38Y21.771Z-0.703F300
G0Z2
X55.369Y22.251
G1Z-0.534F150
X55.379Y22.232Z-0.553
X55.373Y22.151Z-0.612
X55.375Y22.132Z-0.613F300
X55.375Y22.051Z-0.614
X55.384Y22.032Z-0.609
X55.367Y21.782Z-0.704
G0Z2
X53.339Y21.058
G1Z-0.605F150
X53.349Y21.05Z-0.594F300
X53.372Y21.04Z-0.579
X53.393Y21.031Z-0.564
X53.411Y21.021Z-0.55
X53.427Y21.01Z-0.536
X53.44Y21Z-0.523
X53.452Y20.989Z-0.509
X53.461Y20.978Z-0.496
X53.469Y20.967Z-0.483
X53.475Y20.955Z-0.47
X53.479Y20.947Z-0.462
X53.339Y21.058Z-0.605F150
X53.337Y21.064Z-0.61
X53.318Y21.155Z-0.612F300
X53.311Y21.222Z-0.615
X53.309Y21.274Z-0.619
X53.31Y21.312Z-0.621
X53.311Y21.325Z-0.622
X53.312Y21.339Z-0.623
X53.312Y21.344Z-0.623
X53.314Y21.354Z-0.624
X53.315Y21.363Z-0.624
X53.316Y21.369Z-0.625
X53.32Y21.399Z-0.627
X53.323Y21.416Z-0.629
X53.327Y21.432Z-0.63
X53.331Y21.447Z-0.632
X53.335Y21.462Z-0.634
X53.34Y21.476Z-0.635
X53.345Y21.49Z-0.637
X53.35Y21.503Z-0.638
X53.36Y21.527Z-0.641
X53.371Y21.549Z-0.644
X53.383Y21.569Z-0.646
X53.395Y21.588Z-0.648
X53.408Y21.605Z-0.65
X53.42Y21.62Z-0.652
X53.433Y21.634Z-0.653
X53.454Y21.654Z-0.655
X53.469Y21.666Z-0.656
X53.485Y21.678Z-0.656
X53.502Y21.69Z-0.657
X53.53Y21.706Z-0.657
X53.55Y21.716Z-0.657
X53.572Y21.726Z-0.657
X53.596Y21.735Z-0.656
X53.621Y21.743Z-0.656
X53.648Y21.751Z-0.656
X53.676Y21.758Z-0.656
X53.706Y21.764Z-0.655
X53.737Y21.769Z-0.655
X53.788Y21.776Z-0.655
X53.805Y21.777Z-0.655
X53.823Y21.779Z-0.655
X53.878Y21.781Z-0.655
X53.897Y21.782Z-0.655
X53.917Y21.782Z-0.655
X54.014Y21.779Z-0.652
X54.027Y21.785
X54.214Y21.779
X54.227Y21.785
X54.367Y21.78Z-0.654
X54.427Y21.794Z-0.642
X54.467Y21.783Z-0.653
X54.567Y21.78Z-0.654
X54.574Y21.782Z-0.655
X54.674
X54.721Y21.769Z-0.642
X54.774Y21.782Z-0.655
X55.121
X55.367Z-0.704
G0Z2
X53.284Y20.9
G1Z-0.466F150
X53.283Y20.907Z-0.472
X53.282Y20.92Z-0.486
X53.282Y20.927Z-0.492
X53.283Y20.941Z-0.506
X53.285Y20.956Z-0.519
X53.289Y20.971Z-0.533
X53.295Y20.986Z-0.546
X53.303Y21.002Z-0.56
X53.312Y21.019Z-0.573
X53.322Y21.035Z-0.587
X53.334Y21.052Z-0.6
X53.339Y21.058Z-0.605
G0Z2
X53.304Y22.886
G1Z-0.555
X53.4Y22.986Z-0.655
X53.844F300
X53.904Y22.998Z-0.643
X53.983Y22.973
X54.018Y22.98Z-0.65
X54.132Y22.995Z-0.645
X54.183Y22.976
X54.332Y22.995
X54.383Y22.976
X54.532Y22.995
X54.583Y22.976
X54.643Y22.984Z-0.653
X54.665Y22.985Z-0.655
X54.687Y22.986Z-0.655
X54.696Y22.986Z-0.655
X54.708Y22.986Z-0.656
X54.721Y22.986Z-0.656
X54.73Y22.987Z-0.656
X54.746Y22.987Z-0.656
X54.751Y22.988Z-0.656
X54.793Y22.99Z-0.657
X54.812Y22.992Z-0.657
X54.816Y22.992Z-0.657
X54.832Y22.994Z-0.657
X54.839Y22.994Z-0.657
X54.852Y22.996Z-0.658
X54.861Y22.996Z-0.658
X54.872Y22.998Z-0.658
X54.883Y22.999Z-0.658
X54.891Y23Z-0.658
X54.904Y23.002Z-0.658
X54.91Y23.003Z-0.659
X54.924Y23.005Z-0.659
X54.929Y23.006Z-0.659
X54.944Y23.009Z-0.659
X54.985Y23.017Z-0.66
X55.021Y23.026Z-0.661
X55.053Y23.035Z-0.662
X55.085Y23.046Z-0.662
X55.1Y23.052Z-0.663
X55.115Y23.058Z-0.663
X55.129Y23.064Z-0.664
X55.157Y23.077Z-0.664
X55.168Y23.083Z-0.665
X55.181Y23.089Z-0.665
X55.205Y23.104Z-0.665
X55.214Y23.109Z-0.665
X55.235Y23.124Z-0.666
X55.244Y23.131Z-0.665
X55.263Y23.147Z-0.665
X55.271Y23.153Z-0.665
X55.287Y23.169Z-0.665
X55.302Y23.185Z-0.664
X55.31Y23.193Z-0.663
X55.325Y23.214Z-0.662
X55.33Y23.22Z-0.661
X55.343Y23.239Z-0.66
X55.355Y23.26Z-0.658
X55.367Y23.282Z-0.656
X55.378Y23.307Z-0.653
X55.383Y23.318Z-0.652
X55.388Y23.332Z-0.651
X55.393Y23.345Z-0.65
X55.397Y23.36Z-0.648
X55.406Y23.391Z-0.645
X55.413Y23.422Z-0.642
X55.418Y23.459Z-0.639
X55.421Y23.476Z-0.638
X55.422Y23.494Z-0.636
X55.424Y23.521Z-0.634
X55.425Y23.556Z-0.632
X55.424Y23.59Z-0.629
X55.422Y23.624Z-0.626
X55.415Y23.68Z-0.621
X55.408Y23.713Z-0.617
X55.401Y23.745Z-0.614
X55.394Y23.767Z-0.611
X55.376Y23.822Z-0.605
X55.367Y23.844Z-0.603
X55.358Y23.865Z-0.601
X55.348Y23.887Z-0.599
X55.331Y23.92Z-0.595
X55.313Y23.952Z-0.592
X55.286Y23.995Z-0.589
X55.257Y24.037Z-0.586
X55.226Y24.078Z-0.583
X55.193Y24.119Z-0.581
X55.157Y24.159Z-0.579
X55.139Y24.179Z-0.578
X55.252Y24.291Z-0.474
X55.25Y24.309Z-0.493F150
X55.256Y24.465Z-0.648
X55.327Y24.477Z-0.639F300
X55.356Y24.466Z-0.649
X55.456Y24.461Z-0.652
X55.527Y24.473Z-0.643
X55.596Y24.448Z-0.644
X55.727Y24.469Z-0.646
X55.79Y24.447
X55.927Y24.469
X55.958Y24.458Z-0.657
X56.058
X56.127Y24.469Z-0.646
X56.158Y24.458Z-0.657
X56.429
X56.527Y24.358Z-0.557
X56.429Y24.458Z-0.657F150
X56.527Y24.558Z-0.557F300
G0Z2
X55.389Y25.305
G1Z-0.61F150
X55.489Y25.255Z-0.51F300
G0Z2
X55.289Y25.193
G1Z-0.498F150
X55.365Y25.293Z-0.586
X55.389Y25.305Z-0.61
G0Z2
X55.373Y25.532
G1Z-0.594
X55.404Y25.455F300
X55.389Y25.393Z-0.61
Y25.305
G0Z2
X55.336Y25.532
G1Z-0.557F150
X55.373Z-0.594
X55.323Y25.532Z-0.544F300
X55.336Y25.532Z-0.557F150
X55.311Y25.531Z-0.532F300
X55.323Y25.532Z-0.544F150
X55.299Y25.53Z-0.52F300
X55.311Y25.531Z-0.532F150
X55.288Y25.529Z-0.509F300
X55.299Y25.53Z-0.52F150
X55.277Y25.527Z-0.499F300
X55.288Y25.529Z-0.509F150
X55.267Y25.525Z-0.489F300
X55.277Y25.527Z-0.499F150
X55.258Y25.523Z-0.479F300
X55.267Y25.525Z-0.489F150
X55.248Y25.52Z-0.47F300
X55.258Y25.523Z-0.479F150
G0Z2
X55.115Y25.725
G1Z-0.612
X55.299Y25.53Z-0.52F300
G0Z2
X55.128Y25.734
G1Z-0.609F150
X55.336Y25.532Z-0.557F300
G0Z2
X55.336Y25.817
G1Z-0.663F150
X55.361Y25.761Z-0.638F300
X55.402Y25.661Z-0.597
X55.38Y25.561Z-0.602
X55.373Y25.532Z-0.594
G0Z2
X55.128Y25.734
G1Z-0.609F150
X55.132Y25.736Z-0.608F300
X55.145Y25.746Z-0.607
X55.159Y25.755Z-0.606
X55.173Y25.764Z-0.606
X55.188Y25.771Z-0.608
X55.203Y25.779Z-0.61
X55.218Y25.785Z-0.614
X55.234Y25.791Z-0.619
X55.251Y25.797Z-0.625
X55.268Y25.802Z-0.632
X55.287Y25.807Z-0.641
X55.306Y25.812Z-0.652
X55.327Y25.816Z-0.663
X55.336Y25.817Z-0.663
G0Z2
X55.124Y25.731
G1Z-0.61F150
X55.323Y25.532Z-0.544F300
G0Z2
X55.124Y25.731
G1Z-0.61F150
X55.128Y25.734Z-0.609F300
X55.12Y25.728Z-0.611
X55.311Y25.531Z-0.532
G0Z2
X55.12Y25.728
G1Z-0.611F150
X55.124Y25.731Z-0.61F300
X55.111Y25.722Z-0.612
X55.288Y25.529Z-0.509
G0Z2
X55.111Y25.722
G1Z-0.612F150
X55.115Y25.725Z-0.612F300
X55.107Y25.719Z-0.613
X55.277Y25.527Z-0.499
G0Z2
X55.107Y25.719
G1Z-0.613F150
X55.111Y25.722Z-0.612F300
X55.102Y25.716Z-0.614
X55.267Y25.525Z-0.489
G0Z2
X55.102Y25.716
G1Z-0.614F150
X55.107Y25.719Z-0.613F300
X55.098Y25.713Z-0.615
X55.258Y25.523Z-0.479
G0Z2
X55.098Y25.713
G1Z-0.615F150
X55.102Y25.716Z-0.614F300
X55.093Y25.71Z-0.615
X55.248Y25.52Z-0.47
G0Z2
X55.093Y25.71
G1Z-0.615F150
X55.098Y25.713Z-0.615F300
X55.088Y25.707Z-0.616
X55.239Y25.518Z-0.461
X55.248Y25.52Z-0.47F150
G0Z2
X55.088Y25.707
G1Z-0.616
X55.093Y25.71Z-0.615F300
G0Z2
X55.044Y24.432
G1Z-0.684F150
X55.046Y24.399Z-0.662F300
X55.048Y24.378Z-0.649
X55.051Y24.359Z-0.636
X55.054Y24.34Z-0.626
X55.058Y24.322Z-0.616
X55.063Y24.305Z-0.607
X55.068Y24.289Z-0.6
X55.074Y24.274Z-0.594
X55.08Y24.26Z-0.589
X55.087Y24.246Z-0.584
X55.094Y24.234Z-0.581
X55.102Y24.222Z-0.579
X55.111Y24.21Z-0.577
X55.12Y24.199Z-0.577
X55.129Y24.189Z-0.577
X55.25Y24.309Z-0.493
G0Z2
X55.044Y24.432
G1Z-0.684F150
X55.127Y24.471Z-0.644F300
X55.256Y24.465Z-0.648
G0Z2
X53.402Y24.458
G1Z-0.657F150
X53.851F300
X53.904Y24.471Z-0.645
X53.951Y24.458Z-0.657
X54.051
X54.104Y24.471Z-0.645
X54.198Y24.446
X54.304Y24.471Z-0.645
X54.398Y24.446Z-0.645
X54.504Y24.471
X54.598Y24.446
X54.704Y24.471
X54.798Y24.446
X54.904Y24.471
X55.016Y24.441Z-0.674
X55.044Y24.432Z-0.684
G0Z2
X53.304Y24.358
G1Z-0.557F150
X53.402Y24.458Z-0.657
X53.304Y24.558Z-0.557F300
X53.402Y24.458Z-0.657F150
G0Z2
X53.072Y25.334
G1Z-0.662
X53.088Y25.34Z-0.662F300
X53.102Y25.347Z-0.662
X53.122Y25.358Z-0.662
X53.134Y25.366Z-0.662
X53.147Y25.375Z-0.661
X53.158Y25.385Z-0.66
X53.17Y25.395Z-0.659
X53.188Y25.414Z-0.656
X53.201Y25.428Z-0.654
X53.219Y25.453Z-0.651
X53.231Y25.472Z-0.648
X53.245Y25.495Z-0.645
X53.256Y25.516Z-0.642
X53.267Y25.542Z-0.639
X53.279Y25.572Z-0.636
X53.288Y25.599Z-0.634
X53.293Y25.615Z-0.633
X53.297Y25.631Z-0.631
X53.305Y25.666Z-0.629
X53.309Y25.683Z-0.628
X53.316Y25.721Z-0.626
X53.317Y25.731Z-0.626
X53.318Y25.74Z-0.625
X53.321Y25.76Z-0.625
X53.322Y25.772Z-0.624
X53.323Y25.78Z-0.624
X53.324Y25.786Z-0.624
X53.325Y25.801Z-0.623
X53.326Y25.814Z-0.623
X53.327Y25.823Z-0.623
X53.327Y25.829Z-0.623
X53.328Y25.844Z-0.622
X53.329Y25.858Z-0.622
X53.33Y25.867Z-0.622
X53.33Y25.872Z-0.622
X53.33Y25.889Z-0.621
X53.33Y25.902Z-0.621
X53.331Y25.913Z-0.621
X53.331Y25.917Z-0.621
X53.331Y25.933Z-0.621
X53.332Y25.948Z-0.62
X53.334Y25.964Z-0.618
X53.343Y26.024Z-0.609
X53.32Y26.074Z-0.61
X53.332Y26.154Z-0.62
X53.331Y26.174Z-0.621
X53.329Y26.254Z-0.619
X53.319Y26.276Z-0.609
X53.332Y26.354Z-0.62
X53.333Y26.451Z-0.62
X53.341Y26.539Z-0.62
X53.355Y26.616Z-0.62
X53.363Y26.649Z-0.62
X53.366Y26.661Z-0.621
X53.368Y26.674Z-0.623
X53.37Y26.687Z-0.625
X53.372Y26.7Z-0.628
X53.373Y26.713Z-0.632
X53.374Y26.727Z-0.636
X53.375Y26.744Z-0.643
X53.321Y26.767Z-0.607
X53.309Y26.772Z-0.6
X53.292Y26.781Z-0.592
X53.276Y26.789Z-0.584
X53.266Y26.794Z-0.58
X53.256Y26.8Z-0.576
X53.247Y26.806Z-0.573
X53.238Y26.812Z-0.57
X53.23Y26.818Z-0.568
X53.222Y26.824Z-0.567
X53.214Y26.831Z-0.566
X53.207Y26.838Z-0.565
X53.2Y26.845Z-0.566
X53.194Y26.853Z-0.566
X53.173Y26.878Z-0.57
X53.129Y26.924Z-0.579
X53.101Y26.95Z-0.585
X53.072Y26.974Z-0.59
X53.029Y27.004Z-0.598
X53.001Y27.021Z-0.603
X52.958Y27.043Z-0.61
X52.923Y27.057Z-0.616
X52.889Y27.068Z-0.62
X52.856Y27.076Z-0.624
X52.818Y27.082Z-0.628
X52.793Y27.084Z-0.63
X52.762Y27.084Z-0.632
X52.746Y27.083Z-0.633
X52.721Y27.081Z-0.634
X52.708Y27.079Z-0.635
X52.682Y27.074Z-0.636
X52.674Y27.072Z-0.636
X52.649Y27.065Z-0.637
X52.641Y27.063Z-0.637
X52.621Y27.056Z-0.637
X52.601Y27.047Z-0.637
X52.591Y27.042Z-0.636
X52.571Y27.031Z-0.636
X52.563Y27.027Z-0.635
X52.542Y27.013Z-0.634
X52.535Y27.008Z-0.634
X52.516Y26.993Z-0.632
X52.507Y26.986Z-0.632
X52.498Y26.977Z-0.631
X52.479Y26.959Z-0.629
X52.47Y26.95Z-0.628
X52.461Y26.94Z-0.627
X52.452Y26.93Z-0.626
X52.435Y26.908Z-0.624
X52.416Y26.881Z-0.621
X52.409Y26.871Z-0.62
X52.4Y26.857Z-0.619
X52.392Y26.844Z-0.618
X52.384Y26.829Z-0.617
X52.382Y26.824Z-0.616
X52.376Y26.814Z-0.616
X52.374Y26.81Z-0.615
X52.369Y26.799Z-0.614
X52.367Y26.795Z-0.614
X52.361Y26.783Z-0.613
X52.359Y26.78Z-0.613
X52.354Y26.767Z-0.612
X52.34Y26.733Z-0.61
X52.334Y26.716Z-0.609
X52.327Y26.698Z-0.608
X52.323Y26.684Z-0.607
X52.321Y26.679Z-0.607
X52.318Y26.667Z-0.606
X52.316Y26.66Z-0.606
X52.313Y26.651Z-0.606
X52.31Y26.641Z-0.605
X52.308Y26.634Z-0.605
X52.305Y26.621Z-0.604
X52.304Y26.616Z-0.604
X52.3Y26.601Z-0.603
X52.296Y26.581Z-0.602
X52.292Y26.563Z-0.602
X52.291Y26.56Z-0.602
X52.289Y26.545Z-0.601
X52.287Y26.539Z-0.601
X52.286Y26.527Z-0.601
X52.284Y26.517Z-0.6
X52.283Y26.509Z-0.6
X52.28Y26.495Z-0.599
X52.28Y26.49Z-0.6
X52.277Y26.471Z-0.599
X52.275Y26.452Z-0.599
X52.275Y26.45Z-0.598
X52.273Y26.433Z-0.598
X52.272Y26.427Z-0.598
X52.271Y26.413Z-0.598
X52.27Y26.403Z-0.597
X52.27Y26.393Z-0.597
X52.268Y26.379Z-0.597
X52.268Y26.373Z-0.597
X52.267Y26.355Z-0.596
X52.267Y26.353Z-0.596
X52.266Y26.331Z-0.596
X52.266Y26.312Z-0.596
X52.265Y26.306Z-0.595
X52.265Y26.291Z-0.595
X52.265Y26.278Z-0.595
X52.265Y26.27Z-0.595
X52.265Y26.247Z-0.594
X52.266Y26.227Z-0.594
X52.265Y26.216Z-0.594
X52.266Y26.203Z-0.594
X52.267Y26.186Z-0.593
X52.267Y26.181Z-0.594
X52.268Y26.158Z-0.593
X52.268Y26.156Z-0.593
X52.27Y26.136Z-0.593
X52.27Y26.126Z-0.593
X52.272Y26.113Z-0.593
X52.273Y26.097Z-0.593
X52.274Y26.092Z-0.593
X52.277Y26.068Z-0.593
X52.28Y26.048Z-0.593
X52.281Y26.04Z-0.593
X52.283Y26.027Z-0.593
X52.285Y26.012Z-0.593
X52.286Y26.006Z-0.593
X52.29Y25.984Z-0.593
X52.294Y25.965Z-0.594
X52.295Y25.958Z-0.593
X52.298Y25.945Z-0.594
X52.301Y25.931Z-0.594
X52.303Y25.925Z-0.594
X52.308Y25.905Z-0.594
X52.313Y25.886Z-0.595
X52.314Y25.88Z-0.595
X52.318Y25.867Z-0.595
X52.321Y25.855Z-0.595
X52.324Y25.848Z-0.596
X52.33Y25.829Z-0.596
X52.336Y25.81Z-0.597
X52.337Y25.806Z-0.596
X52.343Y25.792Z-0.597
X52.346Y25.783Z-0.597
X52.35Y25.774Z-0.598
X52.355Y25.76Z-0.598
X52.356Y25.757Z-0.598
X52.364Y25.738Z-0.599
X52.371Y25.722Z-0.6
X52.374Y25.716Z-0.6
X52.379Y25.705Z-0.6
X52.384Y25.695Z-0.6
X52.387Y25.688Z-0.601
X52.394Y25.674Z-0.602
X52.405Y25.654Z-0.603
X52.413Y25.64Z-0.604
X52.416Y25.634Z-0.604
X52.422Y25.625Z-0.604
X52.427Y25.615Z-0.605
X52.431Y25.609Z-0.605
X52.439Y25.597Z-0.606
X52.441Y25.594Z-0.606
X52.451Y25.579Z-0.607
X52.461Y25.565Z-0.608
X52.463Y25.562Z-0.609
X52.471Y25.551Z-0.61
X52.475Y25.545Z-0.61
X52.482Y25.537Z-0.611
X52.488Y25.529Z-0.611
X52.493Y25.523Z-0.612
X52.501Y25.513Z-0.613
X52.504Y25.51Z-0.613
X52.514Y25.499Z-0.614
X52.527Y25.484Z-0.616
X52.541Y25.471Z-0.617
X52.554Y25.457Z-0.618
X52.565Y25.448Z-0.62
X52.568Y25.445Z-0.62
X52.578Y25.437Z-0.621
X52.582Y25.433Z-0.621
X52.591Y25.426Z-0.623
X52.595Y25.422Z-0.623
X52.605Y25.415Z-0.624
X52.609Y25.411Z-0.624
X52.618Y25.405Z-0.626
X52.623Y25.401Z-0.626
X52.633Y25.395Z-0.627
X52.637Y25.391Z-0.628
X52.647Y25.385Z-0.629
X52.652Y25.382Z-0.629
X52.662Y25.376Z-0.63
X52.666Y25.374Z-0.631
X52.68Y25.366Z-0.632
X52.694Y25.358Z-0.634
X52.725Y25.344Z-0.637
X52.736Y25.339Z-0.638
X52.741Y25.338Z-0.639
X52.75Y25.334Z-0.639
X52.764Y25.329Z-0.641
X52.778Y25.325Z-0.642
X52.806Y25.318Z-0.645
X52.82Y25.315Z-0.646
X52.834Y25.312Z-0.647
X52.864Y25.308Z-0.65
X52.876Y25.307Z-0.65
X52.889Y25.307Z-0.652
X52.903Y25.306Z-0.652
X52.917Y25.306Z-0.653
X52.931Y25.306Z-0.654
X52.958Y25.308Z-0.656
X52.984Y25.311Z-0.657
X53.006Y25.315Z-0.659
X53.029Y25.32Z-0.66
X53.047Y25.325Z-0.661
X53.064Y25.331Z-0.661
X53.072Y25.334Z-0.662
G0Z2
X53.375Y26.744
G1Z-0.643F150
X53.382Y26.751Z-0.64F300
X53.391Y26.761Z-0.636
X53.4Y26.77Z-0.632
X53.409Y26.78Z-0.63
X53.417Y26.789Z-0.628
X53.425Y26.799Z-0.627
X53.433Y26.808Z-0.626
X53.44Y26.818Z-0.626
X53.466Y26.852Z-0.629
X53.489Y26.876Z-0.631
X53.513Y26.896Z-0.632
X53.539Y26.914Z-0.633
X53.564Y26.927Z-0.633
X53.592Y26.938Z-0.632
X53.619Y26.946Z-0.631
X53.649Y26.952Z-0.629
X53.683Y26.956Z-0.627
X53.71Y26.957Z-0.625
X53.743Y26.955Z-0.622
X53.77Y26.951Z-0.618
X53.804Y26.944Z-0.613
X53.832Y26.935Z-0.609
X53.878Y26.915Z-0.6
X53.912Y26.897Z-0.594
X53.946Y26.875Z-0.588
X53.981Y26.847Z-0.581
X54.008Y26.822Z-0.576
X54.034Y26.795Z-0.571
X54.043Y26.786Z-0.571
X54.052Y26.778Z-0.571
X54.061Y26.77Z-0.572
X54.071Y26.763Z-0.574
X54.081Y26.756Z-0.576
X54.092Y26.749Z-0.58
X54.103Y26.743Z-0.584
X54.12Y26.734Z-0.591
X54.129Y26.73Z-0.595
X54.184Y26.703Z-0.629
X54.18Y26.684Z-0.619
X54.176Y26.666Z-0.612
X54.172Y26.65Z-0.606
X54.167Y26.634Z-0.601
X54.162Y26.619Z-0.598
X54.156Y26.604Z-0.595
X54.15Y26.59Z-0.594
X54.131Y26.552Z-0.593
X54.114Y26.509Z-0.593
X54.098Y26.455Z-0.592
X54.087Y26.408Z-0.592
X54.081Y26.362Z-0.593
X54.077Y26.313Z-0.593
X54.077Y26.288Z-0.593
X54.078Y26.274Z-0.593
X54.078Y26.269Z-0.593
X54.078Y26.259Z-0.593
X54.079Y26.249Z-0.593
X54.079Y26.243Z-0.593
X54.08Y26.23Z-0.593
X54.082Y26.211Z-0.594
X54.084Y26.196Z-0.594
X54.084Y26.192Z-0.594
X54.087Y26.18Z-0.595
X54.087Y26.174Z-0.595
X54.089Y26.164Z-0.595
X54.091Y26.155Z-0.595
X54.092Y26.149Z-0.596
X54.094Y26.137Z-0.596
X54.095Y26.134Z-0.596
X54.099Y26.118Z-0.597
X54.103Y26.102Z-0.598
X54.107Y26.088Z-0.598
X54.108Y26.084Z-0.598
X54.112Y26.073Z-0.599
X54.114Y26.067Z-0.599
X54.117Y26.058Z-0.6
X54.12Y26.051Z-0.6
X54.123Y26.043Z-0.601
X54.126Y26.034Z-0.601
X54.128Y26.029Z-0.602
X54.132Y26.018Z-0.602
X54.134Y26.014Z-0.603
X54.139Y26.002Z-0.603
X54.155Y25.971Z-0.606
X54.162Y25.957Z-0.607
X54.17Y25.943Z-0.608
X54.178Y25.928Z-0.609
X54.187Y25.915Z-0.611
X54.196Y25.901Z-0.612
X54.205Y25.888Z-0.613
X54.215Y25.875Z-0.614
X54.235Y25.85Z-0.617
X54.257Y25.826Z-0.619
X54.277Y25.805Z-0.621
X54.288Y25.794Z-0.622
X54.3Y25.784Z-0.623
X54.305Y25.78Z-0.624
X54.311Y25.774Z-0.624
X54.323Y25.764Z-0.625
X54.335Y25.755Z-0.626
X54.347Y25.746Z-0.627
X54.373Y25.729Z-0.629
X54.398Y25.713Z-0.631
X54.411Y25.706Z-0.631
X54.418Y25.702Z-0.632
X54.425Y25.699Z-0.632
X54.438Y25.692Z-0.633
X54.452Y25.685Z-0.633
X54.482Y25.672Z-0.635
X54.51Y25.662Z-0.635
X54.525Y25.657Z-0.636
X54.533Y25.654Z-0.636
X54.541Y25.652Z-0.636
X54.55Y25.649Z-0.637
X54.556Y25.647Z-0.637
X54.572Y25.643Z-0.637
X54.588Y25.639Z-0.637
X54.622Y25.633Z-0.638
X54.656Y25.628Z-0.638
X54.659Y25.627Z-0.638
X54.673Y25.626Z-0.638
X54.678Y25.625Z-0.638
X54.691Y25.624Z-0.638
X54.697Y25.624Z-0.638
X54.71Y25.623Z-0.638
X54.716Y25.622Z-0.638
X54.728Y25.622Z-0.638
X54.736Y25.622Z-0.638
X54.747Y25.621Z-0.638
X54.789Y25.622Z-0.638
X54.824Y25.624Z-0.637
X54.865Y25.629Z-0.636
X54.91Y25.637Z-0.633
X54.954Y25.648Z-0.631
X54.989Y25.66Z-0.628
X55.022Y25.673Z-0.624
X55.054Y25.688Z-0.621
X55.083Y25.704Z-0.617
X55.088Y25.707Z-0.616
G0Z2
X54.184Y26.703
G1Z-0.629F150
X54.197Y26.712Z-0.624F300
X54.21Y26.722Z-0.621
X54.223Y26.732Z-0.618
X54.235Y26.743Z-0.617
X54.247Y26.754Z-0.616
X54.259Y26.766Z-0.617
X54.285Y26.792Z-0.62
X54.313Y26.818Z-0.623
X54.338Y26.838Z-0.625
X54.365Y26.858Z-0.628
X54.394Y26.877Z-0.63
X54.423Y26.894Z-0.633
X54.455Y26.911Z-0.635
X54.487Y26.925Z-0.638
X54.521Y26.939Z-0.64
X54.556Y26.95Z-0.642
X54.591Y26.96Z-0.644
X54.627Y26.969Z-0.646
X54.664Y26.975Z-0.647
X54.702Y26.979Z-0.648
X54.741Y26.982Z-0.649
X54.775Y26.982Z-0.649
X54.814Y26.981Z-0.648
X54.831Y26.98Z-0.648
X54.849Y26.978Z-0.648
X54.853Y26.977Z-0.648
X54.867Y26.976Z-0.648
X54.872Y26.975Z-0.648
X54.884Y26.974Z-0.647
X54.891Y26.972Z-0.647
X54.901Y26.971Z-0.647
X54.91Y26.969Z-0.647
X54.918Y26.968Z-0.647
X54.928Y26.965Z-0.647
X54.935Y26.964Z-0.646
X54.947Y26.961Z-0.646
X54.951Y26.96Z-0.646
X54.967Y26.956Z-0.645
X55Y26.946Z-0.644
X55.03Y26.936Z-0.643
X55.045Y26.93Z-0.642
X55.051Y26.928Z-0.642
X55.059Y26.924Z-0.641
X55.068Y26.92Z-0.641
X55.074Y26.918Z-0.641
X55.088Y26.911Z-0.64
X55.102Y26.904Z-0.639
X55.13Y26.888Z-0.637
X55.157Y26.872Z-0.635
X55.17Y26.863Z-0.634
X55.183Y26.854Z-0.633
X55.188Y26.85Z-0.633
X55.196Y26.845Z-0.632
X55.201Y26.84Z-0.632
X55.208Y26.835Z-0.631
X55.215Y26.829Z-0.63
X55.22Y26.825Z-0.63
X55.227Y26.818Z-0.629
X55.232Y26.814Z-0.629
X55.244Y26.804Z-0.628
X55.256Y26.792Z-0.626
X55.267Y26.781Z-0.625
X55.278Y26.769Z-0.624
X55.289Y26.757Z-0.623
X55.299Y26.745Z-0.622
X55.31Y26.732Z-0.621
X55.32Y26.719Z-0.62
X55.329Y26.706Z-0.619
X55.339Y26.692Z-0.618
X55.345Y26.682Z-0.617
X55.348Y26.678Z-0.616
X55.354Y26.668Z-0.616
X55.357Y26.664Z-0.615
X55.362Y26.655Z-0.615
X55.365Y26.649Z-0.614
X55.37Y26.641Z-0.614
X55.373Y26.634Z-0.613
X55.377Y26.626Z-0.613
X55.381Y26.619Z-0.612
X55.384Y26.612Z-0.612
X55.389Y26.604Z-0.612
X55.391Y26.598Z-0.611
X55.396Y26.588Z-0.611
X55.398Y26.583Z-0.611
X55.403Y26.572Z-0.61
X55.415Y26.539Z-0.608
X55.421Y26.523Z-0.608
X55.426Y26.506Z-0.607
X55.429Y26.494Z-0.607
X55.431Y26.489Z-0.606
X55.433Y26.479Z-0.606
X55.435Y26.472Z-0.606
X55.437Y26.464Z-0.606
X55.439Y26.454Z-0.605
X55.44Y26.448Z-0.605
X55.443Y26.436Z-0.605
X55.443Y26.433Z-0.605
X55.446Y26.417Z-0.605
X55.448Y26.4Z-0.604
X55.45Y26.386Z-0.604
X55.451Y26.382Z-0.604
X55.452Y26.37Z-0.604
X55.453Y26.364Z-0.604
X55.453Y26.354Z-0.604
X55.454Y26.345Z-0.603
X55.454Y26.338Z-0.604
X55.455Y26.327Z-0.603
X55.455Y26.322Z-0.604
X55.455Y26.28Z-0.604
X55.451Y26.218Z-0.604
X55.441Y26.152Z-0.605
X55.426Y26.09Z-0.606
X55.402Y26.025Z-0.608
X55.396Y26.01Z-0.609
X55.391Y25.995Z-0.61
X55.386Y25.98Z-0.613
X55.381Y25.964Z-0.617
X55.377Y25.947Z-0.621
X55.374Y25.93Z-0.625
X55.371Y25.912Z-0.628
X55.369Y25.893Z-0.63
X55.366Y25.867Z-0.632
X55.359Y25.857Z-0.639
X55.35Y25.842Z-0.649
X55.341Y25.827Z-0.658
X55.336Y25.817Z-0.663
G0Z2
X55.343Y28.063
G1Z-0.655F150
X55.439Y27.963Z-0.555F300
X55.343Y28.063Z-0.655F150
X55.439Y28.163Z-0.555F300
G0Z2
X55.341Y29.527
G1Z-0.657F150
X55.439Y29.427Z-0.557F300
X55.341Y29.527Z-0.657F150
X55.439Y29.627Z-0.557F300
G0Z2
X54.948Y30.634
G1Z-0.651F150
X54.941Y30.631Z-0.651F300
X54.926Y30.623Z-0.651
X54.919Y30.62Z-0.652
X54.904Y30.613Z-0.652
X54.897Y30.61Z-0.653
X54.881Y30.603Z-0.653
X54.874Y30.601Z-0.653
X54.858Y30.594Z-0.653
X54.851Y30.592Z-0.654
X54.834Y30.585Z-0.654
X54.828Y30.583Z-0.655
X54.81Y30.577Z-0.655
X54.804Y30.575Z-0.655
X54.785Y30.569Z-0.655
X54.78Y30.567Z-0.656
X54.76Y30.561Z-0.656
X54.755Y30.56Z-0.656
X54.734Y30.554Z-0.656
X54.731Y30.553Z-0.657
X54.708Y30.548Z-0.657
X54.68Y30.541Z-0.657
X54.654Y30.536Z-0.658
X54.629Y30.531Z-0.658
X54.626Y30.531Z-0.658
X54.602Y30.527Z-0.658
X54.598Y30.526Z-0.658
X54.576Y30.523Z-0.659
X54.569Y30.522Z-0.658
X54.549Y30.52Z-0.659
X54.54Y30.519Z-0.658
X54.522Y30.517Z-0.659
X54.51Y30.516Z-0.659
X54.495Y30.515Z-0.659
X54.48Y30.513Z-0.659
X54.467Y30.513Z-0.659
X54.449Y30.511Z-0.659
X54.44Y30.511Z-0.659
X54.418Y30.51Z-0.659
X54.412Y30.51Z-0.659
X54.386Y30.51Z-0.659
X54.354Y30.51Z-0.659
X54.327Y30.51Z-0.659
X54.322Y30.51Z-0.659
X54.299Y30.511Z-0.659
X54.291Y30.511Z-0.659
X54.272Y30.513Z-0.659
X54.26Y30.513Z-0.659
X54.244Y30.515Z-0.659
X54.23Y30.516Z-0.659
X54.217Y30.517Z-0.659
X54.201Y30.519Z-0.658
X54.19Y30.52Z-0.659
X54.171Y30.522Z-0.658
X54.163Y30.524Z-0.658
X54.143Y30.526Z-0.658
X54.137Y30.527Z-0.658
X54.115Y30.531Z-0.658
X54.111Y30.532Z-0.658
X54.087Y30.536Z-0.657
X54.085Y30.536Z-0.658
X54.059Y30.542Z-0.657
X54.034Y30.547Z-0.657
X54.008Y30.554Z-0.656
X53.982Y30.561Z-0.656
X53.96Y30.568Z-0.655
X53.957Y30.568Z-0.655
X53.936Y30.575Z-0.655
X53.933Y30.576Z-0.654
X53.912Y30.584Z-0.654
X53.909Y30.585Z-0.654
X53.889Y30.592Z-0.653
X53.885Y30.593Z-0.653
X53.866Y30.601Z-0.653
X53.862Y30.603Z-0.652
X53.843Y30.611Z-0.652
X53.839Y30.612Z-0.652
X53.821Y30.621Z-0.651
X53.817Y30.622Z-0.651
X53.799Y30.631Z-0.651
X53.795Y30.633Z-0.65
X53.777Y30.642Z-0.65
X53.774Y30.644Z-0.649
X53.756Y30.654Z-0.649
X53.753Y30.655Z-0.649
X53.735Y30.665Z-0.648
X53.733Y30.667Z-0.648
X53.713Y30.679Z-0.647
X53.693Y30.691Z-0.646
X53.674Y30.704Z-0.645
X53.655Y30.717Z-0.644
X53.637Y30.731Z-0.643
X53.619Y30.745Z-0.642
X53.601Y30.76Z-0.641
X53.584Y30.775Z-0.64
X53.569Y30.789Z-0.639
X53.567Y30.791Z-0.639
X53.553Y30.804Z-0.638
X53.551Y30.807Z-0.639
X53.538Y30.82Z-0.638
X53.535Y30.823Z-0.638
X53.523Y30.836Z-0.637
X53.519Y30.84Z-0.637
X53.508Y30.853Z-0.636
X53.505Y30.857Z-0.636
X53.494Y30.869Z-0.635
X53.49Y30.875Z-0.635
X53.481Y30.887Z-0.634
X53.476Y30.893Z-0.634
X53.467Y30.904Z-0.633
X53.463Y30.911Z-0.633
X53.455Y30.922Z-0.632
X53.45Y30.929Z-0.632
X53.443Y30.94Z-0.631
X53.438Y30.948Z-0.631
X53.431Y30.958Z-0.631
X53.426Y30.967Z-0.63
X53.42Y30.977Z-0.63
X53.415Y30.987Z-0.63
X53.409Y30.996Z-0.629
X53.404Y31.006Z-0.629
X53.399Y31.015Z-0.628
X53.394Y31.026Z-0.628
X53.39Y31.035Z-0.628
X53.385Y31.047Z-0.628
X53.381Y31.054Z-0.627
X53.376Y31.067Z-0.627
X53.372Y31.074Z-0.626
X53.367Y31.088Z-0.626
X53.364Y31.095Z-0.626
X53.359Y31.109Z-0.626
X53.357Y31.115Z-0.625
X53.352Y31.13Z-0.625
X53.35Y31.136Z-0.625
X53.346Y31.152Z-0.625
X53.344Y31.157Z-0.625
X53.339Y31.173Z-0.625
X53.338Y31.179Z-0.624
X53.334Y31.195Z-0.624
X53.333Y31.2Z-0.624
X53.329Y31.217Z-0.624
X53.328Y31.222Z-0.624
X53.325Y31.24Z-0.624
X53.324Y31.243Z-0.623
X53.321Y31.262Z-0.623
X53.321Y31.265Z-0.623
X53.318Y31.285Z-0.623
X53.318Y31.288Z-0.623
X53.315Y31.31Z-0.623
X53.314Y31.332Z-0.623
X53.312Y31.355Z-0.623
X53.312Y31.378Z-0.623
X53.312Y31.401Z-0.623
X53.313Y31.424Z-0.623
X53.314Y31.447Z-0.623
X53.315Y31.468Z-0.623
X53.318Y31.49Z-0.623
X53.318Y31.493Z-0.623
X53.321Y31.513Z-0.623
X53.321Y31.516Z-0.623
X53.324Y31.535Z-0.623
X53.325Y31.538Z-0.624
X53.328Y31.556Z-0.624
X53.329Y31.561Z-0.624
X53.333Y31.578Z-0.624
X53.334Y31.583Z-0.624
X53.338Y31.6Z-0.624
X53.339Y31.605Z-0.625
X53.344Y31.621Z-0.625
X53.346Y31.626Z-0.625
X53.35Y31.642Z-0.625
X53.352Y31.648Z-0.625
X53.357Y31.663Z-0.625
X53.359Y31.669Z-0.626
X53.364Y31.683Z-0.626
X53.367Y31.69Z-0.626
X53.372Y31.704Z-0.627
X53.376Y31.711Z-0.627
X53.381Y31.724Z-0.627
X53.385Y31.731Z-0.628
X53.39Y31.743Z-0.628
X53.394Y31.752Z-0.628
X53.399Y31.763Z-0.629
X53.404Y31.771Z-0.629
X53.41Y31.782Z-0.629
X53.415Y31.791Z-0.63
X53.42Y31.801Z-0.63
X53.426Y31.81Z-0.631
X53.431Y31.82Z-0.631
X53.438Y31.83Z-0.631
X53.443Y31.838Z-0.632
X53.45Y31.848Z-0.632
X53.455Y31.856Z-0.632
X53.463Y31.867Z-0.633
X53.468Y31.874Z-0.633
X53.476Y31.885Z-0.634
X53.481Y31.891Z-0.634
X53.49Y31.903Z-0.635
X53.495Y31.908Z-0.635
X53.505Y31.92Z-0.636
X53.509Y31.925Z-0.636
X53.52Y31.937Z-0.637
X53.523Y31.942Z-0.637
X53.535Y31.954Z-0.638
X53.538Y31.958Z-0.638
X53.551Y31.97Z-0.639
X53.554Y31.973Z-0.639
X53.567Y31.986Z-0.64
X53.57Y31.989Z-0.64
X53.586Y32.004Z-0.641
X53.603Y32.018Z-0.642
X53.62Y32.033Z-0.643
X53.638Y32.046Z-0.644
X53.656Y32.06Z-0.645
X53.675Y32.074Z-0.646
X53.695Y32.087Z-0.647
X53.715Y32.099Z-0.648
X53.733Y32.11Z-0.649
X53.754Y32.122Z-0.65
X53.756Y32.123Z-0.65
X53.775Y32.133Z-0.651
X53.777Y32.134Z-0.651
X53.796Y32.144Z-0.652
X53.799Y32.145Z-0.652
X53.818Y32.154Z-0.652
X53.821Y32.156Z-0.653
X53.84Y32.164Z-0.653
X53.843Y32.166Z-0.654
X53.862Y32.174Z-0.654
X53.866Y32.175Z-0.654
X53.886Y32.183Z-0.655
X53.889Y32.184Z-0.655
X53.909Y32.192Z-0.655
X53.912Y32.193Z-0.656
X53.933Y32.2Z-0.656
X53.936Y32.201Z-0.656
X53.958Y32.208Z-0.657
X53.984Y32.216Z-0.658
X54.009Y32.223Z-0.658
X54.034Y32.229Z-0.659
X54.061Y32.235Z-0.659
X54.085Y32.24Z-0.659
X54.088Y32.24Z-0.659
X54.111Y32.244Z-0.66
X54.115Y32.246Z-0.66
X54.137Y32.249Z-0.66
X54.143Y32.25Z-0.66
X54.163Y32.253Z-0.66
X54.172Y32.254Z-0.66
X54.19Y32.256Z-0.661
X54.201Y32.258Z-0.661
X54.217Y32.259Z-0.661
X54.23Y32.26Z-0.661
X54.244Y32.261Z-0.661
X54.26Y32.263Z-0.661
X54.272Y32.263Z-0.661
X54.291Y32.265Z-0.661
X54.299Y32.265Z-0.661
X54.322Y32.266Z-0.661
X54.327Y32.266Z-0.662
X54.354Y32.266Z-0.661
X54.386Y32.266Z-0.661
X54.412Y32.266Z-0.662
X54.417Y32.266Z-0.661
X54.44Y32.265Z-0.661
X54.449Y32.265Z-0.661
X54.467Y32.263Z-0.661
X54.48Y32.263Z-0.661
X54.495Y32.261Z-0.661
X54.51Y32.26Z-0.661
X54.522Y32.259Z-0.661
X54.54Y32.257Z-0.661
X54.549Y32.256Z-0.661
X54.569Y32.254Z-0.66
X54.576Y32.253Z-0.661
X54.597Y32.25Z-0.66
X54.602Y32.249Z-0.66
X54.626Y32.245Z-0.66
X54.628Y32.245Z-0.66
X54.654Y32.24Z-0.66
X54.681Y32.235Z-0.659
X54.707Y32.229Z-0.659
X54.73Y32.223Z-0.658
X54.733Y32.222Z-0.658
X54.755Y32.216Z-0.658
X54.759Y32.215Z-0.658
X54.78Y32.209Z-0.657
X54.784Y32.208Z-0.657
X54.804Y32.201Z-0.657
X54.809Y32.2Z-0.656
X54.827Y32.193Z-0.656
X54.833Y32.192Z-0.656
X54.851Y32.185Z-0.656
X54.857Y32.183Z-0.655
X54.874Y32.176Z-0.655
X54.881Y32.173Z-0.654
X54.897Y32.166Z-0.654
X54.903Y32.164Z-0.654
X54.919Y32.156Z-0.653
X54.926Y32.154Z-0.653
X54.941Y32.146Z-0.653
X54.948Y32.143Z-0.652
X54.963Y32.135Z-0.652
X54.969Y32.132Z-0.651
X54.984Y32.124Z-0.651
X54.99Y32.121Z-0.65
X55.005Y32.112Z-0.65
X55.011Y32.109Z-0.65
X55.026Y32.1Z-0.649
X55.031Y32.097Z-0.649
X55.046Y32.088Z-0.648
X55.05Y32.085Z-0.648
X55.066Y32.075Z-0.647
X55.07Y32.072Z-0.647
X55.085Y32.061Z-0.646
X55.088Y32.059Z-0.646
X55.104Y32.047Z-0.645
X55.107Y32.045Z-0.645
X55.122Y32.033Z-0.644
X55.124Y32.031Z-0.644
X55.142Y32.017Z-0.643
X55.159Y32.002Z-0.642
X55.175Y31.987Z-0.641
X55.191Y31.972Z-0.64
X55.207Y31.956Z-0.64
X55.223Y31.939Z-0.639
X55.236Y31.924Z-0.638
X55.251Y31.907Z-0.637
X55.253Y31.904Z-0.637
X55.264Y31.89Z-0.636
X55.267Y31.887Z-0.636
X55.277Y31.873Z-0.635
X55.28Y31.868Z-0.635
X55.29Y31.855Z-0.634
X55.293Y31.85Z-0.634
X55.302Y31.837Z-0.633
X55.306Y31.831Z-0.633
X55.314Y31.818Z-0.633
X55.317Y31.812Z-0.632
X55.325Y31.8Z-0.632
X55.329Y31.793Z-0.632
X55.336Y31.781Z-0.631
X55.34Y31.773Z-0.631
X55.346Y31.762Z-0.63
X55.35Y31.753Z-0.63
X55.356Y31.742Z-0.63
X55.36Y31.733Z-0.63
X55.365Y31.722Z-0.629
X55.369Y31.712Z-0.629
X55.373Y31.702Z-0.628
X55.377Y31.691Z-0.628
X55.381Y31.682Z-0.628
X55.385Y31.67Z-0.628
X55.389Y31.662Z-0.627
X55.393Y31.649Z-0.627
X55.396Y31.641Z-0.627
X55.399Y31.627Z-0.627
X55.402Y31.62Z-0.627
X55.406Y31.606Z-0.627
X55.408Y31.599Z-0.626
X55.411Y31.584Z-0.626
X55.413Y31.577Z-0.626
X55.416Y31.561Z-0.626
X55.417Y31.556Z-0.626
X55.42Y31.539Z-0.626
X55.422Y31.534Z-0.625
X55.424Y31.516Z-0.626
X55.425Y31.512Z-0.625
X55.427Y31.494Z-0.625
X55.428Y31.49Z-0.625
X55.43Y31.471Z-0.625
X55.43Y31.468Z-0.625
X55.432Y31.445Z-0.625
X55.433Y31.423Z-0.625
X55.434Y31.4Z-0.625
X55.434Y31.377Z-0.625
X55.433Y31.354Z-0.625
X55.432Y31.331Z-0.625
X55.43Y31.31Z-0.625
X55.43Y31.307Z-0.625
X55.428Y31.288Z-0.625
X55.427Y31.285Z-0.625
X55.425Y31.266Z-0.625
X55.424Y31.262Z-0.626
X55.422Y31.244Z-0.625
X55.42Y31.239Z-0.626
X55.417Y31.222Z-0.626
X55.416Y31.217Z-0.626
X55.413Y31.201Z-0.626
X55.411Y31.194Z-0.626
X55.408Y31.179Z-0.626
X55.406Y31.172Z-0.627
X55.402Y31.158Z-0.627
X55.399Y31.151Z-0.627
X55.396Y31.137Z-0.627
X55.393Y31.129Z-0.627
X55.389Y31.116Z-0.627
X55.385Y31.108Z-0.628
X55.381Y31.096Z-0.628
X55.377Y31.087Z-0.628
X55.373Y31.076Z-0.628
X55.369Y31.066Z-0.629
X55.365Y31.056Z-0.629
X55.36Y31.045Z-0.629
X55.356Y31.036Z-0.63
X55.35Y31.025Z-0.63
X55.346Y31.016Z-0.63
X55.34Y31.005Z-0.631
X55.336Y30.997Z-0.631
X55.329Y30.985Z-0.631
X55.325Y30.978Z-0.632
X55.318Y30.966Z-0.632
X55.314Y30.96Z-0.632
X55.306Y30.946Z-0.633
X55.303Y30.941Z-0.633
X55.293Y30.928Z-0.634
X55.29Y30.923Z-0.634
X55.28Y30.909Z-0.635
X55.278Y30.905Z-0.635
X55.267Y30.891Z-0.635
X55.265Y30.888Z-0.635
X55.253Y30.873Z-0.636
X55.251Y30.871Z-0.636
X55.237Y30.854Z-0.637
X55.222Y30.838Z-0.638
X55.207Y30.822Z-0.639
X55.191Y30.805Z-0.64
X55.175Y30.79Z-0.641
X55.158Y30.774Z-0.642
X55.142Y30.76Z-0.642
X55.125Y30.746Z-0.643
X55.122Y30.744Z-0.644
X55.107Y30.732Z-0.644
X55.104Y30.73Z-0.645
X55.089Y30.718Z-0.645
X55.085Y30.716Z-0.645
X55.07Y30.705Z-0.646
X55.066Y30.702Z-0.646
X55.051Y30.692Z-0.647
X55.046Y30.689Z-0.647
X55.031Y30.68Z-0.648
X55.026Y30.677Z-0.648
X55.011Y30.668Z-0.648
X55.005Y30.665Z-0.649
X54.991Y30.656Z-0.649
X54.984Y30.653Z-0.65
X54.97Y30.645Z-0.65
X54.963Y30.641Z-0.65
X54.948Y30.634Z-0.651
G0Z2
X53.616Y28.348
G1Z-0.573F150
X53.62Y28.344Z-0.573F300
X53.627Y28.337Z-0.572
X53.631Y28.334Z-0.572
X53.638Y28.327Z-0.572
X53.641Y28.324Z-0.572
X53.652Y28.314Z-0.571
X53.662Y28.303Z-0.572
X53.671Y28.291Z-0.574
X53.681Y28.279Z-0.577
X53.689Y28.265Z-0.582
X53.697Y28.251Z-0.587
X53.704Y28.235Z-0.594
X53.711Y28.219Z-0.601
X53.718Y28.202Z-0.609
X53.724Y28.184Z-0.619
X53.73Y28.165Z-0.63
X53.735Y28.144Z-0.643F150
X53.739Y28.122Z-0.657
X53.742Y28.099Z-0.673
X53.744Y28.084Z-0.675F300
X53.904Y28.051Z-0.643
X53.984Y28.076
X54.104Y28.051
X54.184Y28.076
X54.272Y28.058Z-0.65
X54.384Y28.074Z-0.645
X54.439Y28.053Z-0.645
X54.584Y28.074Z-0.645
X54.639Y28.053
X54.711Y28.063Z-0.655
X54.811Y28.063
X54.839Y28.053Z-0.645
X54.911Y28.063Z-0.655
X55.343
G0Z2
X53.616Y28.348
G1Z-0.573F150
X53.61Y28.354Z-0.573F300
X53.605Y28.358Z-0.573
X53.6Y28.364Z-0.574
X53.595Y28.368Z-0.574
X53.59Y28.374Z-0.574
X53.585Y28.378Z-0.575
X53.58Y28.384Z-0.575
X53.575Y28.389Z-0.575
X53.57Y28.394Z-0.576
X53.565Y28.399Z-0.576
X53.546Y28.42Z-0.577
X53.527Y28.44Z-0.579
X53.51Y28.461Z-0.58
X53.485Y28.493Z-0.583
X53.462Y28.524Z-0.586
X53.447Y28.545Z-0.588
X53.433Y28.566Z-0.59
X53.421Y28.587Z-0.592
X53.409Y28.609Z-0.594
X53.392Y28.64Z-0.598
X53.378Y28.672Z-0.601
X53.369Y28.693Z-0.604
X53.358Y28.725Z-0.608
X53.348Y28.757Z-0.611
X53.339Y28.79Z-0.615
X53.333Y28.821Z-0.618
X53.326Y28.864Z-0.622
X53.322Y28.909Z-0.626
X53.32Y28.943Z-0.629
X53.321Y28.977Z-0.631
X53.323Y29.017Z-0.634
X53.327Y29.055Z-0.637
X53.33Y29.073Z-0.638
X53.333Y29.09Z-0.64
X53.336Y29.107Z-0.641
X53.34Y29.123Z-0.643
X53.349Y29.156Z-0.646
X53.353Y29.169Z-0.647
X53.357Y29.183Z-0.649
X53.363Y29.196Z-0.65
X53.374Y29.223Z-0.653
X53.379Y29.233Z-0.654
X53.385Y29.245Z-0.656
X53.397Y29.266Z-0.658
X53.403Y29.277Z-0.659
X53.416Y29.296Z-0.661
X53.43Y29.314Z-0.662
X53.437Y29.323Z-0.663
X53.454Y29.342Z-0.664
X53.459Y29.347Z-0.664
X53.475Y29.362Z-0.665
X53.494Y29.379Z-0.666
X53.501Y29.384Z-0.666
X53.523Y29.4Z-0.666
X53.531Y29.405Z-0.666
X53.554Y29.42Z-0.666
X53.564Y29.425Z-0.666
X53.576Y29.432Z-0.665
X53.602Y29.445Z-0.665
X53.629Y29.456Z-0.664
X53.643Y29.462Z-0.664
X53.658Y29.468Z-0.664
X53.674Y29.473Z-0.663
X53.69Y29.478Z-0.663
X53.707Y29.483Z-0.663
X53.724Y29.488Z-0.662
X53.742Y29.492Z-0.662
X53.76Y29.497Z-0.662
X53.779Y29.501Z-0.661
X53.794Y29.504Z-0.661
X53.798Y29.505Z-0.661
X53.813Y29.507Z-0.661
X53.818Y29.508Z-0.66
X53.831Y29.51Z-0.66
X53.839Y29.511Z-0.66
X53.85Y29.513Z-0.66
X53.86Y29.514Z-0.66
X53.87Y29.515Z-0.66
X53.882Y29.517Z-0.659
X53.889Y29.517Z-0.66
X53.904Y29.519Z-0.659
X53.909Y29.519Z-0.659
X53.949Y29.523Z-0.659
X53.969Y29.524Z-0.659
X53.973Y29.524Z-0.658
X53.989Y29.525Z-0.658
X53.997Y29.526Z-0.658
X54.01Y29.526Z-0.658
X54.022Y29.527Z-0.658
X54.031Y29.526Z-0.658
X54.047Y29.527Z-0.657
X54.053Y29.527Z-0.658
X54.074Y29.527Z-0.657
X54.096Y29.529Z-0.656
X54.16Y29.536Z-0.648
X54.207Y29.518
X54.36Y29.536
X54.407Y29.518
X54.56Y29.536
X54.607Y29.518
X54.723Y29.532Z-0.653
X54.76Y29.539Z-0.645
X54.839Y29.515
X54.899Y29.527Z-0.657
X55.341
G0Z2
X53.489Y28.193
G1Z-0.485F150
X53.501Y28.039Z-0.631
X53.504Y28.038Z-0.63F300
X53.704Y28.057Z-0.649
X53.744Y28.084Z-0.675
G0Z2
X53.489Y28.193
G1Z-0.485F150
X53.486Y28.202Z-0.475F300
X53.616Y28.348Z-0.573
G0Z2
X53.489Y28.193
G1Z-0.485F150
X53.516Y28.212Z-0.468F300
X53.627Y28.337Z-0.572F150
G0Z2
X53.293Y28.131
G1Z-0.53
X53.373Y28.037Z-0.628
X53.401Y28.039Z-0.63F300
X53.501Y28.039Z-0.631
G0Z2
X53.304Y27.931
G1Z-0.523F150
X53.368Y28.031Z-0.623
X53.373Y28.037Z-0.628
G0Z2
X53.304Y23.086
G1Z-0.555
X53.4Y22.986Z-0.655
G0Z2
X53.539Y19.235
G1Z-0.579
X53.579Y19.183Z-0.577F300
X53.587Y19.172Z-0.578
X53.595Y19.16Z-0.579
X53.601Y19.148Z-0.582
X53.608Y19.135Z-0.585
X53.613Y19.121Z-0.589
X53.624Y19.092Z-0.6
X53.628Y19.077Z-0.606
X53.632Y19.061Z-0.613
X53.636Y19.045Z-0.621
X53.639Y19.027Z-0.631
X53.647Y18.957Z-0.673F150
G0Z2
X53.539Y19.235
G1Z-0.579
X53.486Y19.31Z-0.581F300
X53.446Y19.375Z-0.584
X53.416Y19.429Z-0.587
X53.394Y19.473Z-0.59
X53.375Y19.518Z-0.593
X53.354Y19.575Z-0.597
X53.34Y19.618Z-0.601
X53.332Y19.651Z-0.603
X53.325Y19.685Z-0.606
X53.316Y19.74Z-0.611
X53.312Y19.773Z-0.614
X53.31Y19.817Z-0.617
X53.31Y19.85Z-0.619
X53.312Y19.895Z-0.623
X53.315Y19.926Z-0.625
X53.318Y19.954Z-0.626
X53.323Y19.982Z-0.628
X53.329Y20.008Z-0.63
X53.336Y20.034Z-0.632
X53.344Y20.059Z-0.634
X53.353Y20.082Z-0.636
X53.363Y20.105Z-0.638
X53.373Y20.126Z-0.639
X53.384Y20.147Z-0.641
X53.396Y20.166Z-0.642
X53.408Y20.185Z-0.644
X53.421Y20.202Z-0.645
X53.434Y20.219Z-0.646
X53.449Y20.235Z-0.647
X53.463Y20.249Z-0.648
X53.486Y20.27Z-0.649
X53.511Y20.289Z-0.65
X53.529Y20.301Z-0.651
X53.547Y20.311Z-0.651
X53.576Y20.327Z-0.651
X53.596Y20.336Z-0.651
X53.618Y20.344Z-0.651
X53.64Y20.352Z-0.651
X53.664Y20.359Z-0.651
X53.689Y20.365Z-0.651
X53.716Y20.369Z-0.65
X53.743Y20.373Z-0.65
X53.772Y20.376Z-0.649
X53.787Y20.377Z-0.649
X53.803Y20.378Z-0.649
X53.812Y20.378Z-0.649
X53.82Y20.378Z-0.649
X53.828Y20.378Z-0.649
X53.838Y20.378Z-0.648
X53.846Y20.377Z-0.648
X53.856Y20.377Z-0.648
X53.865Y20.376Z-0.648
X53.873Y20.376Z-0.647
X53.885Y20.375Z-0.647
X53.889Y20.374Z-0.647
X53.906Y20.372Z-0.647
X53.937Y20.367Z-0.646
X53.943Y20.366Z-0.646
X53.951Y20.364Z-0.645
X53.962Y20.362Z-0.645
X53.966Y20.361Z-0.644
X53.994Y20.353Z-0.643
X53.999Y20.351Z-0.643
X54.008Y20.348Z-0.642
X54.022Y20.343Z-0.641
X54.048Y20.331Z-0.639
X54.054Y20.328Z-0.639
X54.061Y20.325Z-0.638
X54.074Y20.318Z-0.637
X54.1Y20.303Z-0.634
X54.106Y20.299Z-0.634
X54.114Y20.294Z-0.633
X54.123Y20.288Z-0.632
X54.127Y20.285Z-0.632
X54.14Y20.275Z-0.63
X54.166Y20.254Z-0.627
X54.169Y20.25Z-0.626
X54.179Y20.242Z-0.625
X54.184Y20.237Z-0.624
X54.192Y20.229Z-0.623
X54.198Y20.223Z-0.622
X54.205Y20.215Z-0.621
X54.212Y20.208Z-0.621
X54.218Y20.201Z-0.619
X54.225Y20.193Z-0.619
X54.231Y20.186Z-0.618
X54.238Y20.178Z-0.617
X54.244Y20.17Z-0.616
X54.25Y20.162Z-0.615
X54.257Y20.153Z-0.614
X54.262Y20.146Z-0.614
X54.27Y20.135Z-0.612
X54.274Y20.129Z-0.612
X54.283Y20.117Z-0.611
X54.285Y20.112Z-0.61
X54.295Y20.097Z-0.609
X54.308Y20.076Z-0.607
X54.317Y20.059Z-0.606
X54.32Y20.055Z-0.606
X54.327Y20.04Z-0.605
X54.332Y20.033Z-0.604
X54.337Y20.021Z-0.604
X54.343Y20.009Z-0.603
X54.347Y20.001Z-0.602
X54.355Y19.985Z-0.601
X54.356Y19.982Z-0.601
X54.366Y19.96Z-0.6
X54.374Y19.94Z-0.599
X54.377Y19.934Z-0.599
X54.383Y19.919Z-0.598
X54.388Y19.907Z-0.598
X54.391Y19.897Z-0.598
X54.398Y19.88Z-0.597
X54.4Y19.875Z-0.597
X54.408Y19.851Z-0.596
X54.415Y19.829Z-0.595
X54.418Y19.822Z-0.595
X54.423Y19.806Z-0.595
X54.428Y19.791Z-0.594
X54.43Y19.781Z-0.594
X54.437Y19.76Z-0.593
X54.438Y19.757Z-0.594
X54.445Y19.731Z-0.593
X54.446Y19.728Z-0.593
X54.452Y19.705Z-0.593
X54.455Y19.695Z-0.592
X54.459Y19.679Z-0.592
X54.464Y19.661Z-0.592
X54.465Y19.652Z-0.592
X54.472Y19.626Z-0.591
X54.472Y19.624Z-0.591
X54.479Y19.596Z-0.591
X54.48Y19.591Z-0.591
X54.485Y19.567Z-0.591
X54.488Y19.554Z-0.59
X54.491Y19.537Z-0.59
X54.496Y19.517Z-0.59
X54.497Y19.507Z-0.59
X54.503Y19.479Z-0.59
X54.503Y19.476Z-0.59
X54.508Y19.445Z-0.59
X54.51Y19.44Z-0.59
X54.513Y19.413Z-0.59
X54.517Y19.4Z-0.589
X54.519Y19.38Z-0.589
X54.523Y19.359Z-0.589
X54.524Y19.346Z-0.589
X54.529Y19.318Z-0.589
X54.529Y19.312Z-0.59
X54.535Y19.278Z-0.59
X54.535Y19.276Z-0.589
X54.539Y19.242Z-0.589
X54.541Y19.232Z-0.589
X54.543Y19.206Z-0.589
X54.547Y19.188Z-0.589
X54.548Y19.169Z-0.589
X54.552Y19.143Z-0.589
Y18.952Z-0.667
G0Z2
X53.365Y19.062
G1Z-0.484F150
X53.555Y19.214Z-0.578F300
G0Z2
X53.365Y19.062
G1Z-0.484F150
X53.425Y19.093Z-0.461F300
X53.563Y19.204Z-0.578F150
G0Z2
X53.344Y19.064
G1Z-0.479
X53.348Y19.052Z-0.491
X53.354Y19.005Z-0.539
X53.394Y18.934Z-0.615
X53.348Y19.052Z-0.491F300
X53.365Y19.062Z-0.484
X53.344Y19.064Z-0.479
X53.339Y19.078Z-0.464
X53.539Y19.235Z-0.579
G0Z2
X53.344Y19.064
G1Z-0.479F150
X53.547Y19.225Z-0.578F300
G0Z2
X53.418Y33.278
G1Z-0.725F150
X53.431Y33.29Z-0.742
X53.444Y33.289Z-0.743F300
X53.465Y33.29Z-0.741
X53.471Y33.286Z-0.734
X53.473Y33.285Z-0.732
X53.472Y33.285Z-0.732F150
X53.482Y33.279Z-0.721F300
X53.475Y33.283Z-0.729F150
X53.472Y33.285Z-0.732
X53.475Y33.282Z-0.729F300
X53.473Y33.285Z-0.732F150
X53.475Y33.283Z-0.729F300
X53.472Y33.285Z-0.733F150
X53.476Y33.281Z-0.727F300
X53.471Y33.285Z-0.734F150
X53.484Y33.281Z-0.72F300
X53.471Y33.285Z-0.734F150
X53.469Y33.287Z-0.736
X53.47Y33.286Z-0.735F300
X53.465Y33.29Z-0.741F150
X53.477Y33.299Z-0.728F300
X53.481Y33.303Z-0.721
X53.478Y33.3Z-0.726F150
X53.482Y33.302Z-0.722F300
X53.477Y33.299Z-0.727F150
X53.482Y33.302Z-0.722F300
X53.477Y33.299Z-0.727F150
X53.48Y33.302Z-0.722F300
X53.476Y33.298Z-0.728F150
X53.477Y33.299Z-0.727F300
X53.475Y33.298Z-0.729F150
X53.486Y33.302Z-0.718F300
X53.424Y33.285Z-0.734
X53.424Y33.285Z-0.735F150
X53.424Y33.284Z-0.734F300
X53.425Y33.286Z-0.735F150
X53.423Y33.284Z-0.733F300
X53.424Y33.285Z-0.735F150
X53.423Y33.283Z-0.733F300
X53.426Y33.286Z-0.736F150
X53.421Y33.285Z-0.732F300
X53.426Y33.286Z-0.736F150
X53.423Y33.284Z-0.733F300
X53.422Y33.283Z-0.732
X53.424Y33.285Z-0.734F150
X53.423Y33.284Z-0.733F300
X53.415Y33.282Z-0.725
X53.425Y33.285Z-0.735F150
X53.415Y33.282Z-0.725F300
X53.425Y33.286Z-0.736F150
X53.421Y33.297Z-0.731F300
X53.431Y33.29Z-0.742F150
X53.417Y33.3Z-0.727F300
X53.419Y33.299Z-0.728F150
X53.417Y33.299Z-0.727F300
X53.421Y33.297Z-0.731F150
X53.417Y33.302Z-0.725F300
X53.42Y33.298Z-0.729F150
X53.414Y33.3Z-0.724F300
X53.42Y33.298Z-0.73F150
X53.415Y33.303Z-0.723F300
X53.419Y33.299Z-0.728F150
X53.418Y33.299Z-0.728F300
X53.415Y33.305Z-0.721
X53.421Y33.297Z-0.731F150
X53.418Y33.3Z-0.727F300
X53.413Y33.305Z-0.72
X53.419Y33.299Z-0.728F150
X53.411Y33.304Z-0.719F300
X53.418Y33.3Z-0.727F150
G0Z2
X53.515Y34.232
G1Z-0.461
X53.472Y34.301Z-0.542
X53.447Y34.347Z-0.594
X53.442Y34.357Z-0.605
X53.439Y34.362Z-0.608F300
X53.418Y34.404Z-0.609
X53.396Y34.453Z-0.609
X53.38Y34.494Z-0.61
X53.365Y34.535Z-0.61
X53.352Y34.578Z-0.611
X53.337Y34.632Z-0.612
X53.321Y34.715Z-0.613
X53.313Y34.772Z-0.614
X53.309Y34.82Z-0.615
X53.306Y34.857Z-0.616
X53.306Y34.882Z-0.616
X53.306Y34.908Z-0.616
X53.306Y34.94Z-0.617
X53.306Y34.945Z-0.617
X53.307Y34.966Z-0.617
X53.307Y34.969Z-0.618
X53.309Y34.992Z-0.618
X53.311Y35.016Z-0.619
X53.314Y35.041Z-0.619
X53.317Y35.063Z-0.62
X53.317Y35.065Z-0.62
X53.321Y35.086Z-0.621
X53.321Y35.089Z-0.62
X53.325Y35.108Z-0.621
X53.326Y35.113Z-0.621
X53.33Y35.131Z-0.622
X53.331Y35.136Z-0.622
X53.336Y35.153Z-0.622
X53.337Y35.159Z-0.622
X53.341Y35.176Z-0.623
X53.343Y35.182Z-0.623
X53.348Y35.198Z-0.624
X53.35Y35.205Z-0.624
X53.355Y35.22Z-0.625
X53.357Y35.227Z-0.625
X53.362Y35.241Z-0.625
X53.365Y35.249Z-0.625
X53.37Y35.263Z-0.626
X53.373Y35.27Z-0.626
X53.379Y35.284Z-0.627
X53.382Y35.292Z-0.627
X53.388Y35.305Z-0.628
X53.391Y35.313Z-0.628
X53.398Y35.325Z-0.628
X53.401Y35.333Z-0.628
X53.408Y35.346Z-0.629
X53.411Y35.353Z-0.629
X53.418Y35.366Z-0.63
X53.422Y35.373Z-0.63
X53.43Y35.386Z-0.631
X53.433Y35.393Z-0.631
X53.441Y35.405Z-0.631
X53.445Y35.412Z-0.632
X53.453Y35.424Z-0.632
X53.457Y35.431Z-0.632
X53.466Y35.443Z-0.633
X53.47Y35.449Z-0.633
X53.479Y35.462Z-0.634
X53.483Y35.467Z-0.634
X53.493Y35.48Z-0.635
X53.496Y35.485Z-0.635
X53.507Y35.498Z-0.635
X53.51Y35.502Z-0.635
X53.522Y35.515Z-0.636
X53.525Y35.519Z-0.636
X53.537Y35.532Z-0.637
X53.54Y35.536Z-0.637
X53.553Y35.549Z-0.638
X53.555Y35.552Z-0.638
X53.569Y35.566Z-0.638
X53.571Y35.568Z-0.638
X53.587Y35.583Z-0.639
X53.604Y35.598Z-0.64
X53.621Y35.613Z-0.64
X53.638Y35.627Z-0.641
X53.656Y35.641Z-0.642
X53.675Y35.655Z-0.642
X53.694Y35.668Z-0.643
X53.714Y35.681Z-0.644
X53.734Y35.694Z-0.644
X53.754Y35.706Z-0.645
X53.775Y35.718Z-0.645
X53.796Y35.729Z-0.646
X53.818Y35.739Z-0.646
X53.839Y35.749Z-0.646
X53.862Y35.759Z-0.647
X53.884Y35.769Z-0.647
X53.908Y35.778Z-0.648
X53.932Y35.786Z-0.648
X53.953Y35.793Z-0.648
X53.956Y35.794Z-0.648
X53.977Y35.8Z-0.649
X53.982Y35.802Z-0.649
X54.001Y35.807Z-0.649
X54.007Y35.809Z-0.649
X54.025Y35.814Z-0.649
X54.033Y35.816Z-0.649
X54.05Y35.819Z-0.65
X54.06Y35.822Z-0.649
X54.075Y35.825Z-0.65
X54.087Y35.828Z-0.65
X54.1Y35.83Z-0.65
X54.114Y35.833Z-0.65
X54.125Y35.834Z-0.65
X54.142Y35.837Z-0.65
X54.151Y35.838Z-0.651
X54.171Y35.841Z-0.65
X54.177Y35.842Z-0.651
X54.2Y35.845Z-0.651
X54.203Y35.845Z-0.651
X54.23Y35.848Z-0.651
X54.256Y35.849Z-0.651
X54.26Y35.85Z-0.651
X54.291Y35.851Z-0.652
X54.322Y35.85Z-0.655
X54.354Y35.845Z-0.66
X54.385Y35.838Z-0.667
X54.416Y35.828Z-0.677
X54.42Y35.563Z-0.598
X54.417Y35.559
X54.42Y35.363
X54.417Y35.359
X54.419Y35.237Z-0.599
X54.406Y35.159Z-0.586
X54.418Y35.137Z-0.598
X54.419Y35.037Z-0.599
X54.406Y34.959Z-0.586
X54.432Y34.912
X54.408Y34.772Z-0.589
X54.436Y34.712Z-0.583
X54.402Y34.585
X54.436Y34.512
X54.402Y34.385
X54.462Y34.254Z-0.642
X54.464Y34.253Z-0.644F150
X54.498Y34.245Z-0.637F300
X54.517Y34.242Z-0.634
X54.545Y34.24Z-0.631
X54.573Y34.24Z-0.631
X54.595Y34.241Z-0.63
X54.6Y34.241Z-0.63
X54.619Y34.242Z-0.63
X54.627Y34.242Z-0.63
X54.643Y34.244Z-0.63
X54.654Y34.244Z-0.629
X54.667Y34.246Z-0.629
X54.68Y34.246Z-0.629
X54.69Y34.248Z-0.629
X54.706Y34.249Z-0.628
X54.713Y34.25Z-0.628
X54.731Y34.252Z-0.628
X54.736Y34.253Z-0.628
X54.756Y34.256Z-0.628
X54.78Y34.26Z-0.627
X54.804Y34.264Z-0.627
X54.824Y34.268Z-0.627
X54.828Y34.268Z-0.626
X54.845Y34.272Z-0.626
X54.851Y34.274Z-0.626
X54.866Y34.277Z-0.626
X54.874Y34.279Z-0.626
X54.887Y34.283Z-0.626
X54.896Y34.285Z-0.625
X54.907Y34.289Z-0.625
X54.918Y34.291Z-0.625
X54.928Y34.295Z-0.625
X54.939Y34.298Z-0.625
X54.947Y34.301Z-0.625
X54.96Y34.305Z-0.625
X54.967Y34.308Z-0.625
X54.98Y34.313Z-0.624
X54.986Y34.315Z-0.624
X55Y34.32Z-0.624
X55.006Y34.323Z-0.624
X55.02Y34.329Z-0.624
X55.024Y34.331Z-0.624
X55.039Y34.337Z-0.624
X55.043Y34.339Z-0.624
X55.058Y34.346Z-0.623
X55.061Y34.348Z-0.624
X55.076Y34.355Z-0.623
X55.079Y34.357Z-0.623
X55.093Y34.365Z-0.623
X55.096Y34.367Z-0.623
X55.111Y34.375Z-0.623
X55.113Y34.377Z-0.623
X55.127Y34.385Z-0.623
X55.13Y34.387Z-0.623
X55.144Y34.395Z-0.622
X55.147Y34.398Z-0.623
X55.16Y34.406Z-0.622
X55.163Y34.409Z-0.622
X55.175Y34.418Z-0.622
X55.179Y34.421Z-0.622
X55.19Y34.429Z-0.622
X55.194Y34.433Z-0.622
X55.204Y34.441Z-0.622
X55.209Y34.445Z-0.622
X55.219Y34.453Z-0.621
X55.224Y34.458Z-0.622
X55.232Y34.465Z-0.621
X55.238Y34.471Z-0.621
X55.245Y34.478Z-0.621
X55.252Y34.485Z-0.621
X55.258Y34.491Z-0.621
X55.265Y34.499Z-0.621
X55.271Y34.505Z-0.621
X55.278Y34.513Z-0.621
X55.283Y34.518Z-0.62
X55.29Y34.528Z-0.62
X55.294Y34.533Z-0.62
X55.302Y34.543Z-0.62
X55.305Y34.547Z-0.62
X55.314Y34.558Z-0.62
X55.316Y34.562Z-0.62
X55.325Y34.574Z-0.62
X55.327Y34.577Z-0.619
X55.337Y34.592Z-0.619
X55.346Y34.608Z-0.619
X55.355Y34.624Z-0.619
X55.364Y34.641Z-0.619
X55.372Y34.658Z-0.618
X55.38Y34.675Z-0.618
X55.388Y34.693Z-0.618
X55.395Y34.711Z-0.618
X55.401Y34.73Z-0.617
X55.408Y34.749Z-0.617
X55.413Y34.769Z-0.617
X55.417Y34.785Z-0.617
X55.418Y34.789Z-0.617
X55.422Y34.804Z-0.617
X55.423Y34.809Z-0.616
X55.426Y34.823Z-0.617
X55.427Y34.83Z-0.616
X55.429Y34.842Z-0.616
X55.431Y34.851Z-0.616
X55.433Y34.862Z-0.616
X55.434Y34.873Z-0.616
X55.435Y34.881Z-0.616
X55.437Y34.895Z-0.616
X55.438Y34.901Z-0.616
X55.439Y34.918Z-0.616
X55.439Y34.921Z-0.616
X55.441Y34.941Z-0.616
X55.442Y34.961Z-0.616
X55.442Y34.965Z-0.616
X55.442Y34.982Z-0.616
X55.443Y34.989Z-0.616
X55.442Y35.002Z-0.616
X55.442Y35.011Z-0.616
X55.442Y35.021Z-0.616
X55.442Y35.032Z-0.616
X55.441Y35.04Z-0.617
X55.44Y35.052Z-0.616
X55.44Y35.06Z-0.617
X55.439Y35.073Z-0.617
X55.438Y35.079Z-0.617
X55.436Y35.093Z-0.617
X55.435Y35.098Z-0.617
X55.433Y35.114Z-0.617
X55.433Y35.117Z-0.617
X55.429Y35.136Z-0.617
X55.426Y35.155Z-0.617
X55.421Y35.175Z-0.617
X55.417Y35.192Z-0.617
X55.416Y35.195Z-0.617
X55.412Y35.211Z-0.617
X55.411Y35.215Z-0.617
X55.406Y35.229Z-0.618
X55.404Y35.235Z-0.617
X55.4Y35.247Z-0.618
X55.398Y35.255Z-0.618
X55.394Y35.265Z-0.618
X55.39Y35.275Z-0.618
X55.387Y35.283Z-0.618
X55.382Y35.294Z-0.618
X55.379Y35.301Z-0.618
X55.374Y35.314Z-0.618
X55.371Y35.319Z-0.618
X55.365Y35.333Z-0.618
X55.363Y35.336Z-0.619
X55.355Y35.353Z-0.619
X55.345Y35.371Z-0.619
X55.335Y35.389Z-0.619
X55.326Y35.404Z-0.62
X55.324Y35.408Z-0.619
X55.315Y35.42Z-0.62
X55.312Y35.426Z-0.62
X55.305Y35.437Z-0.62
X55.3Y35.444Z-0.62
X55.293Y35.453Z-0.621
X55.287Y35.462Z-0.621
X55.282Y35.468Z-0.621
X55.274Y35.479Z-0.621
X55.27Y35.484Z-0.621
X55.26Y35.496Z-0.621
X55.257Y35.499Z-0.622
X55.244Y35.515Z-0.622
X55.231Y35.53Z-0.622
X55.217Y35.544Z-0.623
X55.216Y35.546Z-0.623
X55.203Y35.558Z-0.624
X55.2Y35.562Z-0.623
X55.189Y35.572Z-0.624
X55.183Y35.578Z-0.624
X55.174Y35.586Z-0.625
X55.167Y35.594Z-0.625
X55.159Y35.6Z-0.625
X55.149Y35.609Z-0.625
X55.143Y35.613Z-0.626
X55.131Y35.623Z-0.626
X55.127Y35.626Z-0.626
X55.113Y35.637Z-0.627
X55.094Y35.651Z-0.627
X55.075Y35.665Z-0.628
X55.06Y35.675Z-0.629
X55.055Y35.678Z-0.629
X55.042Y35.686Z-0.629
X55.035Y35.691Z-0.629
X55.024Y35.698Z-0.63
X55.015Y35.703Z-0.63
X55.005Y35.708Z-0.631
X54.994Y35.715Z-0.631
X54.986Y35.719Z-0.631
X54.972Y35.727Z-0.632
X54.967Y35.729Z-0.632
X54.95Y35.738Z-0.632
X54.927Y35.749Z-0.633
X54.907Y35.758Z-0.634
X54.904Y35.759Z-0.634
X54.887Y35.766Z-0.635
X54.881Y35.769Z-0.635
X54.866Y35.774Z-0.635
X54.857Y35.778Z-0.635
X54.844Y35.782Z-0.636
X54.833Y35.787Z-0.636
X54.823Y35.79Z-0.637
X54.808Y35.795Z-0.637
X54.801Y35.797Z-0.638
X54.783Y35.803Z-0.638
X54.779Y35.804Z-0.638
X54.756Y35.811Z-0.639
X54.732Y35.817Z-0.639
X54.71Y35.822Z-0.64
X54.705Y35.824Z-0.64
X54.687Y35.828Z-0.641
X54.678Y35.83Z-0.641
X54.663Y35.832Z-0.641
X54.651Y35.835Z-0.642
X54.639Y35.837Z-0.642
X54.623Y35.84Z-0.642
X54.614Y35.841Z-0.643
X54.595Y35.844Z-0.643
X54.59Y35.844Z-0.643
X54.416Y35.828Z-0.677
X54.446Y35.837Z-0.666
X54.477Y35.844Z-0.657
X54.507Y35.848Z-0.651
X54.537Y35.849Z-0.646
X54.566Y35.848Z-0.644
X54.59Y35.844Z-0.643
G0Z2
X54.42Y35.563
G1Z-0.598F150
X54.559Z-0.46F300
X54.59Y35.844Z-0.643F150
G0Z2
X55.281Y36.32
G1Z-0.461
X55.287Y36.338Z-0.48
X55.295Y36.355Z-0.499
X55.306Y36.371Z-0.517
X55.319Y36.387Z-0.535
X55.334Y36.403Z-0.554
X55.353Y36.42Z-0.574
X55.376Y36.438Z-0.597
X55.403Y36.456Z-0.621
X55.413Y36.463Z-0.629
X55.42Y36.469Z-0.636
X55.439Y36.446Z-0.617F300
X55.454Y36.422Z-0.598
X55.467Y36.397Z-0.576
X55.475Y36.375Z-0.556
X55.481Y36.353Z-0.535
X55.483Y36.33Z-0.514
X55.482Y36.311Z-0.495
X55.48Y36.298Z-0.482
G0Z2
X55.126Y37.031
G1Z-0.574F150
X55.148Y37.014Z-0.577F300
X55.19Y36.979Z-0.582
X55.209Y36.961Z-0.584
X55.228Y36.942Z-0.587
X55.255Y36.915Z-0.591
X55.271Y36.896Z-0.593
X55.294Y36.867Z-0.597
X55.308Y36.849Z-0.6
X55.322Y36.83Z-0.603
X55.34Y36.801Z-0.606
X55.351Y36.783Z-0.609
X55.366Y36.754Z-0.613
X55.383Y36.718Z-0.618
X55.393Y36.69Z-0.621
X55.405Y36.655Z-0.625
X55.411Y36.629Z-0.628
X55.416Y36.604Z-0.63
X55.419Y36.579Z-0.633
X55.422Y36.538Z-0.635
X55.421Y36.47Z-0.637
X55.42Y36.469Z-0.636
G0Z2
X55.126Y37.031
G1Z-0.574F150
X55.231Y37.197Z-0.465F300
X55.225Y37.209Z-0.477F150
X55.211Y37.363Z-0.632
X55.212Y37.349Z-0.619F300
X55.211Y37.363Z-0.632F150
X55.239Y37.377Z-0.624F300
X55.311Y37.371Z-0.63
X55.369Y37.372Z-0.627
X55.433Y37.281Z-0.53
X55.369Y37.372Z-0.627F150
X55.378Y37.381Z-0.621F300
X55.439Y37.481Z-0.521
G0Z2
X55.114Y37.04
G1Z-0.573F150
X55.12Y37.035Z-0.574F300
X55.126Y37.031Z-0.574
X55.114Y37.04Z-0.573
X55.213Y37.199Z-0.469
X55.225Y37.209Z-0.477
G0Z2
X54.917Y37.309
G1Z-0.693F150
X54.919Y37.302Z-0.689F300
X54.928Y37.273Z-0.667
X54.937Y37.247Z-0.648
X54.947Y37.223Z-0.631
X54.957Y37.201Z-0.617
X54.968Y37.181Z-0.605
X54.978Y37.163Z-0.594
X54.99Y37.146Z-0.586
X55.001Y37.13Z-0.579
X55.013Y37.116Z-0.574
X55.026Y37.104Z-0.57
X55.039Y37.092Z-0.568
X55.052Y37.082Z-0.568
X55.091Y37.056Z-0.571
X55.103Y37.048Z-0.572
X55.107Y37.045Z-0.573
X55.114Y37.04Z-0.573
G0Z2
X54.917Y37.309
G1Z-0.693F150
X55.039Y37.367Z-0.634F300
X55.111Y37.362Z-0.639
X55.211Y37.363Z-0.632
G0Z2
X54.462Y38.304
G1Z-0.642F150
X54.464Y38.303Z-0.644
X54.498Y38.295Z-0.637F300
X54.517Y38.292Z-0.634
X54.545Y38.29Z-0.631
X54.573Y38.29Z-0.631
X54.595Y38.291Z-0.63
X54.6Y38.291Z-0.63
X54.619Y38.293Z-0.63
X54.627Y38.293Z-0.63
X54.643Y38.294Z-0.63
X54.654Y38.294Z-0.629
X54.667Y38.296Z-0.629
X54.68Y38.297Z-0.629
X54.69Y38.298Z-0.629
X54.706Y38.299Z-0.628
X54.713Y38.3Z-0.628
X54.731Y38.302Z-0.628
X54.736Y38.303Z-0.628
X54.756Y38.306Z-0.628
X54.78Y38.31Z-0.627
X54.804Y38.314Z-0.627
X54.824Y38.318Z-0.627
X54.828Y38.319Z-0.626
X54.845Y38.323Z-0.626
X54.851Y38.324Z-0.626
X54.866Y38.328Z-0.626
X54.874Y38.329Z-0.626
X54.887Y38.333Z-0.626
X54.896Y38.335Z-0.625
X54.907Y38.339Z-0.625
X54.918Y38.342Z-0.625
X54.927Y38.345Z-0.625
X54.939Y38.348Z-0.625
X54.947Y38.351Z-0.625
X54.96Y38.355Z-0.625
X54.967Y38.358Z-0.625
X54.98Y38.363Z-0.624
X54.986Y38.365Z-0.624
X55Y38.371Z-0.624
X55.006Y38.373Z-0.624
X55.02Y38.379Z-0.624
X55.024Y38.381Z-0.624
X55.039Y38.387Z-0.624
X55.043Y38.389Z-0.624
X55.058Y38.396Z-0.623
X55.061Y38.398Z-0.624
X55.076Y38.405Z-0.623
X55.079Y38.407Z-0.623
X55.093Y38.415Z-0.623
X55.096Y38.417Z-0.623
X55.111Y38.425Z-0.623
X55.113Y38.427Z-0.623
X55.127Y38.435Z-0.623
X55.13Y38.437Z-0.623
X55.144Y38.446Z-0.622
X55.147Y38.448Z-0.623
X55.159Y38.457Z-0.622
X55.163Y38.459Z-0.622
X55.175Y38.468Z-0.622
X55.179Y38.471Z-0.622
X55.19Y38.479Z-0.622
X55.194Y38.483Z-0.622
X55.204Y38.491Z-0.622
X55.209Y38.495Z-0.622
X55.219Y38.503Z-0.621
X55.224Y38.508Z-0.622
X55.232Y38.516Z-0.621
X55.238Y38.521Z-0.621
X55.245Y38.528Z-0.621
X55.252Y38.535Z-0.621
X55.258Y38.542Z-0.621
X55.265Y38.549Z-0.621
X55.271Y38.555Z-0.621
X55.278Y38.563Z-0.621
X55.283Y38.569Z-0.62
X55.29Y38.578Z-0.62
X55.294Y38.583Z-0.62
X55.302Y38.593Z-0.62
X55.305Y38.597Z-0.62
X55.314Y38.609Z-0.62
X55.316Y38.612Z-0.62
X55.325Y38.624Z-0.62
X55.327Y38.627Z-0.619
X55.337Y38.643Z-0.619
X55.346Y38.658Z-0.619
X55.355Y38.675Z-0.619
X55.364Y38.691Z-0.619
X55.372Y38.708Z-0.618
X55.38Y38.726Z-0.618
X55.388Y38.743Z-0.618
X55.395Y38.762Z-0.618
X55.401Y38.78Z-0.617
X55.408Y38.799Z-0.617
X55.413Y38.819Z-0.617
X55.417Y38.835Z-0.617
X55.418Y38.839Z-0.617
X55.422Y38.854Z-0.617
X55.423Y38.859Z-0.616
X55.426Y38.873Z-0.617
X55.427Y38.88Z-0.616
X55.429Y38.892Z-0.616
X55.431Y38.901Z-0.616
X55.433Y38.912Z-0.616
X55.434Y38.923Z-0.616
X55.435Y38.932Z-0.616
X55.437Y38.945Z-0.616
X55.438Y38.951Z-0.616
X55.439Y38.968Z-0.616
X55.439Y38.971Z-0.616
X55.441Y38.991Z-0.616
X55.442Y39.012Z-0.616
X55.442Y39.015Z-0.616
X55.442Y39.032Z-0.616
X55.443Y39.039Z-0.616
X55.442Y39.052Z-0.616
X55.442Y39.061Z-0.616
X55.442Y39.071Z-0.616
X55.442Y39.082Z-0.616
X55.441Y39.091Z-0.617
X55.44Y39.103Z-0.616
X55.44Y39.11Z-0.617
X55.439Y39.123Z-0.617
X55.438Y39.129Z-0.617
X55.436Y39.144Z-0.617
X55.435Y39.148Z-0.617
X55.433Y39.164Z-0.617
X55.433Y39.167Z-0.617
X55.429Y39.186Z-0.617
X55.426Y39.205Z-0.617
X55.421Y39.225Z-0.617
X55.417Y39.242Z-0.617
X55.416Y39.245Z-0.617
X55.412Y39.261Z-0.617
X55.411Y39.265Z-0.617
X55.406Y39.279Z-0.618
X55.404Y39.285Z-0.617
X55.4Y39.297Z-0.618
X55.398Y39.305Z-0.618
X55.394Y39.315Z-0.618
X55.39Y39.325Z-0.618
X55.387Y39.333Z-0.618
X55.382Y39.344Z-0.618
X55.379Y39.351Z-0.618
X55.374Y39.364Z-0.618
X55.371Y39.369Z-0.618
X55.365Y39.383Z-0.618
X55.363Y39.386Z-0.619
X55.355Y39.403Z-0.619
X55.345Y39.421Z-0.619
X55.335Y39.44Z-0.619
X55.326Y39.454Z-0.62
X55.324Y39.458Z-0.619
X55.315Y39.471Z-0.62
X55.312Y39.476Z-0.62
X55.305Y39.487Z-0.62
X55.3Y39.494Z-0.62
X55.293Y39.503Z-0.621
X55.287Y39.512Z-0.621
X55.282Y39.519Z-0.621
X55.274Y39.529Z-0.621
X55.27Y39.534Z-0.621
X55.26Y39.547Z-0.621
X55.257Y39.55Z-0.622
X55.244Y39.565Z-0.622
X55.231Y39.58Z-0.622
X55.217Y39.594Z-0.623
X55.216Y39.597Z-0.623
X55.203Y39.609Z-0.624
X55.2Y39.613Z-0.623
X55.189Y39.623Z-0.624
X55.183Y39.628Z-0.624
X55.174Y39.636Z-0.625
X55.167Y39.644Z-0.625
X55.159Y39.65Z-0.625
X55.149Y39.659Z-0.625
X55.143Y39.663Z-0.626
X55.131Y39.673Z-0.626
X55.127Y39.676Z-0.626
X55.113Y39.688Z-0.627
X55.094Y39.702Z-0.627
X55.075Y39.715Z-0.628
X55.06Y39.725Z-0.629
X55.055Y39.728Z-0.629
X55.042Y39.737Z-0.629
X55.035Y39.741Z-0.629
X55.024Y39.748Z-0.63
X55.015Y39.754Z-0.63
X55.005Y39.759Z-0.631
X54.994Y39.766Z-0.631
X54.986Y39.769Z-0.631
X54.972Y39.777Z-0.632
X54.967Y39.779Z-0.632
X54.95Y39.788Z-0.632
X54.927Y39.799Z-0.633
X54.907Y39.808Z-0.634
X54.904Y39.809Z-0.634
X54.887Y39.816Z-0.635
X54.881Y39.819Z-0.635
X54.866Y39.825Z-0.635
X54.857Y39.828Z-0.635
X54.844Y39.833Z-0.636
X54.833Y39.837Z-0.636
X54.823Y39.84Z-0.637
X54.808Y39.846Z-0.637
X54.801Y39.848Z-0.638
X54.783Y39.853Z-0.638
X54.779Y39.854Z-0.638
X54.756Y39.861Z-0.639
X54.732Y39.868Z-0.639
X54.71Y39.873Z-0.64
X54.705Y39.874Z-0.64
X54.687Y39.878Z-0.641
X54.678Y39.88Z-0.641
X54.663Y39.883Z-0.641
X54.651Y39.885Z-0.642
X54.639Y39.887Z-0.642
X54.623Y39.89Z-0.642
X54.614Y39.891Z-0.643
X54.595Y39.894Z-0.643
X54.59Y39.895Z-0.643
X54.416Y39.878Z-0.677
X54.42Y39.613Z-0.598
X54.417Y39.609
X54.42Y39.413
X54.417Y39.409
X54.419Y39.287Z-0.599
X54.406Y39.209Z-0.586
X54.418Y39.187Z-0.598
X54.419Y39.087Z-0.599
X54.406Y39.009Z-0.586
X54.432Y38.962
X54.408Y38.822Z-0.589
X54.436Y38.762Z-0.583
X54.402Y38.635
X54.436Y38.562
X54.402Y38.435
X54.462Y38.304Z-0.642
X54.295Y38.235Z-0.475
X54.324Y38.237Z-0.504F150
X54.352Y38.244Z-0.532
X54.378Y38.253Z-0.558
X54.405Y38.265Z-0.585
X54.432Y38.282Z-0.613
X54.462Y38.304Z-0.642
G0Z2
X53.515Y38.282
G1Z-0.461
X53.472Y38.351Z-0.542
X53.447Y38.397Z-0.595
X53.442Y38.407Z-0.605
X53.439Y38.412Z-0.608F300
X53.418Y38.454Z-0.609
X53.4Y38.493Z-0.609
X53.384Y38.534Z-0.609
X53.369Y38.575Z-0.61
X53.355Y38.617Z-0.611
X53.34Y38.671Z-0.611
X53.323Y38.75Z-0.613
X53.314Y38.811Z-0.614
X53.309Y38.857Z-0.615
X53.307Y38.895Z-0.615
X53.306Y38.933Z-0.616
X53.306Y38.958Z-0.616
X53.306Y38.991Z-0.617
X53.306Y38.995Z-0.617
X53.307Y39.016Z-0.617
X53.307Y39.019Z-0.618
X53.309Y39.043Z-0.618
X53.311Y39.066Z-0.619
X53.314Y39.091Z-0.619
X53.317Y39.113Z-0.62
X53.317Y39.115Z-0.62
X53.321Y39.136Z-0.621
X53.321Y39.139Z-0.62
X53.325Y39.159Z-0.621
X53.326Y39.163Z-0.621
X53.33Y39.181Z-0.622
X53.331Y39.186Z-0.622
X53.336Y39.204Z-0.622
X53.337Y39.21Z-0.622
X53.341Y39.226Z-0.623
X53.343Y39.232Z-0.623
X53.348Y39.248Z-0.624
X53.35Y39.255Z-0.624
X53.355Y39.27Z-0.625
X53.357Y39.277Z-0.625
X53.362Y39.291Z-0.625
X53.365Y39.299Z-0.625
X53.37Y39.313Z-0.626
X53.373Y39.321Z-0.626
X53.379Y39.334Z-0.627
X53.382Y39.342Z-0.627
X53.388Y39.355Z-0.627
X53.391Y39.363Z-0.628
X53.398Y39.376Z-0.628
X53.401Y39.383Z-0.628
X53.408Y39.396Z-0.629
X53.411Y39.404Z-0.629
X53.418Y39.416Z-0.63
X53.422Y39.423Z-0.63
X53.43Y39.436Z-0.631
X53.433Y39.443Z-0.631
X53.441Y39.455Z-0.631
X53.445Y39.462Z-0.632
X53.453Y39.474Z-0.632
X53.457Y39.481Z-0.632
X53.466Y39.493Z-0.633
X53.47Y39.499Z-0.633
X53.479Y39.512Z-0.634
X53.483Y39.517Z-0.634
X53.493Y39.53Z-0.635
X53.496Y39.535Z-0.635
X53.507Y39.548Z-0.635
X53.51Y39.552Z-0.635
X53.522Y39.565Z-0.636
X53.525Y39.569Z-0.636
X53.537Y39.583Z-0.637
X53.54Y39.586Z-0.637
X53.553Y39.599Z-0.638
X53.555Y39.602Z-0.638
X53.569Y39.616Z-0.638
X53.571Y39.618Z-0.638
X53.587Y39.633Z-0.639
X53.604Y39.648Z-0.64
X53.621Y39.663Z-0.64
X53.638Y39.678Z-0.641
X53.656Y39.691Z-0.642
X53.675Y39.705Z-0.642
X53.694Y39.719Z-0.643
X53.714Y39.732Z-0.644
X53.734Y39.744Z-0.644
X53.754Y39.756Z-0.645
X53.775Y39.768Z-0.645
X53.796Y39.779Z-0.646
X53.818Y39.789Z-0.646
X53.839Y39.8Z-0.646
X53.862Y39.809Z-0.647
X53.884Y39.819Z-0.647
X53.908Y39.828Z-0.648
X53.932Y39.836Z-0.648
X53.953Y39.843Z-0.648
X53.956Y39.845Z-0.648
X53.977Y39.851Z-0.649
X53.982Y39.852Z-0.649
X54.001Y39.857Z-0.649
X54.007Y39.859Z-0.649
X54.025Y39.864Z-0.649
X54.033Y39.866Z-0.649
X54.05Y39.87Z-0.65
X54.06Y39.872Z-0.649
X54.075Y39.875Z-0.65
X54.087Y39.878Z-0.65
X54.1Y39.88Z-0.65
X54.114Y39.883Z-0.65
X54.125Y39.884Z-0.65
X54.142Y39.888Z-0.65
X54.151Y39.888Z-0.651
X54.171Y39.892Z-0.65
X54.177Y39.892Z-0.651
X54.2Y39.895Z-0.651
X54.203Y39.895Z-0.651
X54.23Y39.898Z-0.651
X54.256Y39.9Z-0.651
X54.26Y39.9Z-0.651
X54.291Y39.901Z-0.652
X54.322Y39.9Z-0.655
X54.354Y39.895Z-0.66
X54.385Y39.888Z-0.667
X54.416Y39.878Z-0.677
X54.446Y39.887Z-0.666
X54.477Y39.894Z-0.657
X54.507Y39.898Z-0.651
X54.537Y39.899Z-0.646
X54.566Y39.898Z-0.644
X54.59Y39.895Z-0.643
G0Z2
X54.42Y39.613
G1Z-0.598F150
X54.559Y39.613Z-0.46F300
X54.59Y39.895Z-0.643F150
G0Z2
X53.4Y40.863
G1Z-0.655
X53.844F300
X53.904Y40.875Z-0.643
X53.983Y40.851
X54.018Y40.858Z-0.65
X54.132Y40.873Z-0.645
X54.183Y40.853
X54.332Y40.873
X54.383Y40.853
X54.532Y40.873
X54.583Y40.853
X54.643Y40.861Z-0.653
X54.665Y40.863Z-0.655
X54.687Y40.864Z-0.655
X54.696Y40.863Z-0.655
X54.709Y40.864Z-0.656
X54.721Y40.864Z-0.656
X54.73Y40.865Z-0.656
X54.746Y40.865Z-0.656
X54.751Y40.865Z-0.656
X54.793Y40.868Z-0.657
X54.812Y40.869Z-0.657
X54.816Y40.87Z-0.657
X54.832Y40.871Z-0.657
X54.839Y40.872Z-0.657
X54.852Y40.873Z-0.658
X54.861Y40.874Z-0.658
X54.872Y40.876Z-0.658
X54.883Y40.877Z-0.658
X54.891Y40.878Z-0.658
X54.904Y40.88Z-0.658
X54.91Y40.881Z-0.659
X54.924Y40.883Z-0.659
X54.929Y40.884Z-0.659
X54.944Y40.886Z-0.659
X54.985Y40.895Z-0.66
X55.021Y40.904Z-0.661
X55.053Y40.913Z-0.662
X55.085Y40.924Z-0.662
X55.1Y40.929Z-0.663
X55.115Y40.935Z-0.663
X55.129Y40.941Z-0.664
X55.157Y40.955Z-0.664
X55.168Y40.96Z-0.665
X55.181Y40.967Z-0.665
X55.205Y40.981Z-0.665
X55.214Y40.987Z-0.665
X55.235Y41.002Z-0.666
X55.244Y41.009Z-0.665
X55.263Y41.024Z-0.665
X55.271Y41.031Z-0.665
X55.287Y41.046Z-0.665
X55.302Y41.063Z-0.664
X55.31Y41.071Z-0.663
X55.325Y41.091Z-0.662
X55.33Y41.098Z-0.661
X55.343Y41.117Z-0.66
X55.355Y41.137Z-0.658
X55.367Y41.159Z-0.656
X55.378Y41.185Z-0.653
X55.383Y41.196Z-0.652
X55.388Y41.209Z-0.651
X55.393Y41.223Z-0.65
X55.397Y41.237Z-0.648
X55.406Y41.269Z-0.645
X55.413Y41.3Z-0.642
X55.418Y41.337Z-0.639
X55.421Y41.354Z-0.638
X55.422Y41.372Z-0.636
X55.424Y41.399Z-0.634
X55.425Y41.434Z-0.632
X55.424Y41.468Z-0.629
X55.422Y41.502Z-0.626
X55.415Y41.557Z-0.621
X55.408Y41.59Z-0.617
X55.401Y41.623Z-0.614
X55.394Y41.645Z-0.611
X55.376Y41.7Z-0.605
X55.367Y41.721Z-0.603
X55.358Y41.743Z-0.601
X55.348Y41.765Z-0.599
X55.331Y41.797Z-0.595
X55.313Y41.83Z-0.592
X55.286Y41.873Z-0.589
X55.257Y41.915Z-0.586
X55.226Y41.956Z-0.583
X55.193Y41.996Z-0.581
X55.157Y42.037Z-0.579
X55.139Y42.057Z-0.578
X55.252Y42.169Z-0.474
X55.25Y42.187Z-0.493F150
X55.256Y42.342Z-0.648
X55.327Y42.354Z-0.639F300
X55.356Y42.344Z-0.649
X55.456Y42.339Z-0.652
X55.527Y42.35Z-0.643
X55.596Y42.326Z-0.644
X55.727Y42.347Z-0.646
X55.79Y42.325
X55.927Y42.347
X55.958Y42.336Z-0.657
X56.058
X56.127Y42.347Z-0.646
X56.158Y42.336Z-0.657
X56.429
X56.527Y42.236Z-0.557
X56.429Y42.336Z-0.657F150
X56.527Y42.436Z-0.557F300
G0Z2
X55.38Y43.217
G1Z-0.619F150
X55.48Y43.158Z-0.519F300
X55.28
X55.38Y43.217Z-0.619F150
G0Z2
Y43.879
G1Z-0.703
Y43.594Z-0.619F300
Y43.476
X55.389Y43.394Z-0.609
X55.371Y43.358
X55.38Y43.276Z-0.619
Y43.217
G0Z2
Y43.879
G1Z-0.703F150
X55.627Z-0.638F300
X55.639Y43.873Z-0.638
X55.768Y43.873Z-0.636
X55.828Y43.883Z-0.622
X55.897Y43.854Z-0.619
X55.957Y43.864Z-0.629
X56.027Y43.864Z-0.627
X56.033Y43.858Z-0.623
X56.097Y43.758Z-0.523
X56.027Y43.864Z-0.627F150
X56.093Y43.958Z-0.53F300
G0Z2
X55.367Y43.89
G1Z-0.704F150
X55.38Y43.879Z-0.703F300
G0Z2
X55.369Y44.36
G1Z-0.534F150
X55.379Y44.341Z-0.553
X55.373Y44.26Z-0.612
X55.375Y44.24Z-0.613F300
X55.375Y44.16Z-0.614
X55.384Y44.141Z-0.609
X55.367Y43.89Z-0.704
G0Z2
X55.044Y42.309
G1Z-0.684F150
X55.046Y42.277Z-0.662F300
X55.048Y42.256Z-0.649
X55.051Y42.236Z-0.636
X55.054Y42.218Z-0.626
X55.058Y42.2Z-0.616
X55.063Y42.183Z-0.607
X55.068Y42.167Z-0.6
X55.074Y42.152Z-0.594
X55.08Y42.138Z-0.589
X55.087Y42.124Z-0.584
X55.094Y42.111Z-0.581
X55.102Y42.099Z-0.579
X55.111Y42.088Z-0.577
X55.12Y42.077Z-0.577
X55.129Y42.067Z-0.577
X55.25Y42.187Z-0.493
G0Z2
X55.044Y42.309
G1Z-0.684F150
X55.127Y42.349Z-0.644F300
X55.256Y42.342Z-0.648
G0Z2
X53.402Y42.336
G1Z-0.657F150
X53.851F300
X53.904Y42.348Z-0.645
X53.951Y42.336Z-0.657
X54.051
X54.104Y42.348Z-0.645
X54.198Y42.323
X54.304Y42.348Z-0.645
X54.398Y42.323Z-0.645
X54.504Y42.348
X54.598Y42.323
X54.704Y42.348
X54.798Y42.323
X54.904Y42.348
X55.016Y42.319Z-0.674
X55.044Y42.309Z-0.684
G0Z2
X53.304Y42.236
G1Z-0.557F150
X53.402Y42.336Z-0.657
X53.304Y42.436Z-0.557F300
X53.402Y42.336Z-0.657F150
G0Z2
X53.284Y43.009
G1Z-0.466
X53.283Y43.015Z-0.472
X53.282Y43.029Z-0.486
X53.282Y43.042Z-0.499
X53.284Y43.057Z-0.512
X53.287Y43.072Z-0.526
X53.292Y43.087Z-0.54
X53.299Y43.103Z-0.553
X53.307Y43.119Z-0.567
X53.316Y43.135Z-0.58
X53.328Y43.152Z-0.593
X53.339Y43.167Z-0.605
X53.349Y43.158Z-0.594F300
X53.372Y43.149Z-0.579
X53.393Y43.139Z-0.564
X53.411Y43.129Z-0.55
X53.427Y43.119Z-0.536
X53.44Y43.108Z-0.523
X53.452Y43.097Z-0.509
X53.461Y43.086Z-0.496
X53.469Y43.075Z-0.483
X53.475Y43.063Z-0.47
X53.479Y43.055Z-0.462
X53.339Y43.167Z-0.605F150
X53.337Y43.172Z-0.61
X53.318Y43.263Z-0.612F300
X53.311Y43.33Z-0.615
X53.309Y43.382Z-0.619
X53.31Y43.421Z-0.621
X53.311Y43.433Z-0.622
X53.312Y43.448Z-0.623
X53.312Y43.453Z-0.623
X53.314Y43.462Z-0.624
X53.315Y43.472Z-0.624
X53.316Y43.477Z-0.625
X53.32Y43.507Z-0.627
X53.323Y43.524Z-0.629
X53.327Y43.54Z-0.63
X53.331Y43.556Z-0.632
X53.335Y43.57Z-0.634
X53.34Y43.585Z-0.635
X53.345Y43.598Z-0.637
X53.35Y43.611Z-0.638
X53.36Y43.636Z-0.641
X53.371Y43.658Z-0.644
X53.383Y43.678Z-0.646
X53.395Y43.696Z-0.648
X53.408Y43.714Z-0.65
X53.42Y43.728Z-0.652
X53.433Y43.743Z-0.653
X53.454Y43.762Z-0.655
X53.469Y43.775Z-0.656
X53.485Y43.787Z-0.656
X53.502Y43.798Z-0.657
X53.53Y43.814Z-0.657
X53.55Y43.824Z-0.657
X53.572Y43.834Z-0.657
X53.596Y43.843Z-0.656
X53.621Y43.852Z-0.656
X53.648Y43.859Z-0.656
X53.676Y43.866Z-0.656
X53.706Y43.873Z-0.655
X53.737Y43.878Z-0.655
X53.788Y43.884Z-0.655
X53.805Y43.886Z-0.655
X53.823Y43.887Z-0.655
X53.878Y43.89Z-0.655
X53.897Y43.89Z-0.655
X53.917Y43.89Z-0.655
X54.014Y43.887Z-0.652
X54.027Y43.893
X54.214Y43.887
X54.227Y43.893
X54.367Y43.889Z-0.654
X54.427Y43.903Z-0.642
X54.467Y43.892Z-0.653
X54.567Y43.889Z-0.654
X54.574Y43.89Z-0.655
X54.674
X54.721Y43.877Z-0.642
X54.774Y43.89Z-0.655
X55.121
X55.367Z-0.704
G0Z2
X53.304Y40.963
G1Z-0.555F150
X53.4Y40.863Z-0.655
X53.304Y40.763Z-0.555F300
X53.4Y40.863Z-0.655F150
G0Z2
X53.304Y37.444
G1Z-0.557
X53.402Y37.344Z-0.657
X53.855F300
X53.904Y37.357Z-0.645
X54.005Y37.331
X54.104Y37.357
X54.205Y37.331
X54.304Y37.357Z-0.645
X54.405Y37.331Z-0.645
X54.472Y37.348Z-0.653
X54.605Y37.337Z-0.65
X54.639Y37.351
X54.792Y37.338Z-0.663
X54.816Y37.337Z-0.664
X54.839Y37.337Z-0.664
X54.86Y37.328Z-0.673
X54.88Y37.32Z-0.681
X54.901Y37.313Z-0.688
X54.917Y37.309Z-0.693
G0Z2
X53.304Y37.244
G1Z-0.557F150
X53.402Y37.344Z-0.657
G0Z2
X54.295Y34.185
G1Z-0.475
X54.321Y34.187Z-0.501
X54.349Y34.192Z-0.529
X54.378Y34.202Z-0.558
X54.405Y34.215Z-0.585
X54.432Y34.232Z-0.613
X54.462Y34.254Z-0.642
G0Z2
 
