(Created with grbl post processor 2023/09/09 13:12)
G21
(G-code generated with BlenderCAM and NC library)
G17G90
(Tool: D = 6.0 mm  type VCARVE flutes 4)
S12000M03
G00 Z2.0

G0X0Y0Z2
X50.229Y-1.267
G1Z-0.1F150
X50.729Y-0.767Z-0.6
X51.229Y-1.267Z-0.1F300
G0Z2
X52.029
G1Z-0.1F150
X52.529Y-0.767Z-0.6
X53.029Y-1.267Z-0.1F300
G0Z2
X53.829
G1Z-0.1F150
X54.329Y-0.767Z-0.6
X54.829Y-1.267Z-0.1F300
G0Z2
X55.629
G1Z-0.1F150
X56.129Y-0.767Z-0.599
X56.629Y-1.267Z-0.1F300
G0Z2
X57.429
G1Z-0.1F150
X57.929Y-0.767Z-0.599
X58.429Y-1.267Z-0.1F300
G0Z2
X56.126Y5.547
G1Z-0.457F150
X56.126Y5.545Z-0.46
X56.132Y5.391Z-0.597
X56.126Y5.345Z-0.597F300
X56.132Y5.191
X56.126Y5.145
X56.132Y4.991
X56.126Y4.945Z-0.597
X56.132Y4.791
X56.126Y4.745Z-0.597
X56.132Y4.591
X56.126Y4.545
X56.132Y4.391
X56.126Y4.345
X56.132Y4.191
X56.126Y4.145
X56.132Y3.991
X56.126Y3.945
X56.132Y3.791
X56.126Y3.745
X56.132Y3.591
X56.126Y3.545
X56.132Y3.391
X56.126Y3.345
X56.132Y3.191
X56.126Y3.145
X56.132Y2.991
X56.126Y2.945
X56.132Y2.791
X56.126Y2.745
X56.132Y2.591
X56.126Y2.545
X56.129Y2.462Z-0.599
X56.129Y2.439Z-0.599
Y2.362
X56.126Y2.339Z-0.597
X56.129Y2.262Z-0.599
X56.129Y2.239Z-0.599
Y-0.767
G0Z2
X54.33Y5.08
G1Z-0.599F150
X54.455Y5.244Z-0.451F300
X54.551Y5.444Z-0.261
X54.589Y5.644Z-0.066
G0Z2
X53.975Y5.626
G1Z-0.075F150
X54.034Y5.426Z-0.268
X54.172Y5.226Z-0.443
X54.33Y5.08Z-0.599
X54.33Y5.044Z-0.598F300
X54.327Y5.026
X54.33Y4.844
X54.327Y4.826Z-0.598
X54.33Y4.644
X54.327Y4.626Z-0.598
X54.33Y4.444
X54.327Y4.426
X54.33Y4.244
X54.327Y4.226Z-0.598
X54.33Y4.044
X54.327Y4.026Z-0.598
X54.33Y3.844
X54.327Y3.826
X54.33Y3.644
X54.327Y3.626Z-0.598
X54.33Y3.444
X54.327Y3.426
X54.33Y3.244
X54.327Y3.226
X54.33Y3.044
X54.327Y3.026
X54.33Y2.844
X54.327Y2.826
X54.33Y2.644
X54.327Y2.626
X54.33Y2.444
X54.327Y2.426
X54.329Y2.288Z-0.599
X54.325Y2.226Z-0.595
X54.333Y2.132
X54.329Y2.079Z-0.6
Y-0.767
G0Z2
X52.529Y5.342
G1Z-0.599F150
X52.528Y5.293Z-0.599F300
X52.529Y5.289
X52.528Y5.093
X52.529Y5.089
X52.528Y4.893
X52.529Y4.889
X52.528Y4.693
X52.529Y4.689
X52.528Y4.493
X52.529Y4.489
X52.528Y4.293
X52.529Y4.289
X52.528Y4.093
X52.529Y4.089
X52.528Y3.893
X52.529Y3.889
X52.528Y3.693
X52.529Y3.689
X52.528Y3.493
X52.529Y3.489
X52.528Y3.293
X52.529Y3.289
X52.528Y3.093
X52.529Y3.089
X52.528Y2.893
X52.529Y2.889
X52.528Y2.693
X52.529Y2.689
X52.528Y2.512Z-0.599
X52.532Y2.489Z-0.597
X52.526Y2.332
X52.532Y2.289
X52.526Y2.132
X52.529Y2.111Z-0.6
X52.529Y-0.767
G0Z2
X52.529Y5.342
G1Z-0.599F150
X52.54Y5.352Z-0.589F300
X52.994Y5.689Z-0.134
G0Z2
X51.986Y6.093
G1Z-0.057F150
X52.111Y5.893Z-0.182F300
X52.138Y5.878Z-0.202F150
X52.265Y5.693Z-0.336
X52.286Y5.676Z-0.352
X52.415Y5.493Z-0.486
X52.434Y5.475Z-0.501
X52.529Y5.342Z-0.599
G0Z2
X50.728Y6.172
G1Z-0.599
X50.729Y6.013Z-0.599F300
X50.728Y6.008
X50.729Y5.813
X50.728Y5.808
X50.729Y5.613
X50.728Y5.608
X50.729Y5.413
X50.728Y5.408
X50.729Y5.213
X50.728Y5.208
X50.729Y5.013
X50.728Y5.008
X50.729Y4.813
X50.728Y4.808
X50.729Y4.613
X50.728Y4.608
X50.729Y4.413
X50.728Y4.408
X50.729Y4.213
X50.728Y4.208
X50.729Y4.013
X50.728Y4.008
X50.729Y3.813
X50.728Y3.808
X50.729Y3.613
X50.728Y3.608
X50.729Y3.413
X50.728Y3.408
X50.729Y3.27Z-0.599
X50.733Y3.213Z-0.595
X50.728Y3.17Z-0.599
X50.729Y3.07Z-0.599
X50.733Y3.013Z-0.595
X50.725Y2.932
X50.733Y2.813
X50.725Y2.732
X50.733Y2.613
X50.725Y2.532
X50.729Y2.473Z-0.6
Y-0.767
G0Z2
X50.728Y6.172
G1Z-0.599F150
X50.837Y6.213Z-0.491F300
X51.152Y6.413Z-0.171
G0Z2
X50.208Y7.408
G1Z-0.001F150
X50.211Y7.208Z-0.082F300
X50.287Y7.147Z-0.128
X50.32Y7.008Z-0.191
X50.377Y6.942Z-0.229
X50.419Y6.808Z-0.29
X50.47Y6.74Z-0.327
X50.516Y6.608Z-0.387
X50.532Y6.584Z-0.403
X50.606Y6.442Z-0.47
X50.615Y6.408Z-0.486
X50.7Y6.242Z-0.566
X50.71Y6.208Z-0.581
X50.728Y6.172Z-0.599
G0Z2
X56.019Y5.745
G1Z-0.238F150
X56.126Y5.547Z-0.457
X56.201Y5.591Z-0.437F300
X56.43Y5.791Z-0.298
X56.548Y5.991Z-0.179
X56.553Y6.191Z-0.005
G0Z2
X57.387Y6.512
G1Z-0.058F150
X57.557Y6.505Z-0.225
X57.926Y6.324Z-0.596
X57.925Y6.312Z-0.596F300
X57.933Y6.232
X57.925Y6.112
X57.933Y6.032
X57.925Y5.912
X57.933Y5.832
X57.925Y5.712
X57.933Y5.632
X57.925Y5.512
X57.933Y5.432
X57.925Y5.312
X57.933Y5.232Z-0.596
X57.925Y5.112Z-0.596
X57.933Y5.032
X57.925Y4.912
X57.933Y4.832
X57.925Y4.712
X57.933Y4.632
X57.925Y4.512
X57.933Y4.432
X57.925Y4.312
X57.933Y4.232
X57.925Y4.112Z-0.596
X57.933Y4.032Z-0.596
X57.925Y3.912
X57.933Y3.832
X57.925Y3.712
X57.933Y3.632
X57.925Y3.512
X57.933Y3.432
X57.925Y3.312
X57.933Y3.232
X57.925Y3.112
X57.928Y3.082Z-0.598
X57.93Y2.932Z-0.598
X57.927Y2.912
X57.93Y2.732
X57.929Y2.722Z-0.599
Y-0.767
G0Z2
X57.926Y6.324
G1Z-0.596F150
X57.938Y6.356Z-0.582F300
X57.985Y6.432Z-0.544
X58.032Y6.557Z-0.487
X58.08Y6.632Z-0.448
X58.105Y6.7Z-0.422
X58.17Y6.832Z-0.358
X58.173Y6.848Z-0.351
X58.265Y7.032Z-0.263
X58.267Y7.049Z-0.255
X58.361Y7.232Z-0.167
X58.348Y7.432Z-0.05
G0Z2
X50.208Y49.495
G1Z-0.001F150
X50.211Y49.695Z-0.082F300
X50.287Y49.755Z-0.128
X50.32Y49.895Z-0.191
X50.377Y49.96Z-0.229
X50.419Y50.095Z-0.29
X50.437Y50.119Z-0.308F150
X50.512Y50.259Z-0.375F300
X50.52Y50.295Z-0.391
X50.606Y50.46Z-0.47
X50.615Y50.495Z-0.486
X50.7Y50.661Z-0.566
X50.71Y50.695Z-0.581
X50.728Y50.73Z-0.599
X50.837Y50.689Z-0.491
X51.152Y50.489Z-0.171
G0Z2
X51.986Y50.81
G1Z-0.057F150
X52.111Y51.01Z-0.182F300
X52.138Y51.025Z-0.202F150
X52.265Y51.21Z-0.336
X52.286Y51.227Z-0.352
X52.415Y51.41Z-0.486
X52.434Y51.427Z-0.501
X52.529Y51.56Z-0.599
X52.54Y51.551Z-0.589F300
X52.994Y51.214Z-0.134
G0Z2
X53.975Y51.277
G1Z-0.075F150
X54.034Y51.477Z-0.268
X54.172Y51.677Z-0.443
X54.33Y51.822Z-0.599
X54.455Y51.659Z-0.451F300
X54.551Y51.459Z-0.261
X54.589Y51.259Z-0.066
G0Z2
X56.019Y51.158
G1Z-0.238F150
X56.126Y51.355Z-0.457
X56.201Y51.311Z-0.437F300
X56.43Y51.111Z-0.298
X56.548Y50.911Z-0.179
X56.553Y50.711Z-0.005
G0Z2
X57.387Y50.39
G1Z-0.058F150
X57.557Y50.397Z-0.225
X57.926Y50.578Z-0.596
X57.938Y50.546Z-0.582F300
X57.984Y50.47Z-0.544
X58.032Y50.346Z-0.487
X58.08Y50.27Z-0.448
X58.105Y50.203Z-0.422
X58.17Y50.07Z-0.358
X58.173Y50.054Z-0.351
X58.265Y49.87Z-0.263
X58.267Y49.854Z-0.255
X58.361Y49.67Z-0.167
X58.348Y49.47Z-0.05
G0Z2
X57.929Y57.67
G1Z-0.599F150
X58.429Y58.17Z-0.1F300
G0Z2
X57.929Y57.67
G1Z-0.599F150
Y54.18F300
X57.93Y54.17Z-0.598
X57.927Y53.99
X57.93Y53.97
X57.928Y53.82Z-0.598
X57.925Y53.79Z-0.596
X57.933Y53.67Z-0.596
X57.925Y53.59
X57.933Y53.47
X57.925Y53.39
X57.933Y53.27
X57.925Y53.19
X57.933Y53.07
X57.925Y52.99
X57.933Y52.87
X57.925Y52.79
X57.933Y52.67Z-0.596
X57.925Y52.59Z-0.596
X57.933Y52.47
X57.925Y52.39
X57.933Y52.27
X57.925Y52.19
X57.933Y52.07
X57.925Y51.99
X57.933Y51.87
X57.925Y51.79
X57.933Y51.67
X57.925Y51.59
X57.933Y51.47
X57.925Y51.39Z-0.596
X57.933Y51.27Z-0.596
X57.925Y51.19
X57.933Y51.07
X57.925Y50.99
X57.933Y50.87
X57.925Y50.79
X57.933Y50.67
X57.925Y50.59
X57.926Y50.578Z-0.596
G0Z2
X56.129Y57.67
G1Z-0.599F150
X56.629Y58.17Z-0.1F300
G0Z2
X56.129Y57.67
G1Z-0.599F150
Y54.664F300
X56.129Y54.641Z-0.599
X56.126Y54.564Z-0.597
X56.129Y54.541Z-0.599
Y54.464
X56.129Y54.441Z-0.599
X56.126Y54.358Z-0.597
X56.132Y54.311
X56.126Y54.158
X56.132Y54.111
X56.126Y53.958
X56.132Y53.911Z-0.597
X56.126Y53.758Z-0.597
X56.132Y53.711
X56.126Y53.558
X56.132Y53.511
X56.126Y53.358
X56.132Y53.311
X56.126Y53.158
X56.132Y53.111
X56.126Y52.958
X56.132Y52.911
X56.126Y52.758
X56.132Y52.711
X56.126Y52.558
X56.132Y52.511
X56.126Y52.358
X56.132Y52.311
X56.126Y52.158Z-0.597
X56.132Y52.111Z-0.597
X56.126Y51.958
X56.132Y51.911
X56.126Y51.758
X56.132Y51.711Z-0.597
X56.126Y51.558Z-0.597
X56.132Y51.511
X56.126Y51.358Z-0.46
X56.126Y51.355Z-0.457
G0Z2
X54.329Y57.67
G1Z-0.6F150
Y54.814F300
X54.325Y54.77Z-0.595
X54.333Y54.659
X54.33Y54.623Z-0.599
X54.327Y54.477Z-0.598
X54.33Y54.459
X54.327Y54.277Z-0.598
X54.33Y54.259
X54.327Y54.077
X54.33Y54.059
X54.327Y53.877
X54.33Y53.859
X54.327Y53.677
X54.33Y53.659
X54.327Y53.477
X54.33Y53.459
X54.327Y53.277
X54.33Y53.259
X54.327Y53.077
X54.33Y53.059
X54.327Y52.877
X54.33Y52.859
X54.327Y52.677
X54.33Y52.659
X54.327Y52.477
X54.33Y52.459
X54.327Y52.277Z-0.598
X54.33Y52.259
X54.327Y52.077Z-0.598
X54.33Y52.059
X54.327Y51.877
X54.33Y51.859
X54.33Y51.822Z-0.599
G0Z2
X54.329Y57.67
G1Z-0.6F150
X54.829Y58.17Z-0.1F300
G0Z2
X55.629
G1Z-0.1F150
X56.129Y57.67Z-0.599
G0Z2
X57.429Y58.17
G1Z-0.1
X57.929Y57.67Z-0.599
G0Z2
X53.829Y58.17
G1Z-0.1
X54.329Y57.67Z-0.6
G0Z2
X52.529
G1Z-0.6
X53.029Y58.17Z-0.1F300
G0Z2
X52.529Y57.67
G1Z-0.6F150
Y54.792F300
X52.526Y54.77Z-0.597
X52.532Y54.614
X52.526Y54.57
X52.532Y54.414Z-0.597
X52.528Y54.39Z-0.599
X52.529Y54.214Z-0.599
X52.528Y54.21Z-0.599
X52.529Y54.014
X52.528Y54.01
X52.529Y53.814
X52.528Y53.81
X52.529Y53.614
X52.528Y53.61
X52.529Y53.414
X52.528Y53.41
X52.529Y53.214
X52.528Y53.21
X52.529Y53.014
X52.528Y53.01
X52.529Y52.814
X52.528Y52.81
X52.529Y52.614
X52.528Y52.61
X52.529Y52.414
X52.528Y52.41
X52.529Y52.214
X52.528Y52.21Z-0.599
X52.529Y52.014
X52.528Y52.01
X52.529Y51.814
X52.528Y51.81Z-0.599
X52.529Y51.614
X52.528Y51.61
X52.529Y51.56Z-0.599
G0Z2
X50.729Y57.67
G1Z-0.6F150
X51.229Y58.17Z-0.1F300
G0Z2
X50.729Y57.67
G1Z-0.6F150
Y54.23F300
X50.725Y54.17Z-0.595
X50.733Y54.089
X50.729Y54.032Z-0.599
X50.728Y53.932Z-0.599
X50.733Y53.889Z-0.595
X50.729Y53.832Z-0.599
X50.728Y53.695Z-0.599
X50.729Y53.689Z-0.599
X50.728Y53.495
X50.729Y53.489
X50.728Y53.295
X50.729Y53.289
X50.728Y53.095
X50.729Y53.089
X50.728Y52.895
X50.729Y52.889Z-0.599
X50.728Y52.695
X50.729Y52.689
X50.728Y52.495
X50.729Y52.489
X50.728Y52.295
X50.729Y52.289
X50.728Y52.095
X50.729Y52.089
X50.728Y51.895
X50.729Y51.889
X50.728Y51.695
X50.729Y51.689
X50.728Y51.495
X50.729Y51.489Z-0.599
X50.728Y51.295
X50.729Y51.289
X50.728Y51.095
X50.729Y51.089
X50.728Y50.895
X50.729Y50.889
X50.728Y50.73Z-0.599
G0Z2
X50.229Y58.17
G1Z-0.1F150
X50.729Y57.67Z-0.6
G0Z2
X52.029Y58.17
G1Z-0.1
X52.529Y57.67Z-0.6
G0Z2
 
