(Created with grbl post processor 2023/09/09 00:28)
G21
(G-code generated with BlenderCAM and NC library)
G17G90
(Tool: D = 1.5 mm  type END flutes 2)
S12000M03
G00 Z10.0

G0X0Y0Z10
X37.99Y-1.001
G1Z-2.499F75
X0F150
X-0Y-1
G0Z10
Y57.8
G1Z-2.499F75
X0Y57.801F150
X37.99
G0Z10
 
