(Created with grbl post processor 2023/09/09 00:28)
G21
(G-code generated with BlenderCAM and NC library)
G17G90
(Tool: D = 1.5 mm  type END flutes 2)
S12000M03
G00 Z2.0

G0X0Y0Z2
X27.647Y27.75
G1Z-2F100
X36.708F200
Y28.923
X27.647Y28.923
Y27.75
X27.697Y27
X37.458
Y29.673
X26.897Y29.673
Y27
X27.697
X27.747Y26.25
X38.208
Y30.423
X26.147Y30.423
Y26.25
X27.747
X27.797Y25.5
X38.958
Y31.173
X25.397Y31.173
Y25.5
X27.797
X27.847Y24.75
X39.708
Y31.923
X24.647Y31.923
Y24.75
X27.847
X27.897Y24
X40.458
Y32.673
X23.897Y32.673
Y24
X27.897
X27.947Y23.25
X41.208
Y33.423
X23.147Y33.423
Y23.25
X27.947
X27.997Y22.5
X41.958
Y34.174
X22.397Y34.173
Y22.5
X27.997
X28.047Y21.75
X42.708
Y34.924
X21.647Y34.923
Y21.75
X28.047
X28.097Y21
X43.458
Y35.674
X20.897Y35.673
Y21
X28.097
X28.147Y20.25
X44.208
Y36.424
X20.147Y36.423
Y20.25
X28.147
X28.197Y19.5
X44.958
Y37.174
X19.397Y37.173
Y29.773
G0Z2
Y26.973
G1Z-2F100
Y19.5F200
X28.197
X28.247Y18.75
X45.708
Y37.924
X18.647Y37.923
Y30.723
G0Z2
Y26.123
G1Z-2F100
Y18.75F200
X28.247
X28.297Y18
X46.458
Y38.674
X17.897Y38.673
Y31.073
G0Z2
Y25.673
G1Z-2F100
Y18F200
X28.297
X28.347Y17.25
X47.208
Y39.424
X17.147Y39.423
Y31.223
G0Z2
Y25.623
G1Z-2F100
Y17.25F200
X28.347
X28.397Y16.5
X47.958
Y40.174
X16.397Y40.173
Y31.173
G0Z2
Y25.573
G1Z-2F100
Y16.5F200
X28.397
X28.447Y15.75
X48.708
Y40.924
X15.647Y40.923
Y30.923
G0Z2
Y25.923
G1Z-2F100
Y15.75F200
X28.447
X28.497Y15
X49.458
Y41.674
X14.897Y41.673
Y30.273
G0Z2
Y26.473
G1Z-2F100
Y15F200
X28.497
X28.547Y14.25
X50.208
Y42.424
X14.147Y42.423
Y14.25
X28.547
X28.597Y13.5
X50.958
Y43.174
X13.397Y43.173
X13.397Y13.5
X28.597
X28.647Y12.75
X51.708
Y43.924
X12.647Y43.923
Y12.75
X28.647
X28.697Y12
X52.458
Y44.674
X11.897Y44.673
Y12
X28.697
X28.747Y11.25
X53.208
Y45.424
X11.608Y45.423
G0Z2
X11.547Y11.25
G1Z-2F100
X28.747F200
X28.797Y10.5
X53.958
Y46.174
X11.558Y46.173
G0Z2
X11.597Y10.5
G1Z-2F100
X28.797F200
X28.847Y9.75
X54.708
Y46.924
X11.508Y46.923
G0Z2
X11.647Y9.75
G1Z-2F100
X28.847F200
X28.897Y9
X55.458
Y47.674
X11.658Y47.673
G0Z2
X11.497Y9
G1Z-2F100
X28.897F200
X28.947Y8.25
X56.208
Y48.424
X11.608Y48.423
G0Z2
X11.547Y8.25
G1Z-2F100
X28.947F200
X28.997Y7.5
X56.958
Y49.174
X11.558Y49.173
G0Z2
X11.597Y7.5
G1Z-2F100
X28.997F200
X29.047Y6.75
X57.708
Y49.924
X11.508Y49.923
G0Z2
X11.647Y6.75
G1Z-2F100
X29.047F200
X29.097Y6
X58.458
Y48.6
G0Z2
X11.497Y6
G1Z-2F100
X29.097F200
X29.147Y5.25
X59.208
Y48.25
G0Z2
X11.547Y5.25
G1Z-2F100
X29.147F200
X29.197Y4.5
X59.958
Y48.3
G0Z2
X11.597Y4.5
G1Z-2F100
X29.197F200
X29.247Y3.75
X60.708
Y48.15
Y48.35Z-0.002
G0Z2
X61.458Y51
G1Z-2F100
X61.457Y53.674F200
X61.057Y53.674
G0Z2
X62.208Y51.05
G1Z-2F100
X62.207Y54.424F200
X61.007Y54.424
G0Z2
X62.958Y51.1
G1Z-2F100
X62.957Y55.174F200
X61.041Y55.174
G0Z2
X58.258Y50.674
G1Z-2F100
X11.658Y50.673F200
G0Z2
X8.808Y48.423
G1Z-2F100
X8.147Y48.423F200
Y8.25
X8.747
G0Z2
X11.647Y3.75
G1Z-2F100
X29.247F200
G0Z2
X29.447Y0.75
G1Z-2F100
X63.708Y0.75F200
X63.707Y55.924
X60.441Y55.924
G0Z2
X58.208Y51.424
G1Z-2F100
X11.608Y51.423F200
G0Z2
X8.758Y49.173
G1Z-2F100
X7.397Y49.173F200
Y7.5
X8.797
G0Z2
X8.708Y49.923
G1Z-2F100
X6.647Y49.923F200
Y6.75
X8.647
G0Z2
X8.658Y50.673
G1Z-2F100
X5.897Y50.673F200
Y6
X8.697
G0Z2
X8.808Y51.423
G1Z-2F100
X5.147Y51.423F200
Y5.25
X8.747
G0Z2
X8.758Y52.173
G1Z-2F100
X4.397Y52.173F200
X4.397Y4.5
X8.797
G0Z2
X8.707Y52.923
G1Z-2F100
X3.647Y52.923F200
Y3.75
X8.647
G0Z2
X8.657Y53.673
G1Z-2F100
X2.897Y53.673F200
X2.897Y3
X8.697
G0Z2
X8.807Y54.423
G1Z-2F100
X2.147Y54.423F200
X2.147Y2.25
X8.747
G0Z2
X8.641Y55.173
G1Z-2F100
X1.397Y55.173F200
X1.397Y1.5
X8.797
G0Z2
X9.241Y55.923
G1Z-2F100
X0.647Y55.923F200
X0.647Y0.75
X29.447
G0Z2
X58.158Y52.174
G1Z-2F100
X11.558Y52.173F200
G0Z2
X58.307Y52.924
G1Z-2F100
X11.507Y52.923F200
G0Z2
X8.808Y48.423
G1Z-3.899F100
X8.147Y48.423F200
Y8.25Z-3.899
X8.747
G0Z2
X27.647Y27.75
G1Z-3.899F100
X36.708F200
Y28.923Z-3.899
X27.647Y28.923
Y27.75Z-3.899
X27.697Y27Z-3.899
X37.458
Y29.673Z-3.899
X26.897Y29.673
Y27Z-3.899
X27.697
X27.747Y26.25Z-3.899
X38.208
Y30.423Z-3.899
X26.147Y30.423
Y26.25Z-3.899
X27.747
X27.797Y25.5Z-3.899
X38.958
Y31.173Z-3.899
X25.397Y31.173
Y25.5Z-3.899
X27.797
X27.847Y24.75Z-3.899
X39.708
Y31.923Z-3.899
X24.647Y31.923
Y24.75Z-3.899
X27.847
X27.897Y24Z-3.899
X40.458
Y32.673Z-3.899
X23.897Y32.673Z-3.899
Y24Z-3.899
X27.897
X27.947Y23.25Z-3.899
X41.208
Y33.423Z-3.899
X23.147Y33.423
Y23.25Z-3.899
X27.947
X27.997Y22.5Z-3.899
X41.958
Y34.174Z-3.899
X22.397Y34.173
Y22.5Z-3.899
X27.997
X28.047Y21.75Z-3.899
X42.708
Y34.924Z-3.899
X21.647Y34.923
Y21.75Z-3.899
X28.047Z-3.899
X28.097Y21Z-3.899
X43.458
Y35.674Z-3.899
X20.897Y35.673
Y21Z-3.899
X28.097Z-3.899
X28.147Y20.25Z-3.899
X44.208
Y36.424Z-3.899
X20.147Y36.423Z-3.899
Y20.25Z-3.899
X28.147Z-3.899
X28.197Y19.5Z-3.899
X44.958
Y37.174Z-3.899
X19.397Y37.173Z-3.899
Y29.773Z-3.899
G0Z2
Y26.973
G1Z-3.899F100
Y19.5Z-3.899F200
X28.197
X28.247Y18.75Z-3.899
X45.708
Y37.924Z-3.899
X18.647Y37.923
Y30.723Z-3.899
G0Z2
Y26.123
G1Z-3.899F100
Y18.75Z-3.899F200
X28.247
X28.297Y18Z-3.899
X46.458
Y38.674Z-3.899
X17.897Y38.673
Y31.073Z-3.899
G0Z2
Y25.673
G1Z-3.899F100
Y18Z-3.899F200
X28.297
X28.347Y17.25Z-3.899
X47.208
Y39.424Z-3.899
X17.147Y39.423
Y31.223Z-3.899
G0Z2
Y25.623
G1Z-3.899F100
Y17.25Z-3.899F200
X28.347
X28.397Y16.5Z-3.899
X47.958
Y40.174Z-3.899
X16.397Y40.173
Y31.173Z-3.899
G0Z2
Y25.573
G1Z-3.899F100
Y16.5Z-3.899F200
X28.397
X28.447Y15.75Z-3.899
X48.708
Y40.924Z-3.899
X15.647Y40.923Z-3.899
Y30.923Z-3.899
G0Z2
Y25.923
G1Z-3.899F100
Y15.75Z-3.899F200
X28.447
X28.497Y15Z-3.899
X49.458
Y41.674Z-3.899
X14.897Y41.673Z-3.899
Y30.273Z-3.899
G0Z2
Y26.473
G1Z-3.899F100
Y15Z-3.899F200
X28.497
X28.547Y14.25Z-3.899
X50.208
Y42.424Z-3.899
X14.147Y42.423
Y14.25Z-3.899
X28.547
X28.597Y13.5Z-3.899
X50.958
Y43.174Z-3.899
X13.397Y43.173
X13.397Y13.5Z-3.899
X28.597
X28.647Y12.75Z-3.899
X51.708Z-3.899
Y43.924Z-3.899
X12.647Y43.923Z-3.899
Y12.75Z-3.899
X28.647Z-3.899
X28.697Y12Z-3.899
X52.458Z-3.899
Y44.674Z-3.899
X11.897Y44.673Z-3.899
Y12Z-3.899
X28.697Z-3.899
X28.747Y11.25Z-3.899
X53.208
Y45.424Z-3.899
X11.608Y45.423
G0Z2
X11.547Y11.25
G1Z-3.899F100
X28.747F200
X28.797Y10.5Z-3.899
X53.958
Y46.174Z-3.899
X11.558Y46.173
G0Z2
X11.597Y10.5
G1Z-3.899F100
X28.797F200
X28.847Y9.75Z-3.899
X54.708
Y46.924Z-3.899
X11.508Y46.923
G0Z2
X11.647Y9.75
G1Z-3.899F100
X28.847Z-3.899F200
X28.897Y9Z-3.899
X55.458
Y47.674Z-3.899
X11.658Y47.673
G0Z2
X11.497Y9
G1Z-3.899F100
X28.897Z-3.899F200
X28.947Y8.25Z-3.899
X56.208Z-3.899
Y48.424Z-3.899
X11.608Y48.423
G0Z2
X11.547Y8.25
G1Z-3.899F100
X28.947Z-3.899F200
X28.997Y7.5Z-3.899
X56.958
Y49.174Z-3.899
X11.558Y49.173Z-3.899
G0Z2
X11.597Y7.5
G1Z-3.899F100
X28.997F200
X29.047Y6.75Z-3.899
X57.708
Y49.924Z-3.899
X11.508Y49.923
G0Z2
X11.647Y6.75
G1Z-3.899F100
X29.047F200
X29.097Y6Z-3.899
X58.458
Y48.6Z-3.899
G0Z2
X11.497Y6
G1Z-3.899F100
X29.097F200
X29.147Y5.25Z-3.899
X59.208
Y48.25Z-3.899
G0Z2
X11.547Y5.25
G1Z-3.899F100
X29.147F200
X29.197Y4.5Z-3.899
X59.958
Y48.3Z-3.899
G0Z2
X11.597Y4.5
G1Z-3.899F100
X29.197F200
X29.247Y3.75Z-3.899
X60.708
Y48.15Z-3.899
Z-2
G0Z2
X61.458Y51
G1Z-3.195F100
X61.457Y53.674Z-3.188F200
X61.057Y53.674Z-3.188
G0Z2
X62.208Y51.05
G1Z-3.195F100
X62.207Y54.424Z-3.186F200
X61.207Y54.424Z-3.186
X61.007Y54.424Z-3.186
G0Z2
X62.958Y51.1
G1Z-3.192F100
Y51.9F200
X62.957Y55.174Z-3.183
X61.641Y55.174Z-3.184
X61.241Y55.174Z-3.184
X61.041Y55.174Z-3.185
G0Z2
X58.258Y50.674
G1Z-3.899F100
X11.658Y50.673Z-3.899F200
G0Z2
X8.758Y49.173
G1Z-3.899F100
X7.397Y49.173F200
Y7.5Z-3.899
X8.797
G0Z2
X11.647Y3.75
G1Z-3.899F100
X29.247F200
G0Z2
X29.447Y0.75
G1Z-3.179F100
X63.708Y0.75Z-3.186F200
X63.707Y54.302Z-3.186
X63.707Y55.924Z-3.181
X61.841Y55.924Z-3.182
X61.441Y55.924Z-3.182
X61.241Y55.924Z-3.183
X61.041Y55.924Z-3.185
X60.841Y55.924Z-3.186
X60.441Y55.924
G0Z2
X58.208Y51.424
G1Z-3.899F100
X11.608Y51.423F200
G0Z2
X8.708Y49.923
G1Z-3.899F100
X6.647Y49.923F200
Y6.75Z-3.899
X8.647
G0Z2
X8.658Y50.673
G1Z-3.899F100
X5.897Y50.673F200
Y6Z-3.899
X8.697
G0Z2
X8.808Y51.423
G1Z-3.899F100
X5.147Y51.423F200
Y5.25Z-3.899
X8.747
G0Z2
X8.758Y52.173
G1Z-3.899F100
X4.397Y52.173F200
X4.397Y4.5Z-3.899
X8.797
G0Z2
X8.707Y52.923
G1Z-3.899F100
X3.647Y52.923F200
Y3.75Z-3.899
X8.647
G0Z2
X8.657Y53.673
G1Z-3.899F100
X2.897Y53.673Z-3.899F200
X2.897Y3.273Z-3.899
Y3Z-3.899
X8.697Z-3.899
G0Z2
X8.807Y54.423
G1Z-3.899F100
X2.147Y54.423Z-3.898F200
Y53.423Z-3.899
X2.147Y3.223Z-3.899
Y2.25Z-3.898
X7.947Z-3.899
X8.147Z-3.197
X8.747Z-3.197
G0Z2
X8.641Y55.173
G1Z-3.182F100
X1.397Y55.173Z-3.179F200
Y54.973Z-3.182
Y54.773Z-3.897F100
Y53.773Z-3.899F200
X1.397Y2.973Z-3.899
Y1.973Z-3.897
Y1.773Z-3.183
Y1.573Z-3.179
Y1.5
X8.797Z-3.182
G0Z2
X9.241Y55.923
G1Z-3.179F100
X0.647Y55.923F200
Y55.123Z-3.179
Y54.923Z-3.897F100
X0.647Y2.123Z-3.897F200
Y1.923Z-3.897
Y1.723Z-3.182
Y1.523Z-3.179
X0.647Y0.75
X29.447Z-3.179
G0Z2
X58.158Y52.174
G1Z-3.899F100
X11.558Y52.173F200
G0Z2
X58.307Y52.924
G1Z-3.899F100
X11.507Y52.923F200
G0Z2
 
