(Created with grbl post processor 2023/09/09 17:13)
G21
(G-code generated with BlenderCAM and NC library)
G17G90
(Tool: D = 1.5 mm  type END flutes 2)
S12000M03
G00 Z2.0

G0X0Y0Z2
X8.757Y53.758
G1Z-2F100
X4.397Y53.758F200
G0Z2
X8.707Y54.508
G1Z-2F100
X3.647Y54.508F200
Y53.908
G0Z2
X8.657Y55.258
G1Z-2F100
X2.897Y55.258F200
Y53.858
G0Z2
X61.457Y53.902
G1Z-2F100
X61.457Y55.259F200
X61.057Y55.259
X62.207Y53.902
X62.207Y56.009
X2.147Y56.008
Y53.808
G0Z2
X62.957Y53.902
G1Z-2F100
X62.957Y56.759F200
X1.397Y56.758
Y53.758
G0Z2
X63.707Y53.902
G1Z-2F100
X63.707Y57.102F200
G0Z2
X64.457Y53.902
G1Z-2F100
X64.457Y57.102F200
G0Z2
X65.132Y53.902
G1Z-2F100
X65.132Y57.102F200
G0Z2
X66.043Y53.851
G1Z-2F100
Y57.051F200
G0Z2
X61.457Y53.902
G1Z-3.189F100
X61.457Y55.259Z-3.186F200
X61.057Y55.259Z-3.187
G0Z2
X8.757Y53.758
G1Z-3.899F100
X4.397Y53.758F200
G0Z2
X8.707Y54.508
G1Z-3.198F100
X8.507Y54.508Z-3.2F200
X8.307Y54.508Z-3.899F100
X3.647Y54.508Z-3.898F200
Y53.908Z-3.899
G0Z2
X8.657Y55.258
G1Z-3.195F100
X8.057Y55.258Z-3.195F200
X2.897Y55.258Z-3.185
Y54.858Z-3.186
Y54.658Z-3.898F100
Y53.858Z-3.899F200
G0Z2
X62.207Y53.902
G1Z-3.189F100
X62.207Y56.009Z-3.184F200
X61.407Y56.009Z-3.185
X61.007Y56.009Z-3.186
X60.407Y56.009Z-3.191
X6.007Y56.008Z-3.191
X2.147Y56.008Z-3.184
Y55.208Z-3.184
Y55.008Z-3.184
Y54.808Z-3.897F100
Y53.808Z-3.899F200
G0Z2
X62.957Y53.902
G1Z-3.189F100
X62.957Y56.759Z-3.183F200
X61.641Y56.759Z-3.183
X61.241Y56.759Z-3.184
X61.041Y56.759Z-3.185
X60.841Y56.759Z-3.187
X4.041Y56.758Z-3.187
X1.397Y56.758Z-3.182
Y55.358Z-3.182
Y54.958Z-3.183
Y54.758Z-3.897F100
Y53.758Z-3.899F200
G0Z2
X63.707Y53.902
G1Z-3.186F100
X63.707Y55.302Z-3.186F200
X63.707Y57.102Z-3.182
G0Z2
X64.457Y53.902
G1Z-3.179F100
X64.457Y57.102F200
G0Z2
X65.132Y53.902
G1Z-3.179F100
X65.132Y57.102F200
G0Z2
X66.043Y53.851
G1Z-4F100
Y57.051F200
G0Z2
Y53.851
G1Z-5.024F100
Y57.051F200
G0Z2
 
