(Created with grbl post processor 2023/09/09 00:28)
G21
(G-code generated with BlenderCAM and NC library)
G17G90
(Tool: D = 1.5 mm  type END flutes 2)
S12000M03
G00 Z2.0

G0X0Y0Z2
X4.759Y30.64
G1Z-0.199F75
Y26.24Z-0.199F150
G0Z2
Y30.64
G1Z-0.199F75
X4.079Y29.92Z-0.199F150
Y26.92Z-0.199
G0Z2
X3.399Y29.2
G1Z-0.199F75
X3.399Y27.6Z-0.199F150
X2.719Y28.68Z-0.199
X2.719Y28.28Z-0.199
G0Z2
X27.879Y27.923
G1Z-0.199F75
X36.62Y27.941F150
X36.62Y28.92Z-0.199
X27.879Y28.92
Y27.923Z-0.199
X27.199Y28Z-0.199
Y27.241Z-0.199
X37.3Y27.263Z-0.199
X37.3Y29.6Z-0.199
X27.199Y29.6
Y28Z-0.199
X26.519Y28.08Z-0.199
Y26.56Z-0.199
X37.98Y26.584Z-0.199
X37.98Y30.28Z-0.199
X26.519Y30.28
Y28.08Z-0.199
X25.839Y28.16Z-0.199
Y25.878Z-0.199
X38.66Y25.906
X38.66Y30.96Z-0.199
X25.839Y30.96
Y28.16Z-0.199
X25.159Y28.24Z-0.199
Y25.197Z-0.199
X39.34Y25.227Z-0.199
X39.34Y31.64Z-0.199
X25.159Y31.64
Y28.24Z-0.199
X24.479Y28.32Z-0.199
Y24.515Z-0.199
X40.02Y24.549
X40.02Y32.32Z-0.199
X24.479Y32.32
Y28.32Z-0.199
X23.799Y28.4Z-0.199
Y23.834Z-0.199
X40.7Y23.87Z-0.199
X40.7Y33Z-0.199
X23.799Y33
Y28.4Z-0.199
X23.119Y28.48Z-0.199
Y23.152Z-0.199
X41.38Y23.192Z-0.199
X41.38Y33.68Z-0.199
X23.119Y33.68
Y28.48Z-0.199
X22.439Y28.56Z-0.199
Y22.471Z-0.199
X42.06Y22.513
X42.06Y34.36Z-0.199
X22.439Y34.36
Y28.56Z-0.199
X21.759Y28.64Z-0.199
Y21.789Z-0.199
X42.74Y21.835Z-0.199
X42.74Y35.04Z-0.199
X21.759Y35.04
Y28.64Z-0.199
X21.079Y28.72Z-0.199
Y21.108Z-0.199
X43.42Y21.156Z-0.199
X43.42Y35.72Z-0.199
X21.079Y35.72
Y28.72Z-0.199
X20.399Y28.8Z-0.199
Y20.426Z-0.199
X44.1Y20.478Z-0.199
X44.1Y36.4Z-0.199
X20.399Y36.4
Y28.8Z-0.199
X19.719Y28.88Z-0.199
Y19.745Z-0.199
X44.78Y19.799Z-0.199
X44.78Y37.08Z-0.199
X19.719Y37.08
Y28.88Z-0.199
X19.039Y28.96Z-0.199
Y19.063Z-0.199
X44.838Y19.119Z-0.199
G0Z2
X44.86Y37.76
G1Z-0.199F75
X19.039Y37.76F150
Y28.96Z-0.199
X18.359Y29.04Z-0.199
Y18.382Z-0.199
X44.958Y18.439Z-0.199
G0Z2
X44.94Y38.44
G1Z-0.199F75
X18.359Y38.44F150
Y29.04Z-0.199
X17.679Y29.12Z-0.199
Y17.701Z-0.199
X44.878Y17.759Z-0.199
G0Z2
X44.82Y39.12
G1Z-0.199F75
X17.679Y39.12F150
Y29.12Z-0.199
X16.999Y29.2Z-0.199
Y17.019Z-0.199
X44.998Y17.08Z-0.199
G0Z2
X44.9Y39.8
G1Z-0.199F75
X16.999Y39.8F150
Y29.2Z-0.199
X16.319Y29.28Z-0.199
Y16.338Z-0.199
X44.918Y16.399Z-0.199
G0Z2
X44.98Y40.48
G1Z-0.199F75
X16.319Y40.48F150
Y29.28Z-0.199
X15.639Y29.36Z-0.199
Y15.656Z-0.199
X44.838Y15.719Z-0.199
G0Z2
X44.86Y41.16
G1Z-0.199F75
X15.639Y41.16F150
Y29.36Z-0.199
X14.959Y29.44Z-0.199
Y14.975Z-0.199
X44.958Y15.039Z-0.199
G0Z2
X44.94Y41.84
G1Z-0.199F75
X14.959Y41.84F150
Y29.44Z-0.199
X14.279Y29.52Z-0.199
Y14.293Z-0.199
X44.878Y14.359Z-0.199
G0Z2
X44.82Y42.52
G1Z-0.199F75
X14.279Y42.52F150
Y29.52Z-0.199
X13.599Y29.6Z-0.199
Y13.612Z-0.199
X44.998Y13.679Z-0.199
G0Z2
X44.9Y43.2
G1Z-0.199F75
X13.599Y43.2F150
Y29.6Z-0.199
X12.919Y29.68Z-0.199
Y12.93Z-0.199
X44.918Y12.999Z-0.199
G0Z2
X44.98Y43.88
G1Z-0.199F75
X12.919Y43.88F150
Y29.68Z-0.199
X12.239Y29.76Z-0.199
Y12.249Z-0.199
X44.838Y12.317Z-0.199
G0Z2
X44.86Y44.56
G1Z-0.199F75
X12.239Y44.56F150
Y29.76Z-0.199
X11.559Y29.84Z-0.199
Y11.567Z-0.199
X44.958Y11.637Z-0.199
G0Z2
X44.94Y45.24
G1Z-0.199F75
X11.559Y45.24F150
Y29.84Z-0.199
X10.879Y29.92Z-0.199
Y10.886Z-0.199
X44.878Y10.956Z-0.199
G0Z2
X44.82Y45.92
G1Z-0.199F75
X10.879Y45.92F150
Y29.92Z-0.199
X10.199Y30Z-0.199
Y10.205Z-0.199
X44.998Y10.277Z-0.199
G0Z2
X44.9Y46.6
G1Z-0.199F75
X10.199Y46.6F150
Y30Z-0.199
X9.519Y30.08Z-0.199
Y9.523Z-0.199
X44.918Y9.585Z-0.199
G0Z2
X44.98Y47.28
G1Z-0.199F75
X9.519Y47.28F150
Y30.08Z-0.199
X8.839Y30.16Z-0.199
Y8.842Z-0.199
X44.838Y8.901Z-0.199
G0Z2
X44.86Y47.96
G1Z-0.199F75
X8.839Y47.96F150
Y30.16Z-0.199
X8.159Y30.24Z-0.199
Y8.161Z-0.199
X44.958Y8.207Z-0.199
G0Z2
X7.679Y7.48
G1Z-0.199F75
X44.878Y7.518F150
G0Z2
X44.94Y48.64
G1Z-0.199F75
X8.159Y48.64F150
Y30.24Z-0.199
G0Z2
X44.82Y49.32
G1Z-0.199F75
X7.62Y49.32F150
G0Z2
 
